; HEADER_BLOCK_START
; generated by OrcaSlicer 1.8.0-beta2 on 2023-12-01 at 14:26:57
; total layer number: 240
; HEADER_BLOCK_END

; THUMBNAIL_BLOCK_START
; THUMBNAIL_BLOCK_END

; external perimeters extrusion width = 0.60mm
; perimeters extrusion width = 0.65mm
; infill extrusion width = 0.65mm
; solid infill extrusion width = 0.65mm
; top infill extrusion width = 0.56mm
; first layer extrusion width = 0.62mm

; EXECUTABLE_BLOCK_START
EXCLUDE_OBJECT_DEFINE NAME=3DBenchy.stl_id_0_copy_0 CENTER=210,210 POLYGON=[[180,200.816],[180.002,200.755],[180.007,200.699],[180.012,200.646],[180.014,200.63],[180.02,200.583],[180.028,200.525],[180.046,200.436],[180.058,200.379],[180.074,200.322],[180.081,200.296],[180.097,200.239],[180.126,200.155],[180.141,200.118],[180.162,200.064],[180.169,200.047],[180.186,200.01],[180.209,199.958],[180.23,199.916],[180.264,199.854],[180.278,199.827],[180.291,199.806],[180.34,199.727],[180.357,199.7],[180.371,199.679],[180.405,199.631],[180.44,199.584],[180.484,199.531],[180.508,199.501],[180.539,199.466],[180.578,199.423],[180.592,199.408],[180.6,199.4],[180.641,199.359],[180.661,199.34],[180.704,199.3],[180.737,199.271],[180.783,199.234],[180.793,199.225],[180.828,199.197],[180.887,199.154],[180.935,199.121],[180.979,199.092],[181.044,199.052],[181.071,199.036],[181.124,199.008],[181.148,198.995],[181.175,198.981],[181.197,198.97],[181.253,198.944],[181.312,198.919],[181.361,198.899],[181.417,198.879],[181.429,198.875],[181.472,198.861],[181.485,198.857],[181.541,198.84],[181.548,198.838],[181.584,198.828],[181.597,198.825],[181.625,198.818],[181.641,198.814],[181.71,198.799],[181.739,198.794],[181.769,198.789],[181.798,198.784],[209.812,194.886],[210.055,194.853],[210.299,194.821],[210.543,194.791],[210.882,194.752],[211.105,194.728],[211.35,194.702],[211.596,194.678],[211.842,194.656],[212.087,194.635],[212.253,194.622],[212.333,194.616],[212.523,194.602],[212.579,194.598],[212.826,194.581],[212.987,194.571],[213.071,194.566],[213.232,194.557],[213.489,194.544],[213.597,194.539],[213.619,194.538],[213.755,194.532],[213.906,194.526],[214.05,194.521],[214.167,194.517],[214.233,194.515],[214.342,194.512],[214.46,194.509],[214.548,194.507],[214.689,194.504],[214.881,194.501],[215.062,194.499],[215.18,194.498],[215.578,194.498],[215.934,194.5],[216.369,194.508],[216.45,194.51],[216.805,194.52],[216.912,194.524],[217.24,194.537],[217.677,194.558],[218.009,194.578],[218.092,194.583],[218.202,194.59],[218.375,194.602],[218.495,194.611],[218.641,194.622],[218.728,194.629],[218.909,194.644],[219.04,194.655],[219.832,194.78],[219.841,194.782],[220.269,194.888],[220.377,194.915],[220.595,194.97],[220.737,195.007],[220.813,195.027],[220.967,195.068],[221.248,195.145],[221.424,195.195],[221.68,195.27],[221.896,195.334],[222.111,195.4],[222.332,195.47],[222.558,195.543],[222.752,195.607],[223.008,195.694],[223.178,195.753],[223.232,195.772],[223.4,195.832],[223.601,195.905],[223.822,195.987],[224.033,196.067],[224.233,196.145],[224.343,196.188],[224.443,196.228],[224.453,196.232],[224.662,196.316],[224.871,196.402],[224.926,196.425],[225.134,196.513],[225.341,196.603],[225.547,196.693],[225.957,196.879],[226.16,196.974],[226.363,197.07],[226.565,197.168],[226.766,197.267],[226.967,197.367],[227.166,197.469],[227.366,197.572],[227.563,197.677],[227.762,197.783],[227.957,197.89],[228.153,197.999],[228.348,198.11],[228.543,198.221],[228.737,198.334],[228.93,198.449],[229.123,198.565],[229.314,198.683],[229.505,198.801],[229.696,198.922],[229.885,199.043],[230.075,199.167],[230.262,199.291],[230.45,199.417],[230.637,199.544],[230.824,199.673],[231.008,199.803],[231.193,199.934],[231.376,200.067],[231.56,200.201],[231.742,200.337],[231.923,200.474],[232.104,200.612],[232.284,200.752],[232.463,200.893],[232.642,201.036],[232.82,201.18],[232.998,201.325],[233.173,201.472],[233.523,201.77],[233.697,201.921],[233.87,202.074],[234.042,202.228],[234.214,202.384],[234.328,202.489],[234.498,202.645],[234.665,202.803],[234.832,202.962],[234.996,203.122],[235.161,203.283],[235.325,203.445],[235.486,203.609],[235.647,203.773],[235.807,203.939],[235.966,204.106],[236.124,204.274],[236.282,204.443],[236.438,204.614],[236.592,204.785],[236.745,204.958],[236.898,205.132],[237.05,205.306],[237.2,205.483],[237.349,205.66],[237.498,205.838],[237.645,206.017],[237.791,206.198],[237.936,206.38],[238.081,206.563],[238.223,206.747],[238.364,206.932],[238.505,207.118],[238.645,207.305],[238.783,207.493],[238.921,207.683],[239.056,207.874],[239.192,208.065],[239.325,208.258],[239.458,208.452],[239.589,208.647],[239.618,208.692],[239.651,208.745],[239.682,208.798],[239.713,208.852],[239.742,208.907],[239.769,208.962],[239.819,209.076],[239.834,209.117],[239.856,209.175],[239.876,209.233],[239.895,209.292],[239.912,209.351],[239.929,209.413],[239.943,209.47],[239.954,209.53],[239.966,209.593],[239.975,209.652],[239.984,209.713],[239.991,209.774],[239.995,209.836],[239.998,209.905],[240,209.966],[240,210.027],[239.999,210.088],[239.996,210.149],[239.992,210.209],[239.986,210.27],[239.977,210.331],[239.968,210.391],[239.958,210.449],[239.945,210.512],[239.932,210.569],[239.916,210.632],[239.901,210.686],[239.883,210.745],[239.863,210.803],[239.842,210.861],[239.82,210.918],[239.797,210.974],[239.771,211.03],[239.744,211.086],[239.716,211.14],[239.686,211.194],[239.655,211.248],[239.623,211.301],[239.589,211.353],[239.472,211.527],[239.339,211.721],[239.206,211.914],[239.071,212.106],[238.936,212.297],[238.797,212.487],[238.659,212.676],[238.52,212.864],[238.38,213.05],[238.237,213.236],[238.095,213.42],[237.95,213.604],[237.658,213.968],[237.51,214.148],[237.361,214.328],[237.21,214.506],[237.06,214.683],[236.907,214.86],[236.752,215.035],[236.597,215.209],[236.482,215.337],[236.325,215.509],[236.167,215.68],[236.008,215.85],[235.848,216.018],[235.688,216.186],[235.526,216.352],[235.2,216.68],[235.034,216.841],[234.869,217.002],[234.703,217.161],[234.535,217.319],[234.367,217.475],[234.199,217.63],[234.028,217.784],[233.857,217.937],[233.686,218.089],[233.512,218.239],[233.338,218.388],[233.164,218.536],[232.987,218.682],[232.811,218.827],[232.632,218.971],[232.454,219.114],[232.275,219.256],[232.093,219.396],[231.911,219.535],[231.728,219.673],[231.544,219.81],[231.359,219.945],[231.173,220.08],[230.799,220.344],[230.611,220.474],[230.421,220.603],[230.23,220.731],[230.039,220.857],[229.846,220.982],[229.653,221.106],[229.458,221.228],[229.263,221.349],[229.067,221.469],[228.869,221.587],[228.672,221.704],[228.472,221.819],[228.272,221.934],[228.072,222.046],[227.87,222.158],[227.595,222.307],[227.395,222.412],[227.196,222.516],[226.996,222.618],[226.796,222.719],[226.595,222.818],[226.392,222.916],[226.19,223.012],[225.987,223.107],[225.783,223.2],[225.579,223.292],[225.374,223.383],[225.169,223.472],[224.963,223.559],[224.756,223.645],[224.666,223.682],[224.549,223.73],[224.341,223.813],[224.122,223.898],[224.003,223.944],[223.704,224.057],[223.493,224.134],[223.293,224.206],[223.071,224.284],[222.884,224.348],[222.869,224.353],[222.656,224.424],[222.443,224.494],[222.206,224.57],[222.005,224.632],[221.979,224.64],[221.751,224.709],[221.523,224.776],[221.295,224.841],[221.142,224.884],[221.065,224.905],[220.924,224.943],[220.706,225.001],[220.606,225.027],[220.488,225.057],[220.269,225.112],[219.843,225.218],[219.316,225.319],[219.306,225.32],[219.05,225.344],[219.003,225.348],[218.81,225.364],[218.725,225.371],[218.561,225.384],[218.481,225.39],[218.134,225.414],[217.688,225.441],[217.649,225.443],[217.264,225.462],[217.126,225.468],[216.778,225.481],[216.564,225.487],[216.343,225.493],[215.907,225.5],[215.522,225.502],[215.177,225.502],[214.877,225.499],[214.821,225.498],[214.599,225.494],[214.456,225.491],[214.338,225.488],[214.166,225.483],[214.076,225.48],[213.93,225.475],[213.752,225.468],[213.728,225.467],[213.57,225.46],[213.462,225.455],[213.332,225.448],[213.133,225.437],[212.889,225.423],[212.644,225.407],[212.629,225.406],[212.342,225.385],[212.096,225.366],[211.849,225.345],[211.667,225.328],[211.603,225.322],[211.423,225.305],[211.179,225.28],[211.111,225.273],[210.935,225.254],[210.619,225.218],[210.373,225.188],[210.204,225.166],[209.882,225.124],[181.827,221.22],[181.792,221.215],[181.743,221.207],[181.686,221.196],[181.653,221.189],[181.597,221.175],[181.584,221.172],[181.548,221.162],[181.536,221.159],[181.48,221.142],[181.429,221.125],[181.417,221.121],[181.361,221.101],[181.312,221.081],[181.253,221.056],[181.197,221.03],[181.155,221.009],[181.105,220.982],[181.086,220.972],[181.044,220.948],[180.993,220.917],[180.979,220.908],[180.944,220.885],[180.935,220.879],[180.887,220.846],[180.847,220.817],[180.84,220.811],[180.793,220.775],[180.756,220.744],[180.749,220.738],[180.704,220.7],[180.661,220.66],[180.641,220.64],[180.592,220.592],[180.557,220.555],[180.539,220.534],[180.519,220.511],[180.48,220.466],[180.445,220.42],[180.431,220.402],[180.41,220.374],[180.407,220.37],[180.373,220.322],[180.357,220.3],[180.342,220.278],[180.308,220.224],[180.278,220.173],[180.25,220.122],[180.23,220.084],[180.218,220.06],[180.195,220.012],[180.169,219.954],[180.148,219.903],[180.127,219.849],[180.109,219.793],[180.107,219.79],[180.09,219.738],[180.075,219.682],[180.06,219.625],[180.046,219.564],[180.035,219.507],[180.026,219.454],[180.025,219.448],[180.016,219.396],[180.012,219.353],[180.008,219.325],[180.002,219.245],[180,219.208],[180,219.179],[180,200.816]]
M73 P0 R66
;TYPE:Custom
; Start G-code with Adaptive Meshing for Elegoo Neptune 3 Max

G90 ; Set absolute positioning
M83 ; Set extruder to relative mode
M104 S120 ; Set temporary nozzle temp to prevent oozing during homing and auto bed leveling
M140 S60 ; Set final bed temp
G4 S10 ; Allow partial nozzle warmup
G28 ; Home all axes

; Run Adaptive Meshing (KAMP)
G29

; Load the mesh
M420 S1

SMART_PARK

; Set final nozzle temp
M104 S220

; Wait for bed temp to stabilize
M190 S60

; Wait for nozzle temp to stabilize
M109 S220

; Move to printing height
G1 Z0.28 F240

; Start Line Purge macro (assuming you have it defined)
LINE_PURGE
G90
G21
M83 ; use relative distances for extrusion
; filament start gcode
SET_PRESSURE_ADVANCE ADVANCE=0.06; Override pressure advance value
M106 S0
;LAYER_CHANGE
;Z:0.28
;HEIGHT:0.28
;BEFORE_LAYER_CHANGE
;0.28
G92 E0

G1 E-.8 F3000
;AFTER_LAYER_CHANGE
;0.28
;_SET_FAN_SPEED_CHANGING_LAYER
; printing object 3DBenchy.stl id:0 copy 0
EXCLUDE_OBJECT_START NAME=3DBenchy.stl_id_0_copy_0
G1 X220.158 Y211.256 F12000
G1 Z.4
G1 Z.28
G1 E.8 F2400
;TYPE:Inner wall
;WIDTH:0.62
G1 F1200
G1 X220.851 Y210.277 E.06827
G1 X221.171 Y209.722 E.03646
G1 X221.269 Y209.457 E.01607
G1 X221.325 Y209.024 E.02482
;WIDTH:0.640272
G1 X221.252 Y208.52 E.03008
;WIDTH:0.675761
G1 X221.111 Y208.168 E.02373
G1 X221.358 Y208.459 E.02392
;WIDTH:0.640272
G1 X221.795 Y209.06 E.04377
;WIDTH:0.62
G1 X222.245 Y209.8 E.04933
G1 X222.288 Y210.032 E.01344
G1 X222.181 Y210.308 E.01685
G1 X221.829 Y210.881 E.03824
G1 X221.547 Y211.302 E.02882
G1 X221.163 Y211.82 E.03672
G1 X220.981 Y211.612 E.01577
G1 X220.661 Y211.397 E.02194
G1 X220.216 Y211.272 E.02627
G1 X220.778 Y213.061 F12000
;TYPE:Outer wall
;WIDTH:0.732979
G1 F1200
G1 X220.539 Y213.303 E.02329
;WIPE_START
G1 X220.778 Y213.061 E-.8
;WIPE_END
G1 X221.684 Y210.002 Z.68 F12000
G1 Z.28
G1 E.8 F2400
;TYPE:Inner wall
;WIDTH:0.668514
G1 F1200
G1 X221.349 Y210.564 E.04044
;WIDTH:0.658269
G1 X221.081 Y210.958 E.02898
;WIPE_START
G1 X221.349 Y210.564 E-.38124
G1 X221.617 Y210.114 E-.41876
;WIPE_END
G1 X219.058 Y207.056 Z.68 F12000
G1 Z.28
G1 E.8 F2400
;WIDTH:0.62
G1 F1200
G1 X217.717 Y207.065 E.0763
G1 X217.216 Y207.14 E.02882
G1 X216.764 Y207.317 E.02765
G1 X216.617 Y207.242 E.00943
G1 X216.159 Y207.076 E.02772
G1 X215.677 Y207.077 E.02743
G1 X215.312 Y207.171 E.02146
G1 X214.984 Y207.307 E.02021
G1 X214.558 Y207.653 E.03122
G1 X214.126 Y207.318 E.0311
G1 X213.629 Y207.13 E.03023
G1 X213.127 Y207.054 E.02889
G1 X212.631 Y207.122 E.02853
G1 X212.143 Y207.322 E.02997
G1 X211.981 Y207.226 E.01076
G1 X211.558 Y207.087 E.02532
G1 X211.065 Y207.059 E.02814
G1 X210.693 Y207.138 E.0216
G1 X210.186 Y207.39 E.03223
G1 X209.745 Y207.169 E.02808
G1 X209.235 Y207.054 E.02974
G1 X208.705 Y207.099 E.03026
G1 X208.117 Y207.339 E.03616
G1 X207.813 Y207.577 E.02199
G1 X207.496 Y207.953 E.02798
;WIDTH:0.658235
G1 X207.275 Y208.436 E.03228
;WIDTH:0.708129
G1 X207.24 Y208.529 E.00653
;WIDTH:0.758022
G1 X207.205 Y208.621 E.00704
;WIDTH:0.807914
G1 X207.171 Y208.714 E.00754
;WIDTH:0.857808
G1 X207.136 Y208.807 E.00804
;WIDTH:0.907701
G1 X207.101 Y208.9 E.00855
G1 X207.07 Y208.826 E.00686
;WIDTH:0.870449
G1 X207.04 Y208.753 E.00656
;WIDTH:0.833198
G1 X207.009 Y208.679 E.00625
;WIDTH:0.795947
G1 X206.952 Y208.564 E.0096
;WIDTH:0.75196
G1 X206.896 Y208.449 E.00903
;WIDTH:0.707973
G1 X206.839 Y208.334 E.00845
;WIDTH:0.663986
G1 X206.782 Y208.219 E.00788
;WIDTH:0.62
G1 X206.525 Y207.581 E.03915
G1 X206.164 Y207.009 E.0385
G1 X205.726 Y206.536 E.0367
G1 X205.154 Y206.122 E.0402
G1 X204.549 Y205.857 E.03754
G1 X203.936 Y205.709 E.03592
G1 X203.355 Y205.641 E.03331
G1 X201.767 Y205.605 E.09038
G1 X201.148 Y205.67 E.03543
G1 X200.745 Y205.812 E.02433
G1 X200.382 Y206.019 E.0238
G1 X200.113 Y206.275 E.02112
G1 X199.96 Y206.133 E.01187
G1 X199.521 Y205.85 E.0297
G1 X199.089 Y205.652 E.0271
G1 X198.314 Y205.476 E.04518
G1 X197.456 Y205.455 E.04887
G1 X196.897 Y205.531 E.03208
G1 X196.54 Y205.628 E.0211
G1 X195.843 Y205.935 E.0433
G1 X195.431 Y205.752 E.02566
G1 X194.774 Y205.615 E.0382
G1 X191.531 Y205.626 E.1846
G1 X190.7 Y205.592 E.04731
G1 X190.197 Y205.719 E.02952
G1 X189.656 Y206.015 E.03511
G1 X189.232 Y205.795 E.02722
;WIDTH:0.661897
G1 X188.994 Y205.7 E.01563
;WIDTH:0.703794
G1 X188.757 Y205.605 E.01672
;WIDTH:0.745691
G1 X188.52 Y205.511 E.0178
;WIDTH:0.787589
G1 X188.283 Y205.416 E.01889
G1 X187.776 Y205.409 E.0375
;WIDTH:0.761642
G1 X187.268 Y205.402 E.03617
;WIDTH:0.759338
G1 X186.683 Y205.473 E.04191
;WIDTH:0.794825
G1 X186.429 Y205.533 E.01952
;WIDTH:0.830312
G1 X186.174 Y205.593 E.02046
G1 X185.647 Y205.826 E.04515
G1 X185.647 Y205.173 E.05113
G1 X185.73 Y204.908 E.02172
G1 X186.009 Y204.85 E.02233
G1 X186.311 Y204.814 E.02381
;WIDTH:0.794825
G1 X186.613 Y204.778 E.02271
;WIDTH:0.759338
G1 X187.582 Y204.709 E.06907
;WIDTH:0.787589
G1 X188.287 Y204.69 E.05213
G1 X188.419 Y204.663 E.01
;WIDTH:0.749808
G1 X188.552 Y204.636 E.00949
;WIDTH:0.712027
G1 X188.684 Y204.609 E.00897
;WIDTH:0.674247
G1 X188.817 Y204.582 E.00845
;WIDTH:0.636467
G1 X189.419 Y204.537 E.03539
;WIDTH:0.62
G1 X209.221 Y203.328 E1.1291
G1 X210.273 Y203.304 E.05986
G1 X211.038 Y203.338 E.04359
G1 X211.777 Y203.413 E.04229
G1 X212.525 Y203.531 E.04308
G1 X213.534 Y203.76 E.0589
G1 X214.263 Y203.976 E.04326
G1 X215.048 Y204.267 E.04766
G1 X215.527 Y204.468 E.02954
G1 X216.056 Y204.712 E.03317
G1 X216.888 Y205.161 E.05381
G1 X217.681 Y205.67 E.05363
G1 X218.375 Y206.17 E.04868
G1 X219.386 Y207.054 E.07645
G1 X219.118 Y207.056 E.01527
;WIPE_START
G1 X218.118 Y207.062 E-.8
;WIPE_END
G1 X217.334 Y210.532 Z.68 F12000
G1 Z.28
G1 E.8 F2400
;WIDTH:0.629399
G1 F1200
G1 X217.274 Y210.615 E.00595
;WIDTH:0.656456
G1 X217.106 Y210.823 E.01622
;WIDTH:0.683514
G1 X216.939 Y211.032 E.01695
;WIDTH:0.727941
G1 X216.866 Y211.097 E.00661
;WIDTH:0.772369
G1 X216.794 Y211.163 E.00705
;WIDTH:0.816797
G1 X216.722 Y211.228 E.00749
;WIDTH:0.861225
G1 X216.65 Y211.293 E.00793
;WIDTH:0.905653
G1 X216.577 Y211.359 E.00837
G1 X216.588 Y211.262 E.00837
;WIDTH:0.861225
G1 X216.599 Y211.165 E.00793
;WIDTH:0.816797
G1 X216.61 Y211.068 E.00749
;WIDTH:0.772369
G1 X216.621 Y210.972 E.00705
;WIDTH:0.727941
G1 X216.632 Y210.875 E.00661
;WIDTH:0.683514
G1 X216.703 Y210.617 E.01695
;WIDTH:0.656456
G1 X216.773 Y210.359 E.01622
;WIDTH:0.629399
G1 X216.904 Y210.035 E.02021
G1 X217.032 Y210.134 E.00937
G1 X217.508 Y210.293 E.02903
G1 X217.37 Y210.483 E.01361
;WIPE_START
G1 X217.274 Y210.615 E-.13021
G1 X217.106 Y210.823 E-.21404
G1 X216.939 Y211.032 E-.21404
G1 X216.866 Y211.097 E-.07795
G1 X216.794 Y211.163 E-.07795
