; HEADER_BLOCK_START
; generated by OrcaSlicer 1.8.0-beta2 on 2023-12-01 at 18:45:44
; total layer number: 276
; HEADER_BLOCK_END

; THUMBNAIL_BLOCK_START
; THUMBNAIL_BLOCK_END

; external perimeters extrusion width = 0.60mm
; perimeters extrusion width = 0.65mm
; infill extrusion width = 0.65mm
; solid infill extrusion width = 0.65mm
; top infill extrusion width = 0.56mm
; support material extrusion width = 0.55mm
; first layer extrusion width = 0.62mm

; EXECUTABLE_BLOCK_START
EXCLUDE_OBJECT_DEFINE NAME=DSO_Stand.STL_id_0_copy_0 CENTER=210,210 POLYGON=[[166.032,186.36],[166.037,186.231],[166.063,186.105],[166.109,185.984],[166.173,185.873],[166.255,185.773],[166.351,185.688],[166.46,185.619],[166.578,185.569],[166.703,185.538],[166.832,185.527],[251.969,185.527],[252.29,185.553],[252.603,185.63],[252.899,185.756],[253.171,185.928],[253.412,186.142],[253.615,186.391],[253.776,186.67],[253.89,186.971],[253.955,187.286],[253.968,187.608],[253.929,187.927],[253.839,188.237],[253.701,188.527],[247.039,200.068],[246.963,200.179],[246.939,200.208],[246.929,200.219],[246.92,200.228],[246.871,200.277],[246.814,200.327],[246.779,200.352],[199.273,233.715],[198.56,234.089],[197.797,234.344],[197.003,234.473],[196.198,234.473],[195.404,234.344],[194.641,234.089],[193.928,233.715],[193.285,233.231],[192.728,232.651],[192.271,231.989],[166.139,186.727],[166.084,186.611],[166.048,186.487],[166.032,186.36]]
M73 P0 R66
;TYPE:Custom
; Start G-code with Adaptive Meshing for Elegoo Neptune 3 Max

G90 ; Set absolute positioning
M83 ; Set extruder to relative mode
M104 S120 ; Set temporary nozzle temp to prevent oozing during homing and auto bed leveling
M140 S60 ; Set final bed temp
G4 S10 ; Allow partial nozzle warmup
G28 ; Home all axes

; Run Adaptive Meshing (KAMP)
G29

; Load the mesh
M420 S1

SMART_PARK

; Set final nozzle temp
M104 S220

; Wait for bed temp to stabilize
M190 S60

; Wait for nozzle temp to stabilize
M109 S220

; Move to printing height
G1 Z0.28 F240

; Start Line Purge macro (assuming you have it defined)
LINE_PURGE
G90
G21
M83 ; use relative distances for extrusion
; filament start gcode
SET_PRESSURE_ADVANCE ADVANCE=0.06; Override pressure advance value
M106 S0
;LAYER_CHANGE
;Z:0.36
;HEIGHT:0.36
;BEFORE_LAYER_CHANGE
;0.36
G92 E0

G1 E-.8 F3000
;AFTER_LAYER_CHANGE
;0.36
;_SET_FAN_SPEED_CHANGING_LAYER
; printing object DSO_Stand.STL id:0 copy 0
EXCLUDE_OBJECT_START NAME=DSO_Stand.STL_id_0_copy_0
G1 X244.521 Y198.97 F10200
G1 Z.4
G1 Z.36
G1 E.8 F2400
;TYPE:Support
;WIDTH:0.62
G1 F1200
G1 X244.428 Y199.17 E.01566
G1 X244.373 Y199.369 E.01461
G1 X244.35 Y199.581 E.01513
G1 X244.361 Y199.792 E.01502
G1 X244.397 Y199.969 E.01275
G1 X244.469 Y200.164 E.01475
G1 X244.572 Y200.349 E.01505
G1 X244.703 Y200.513 E.01483
G1 X244.86 Y200.656 E.01509
G1 X245.035 Y200.769 E.0148
G1 X245.225 Y200.854 E.01475
G1 X245.432 Y200.908 E.01518
G1 X245.635 Y200.927 E.01443
G1 X246.439 Y200.915 E.05708
G1 X246.631 Y200.874 E.01388
G1 X246.84 Y200.792 E.01596
G1 X247.011 Y200.691 E.01405
G1 X247.163 Y200.566 E.01397
G1 X247.292 Y200.423 E.01366
G1 X247.39 Y200.279 E.01234
G1 X249.991 Y195.775 E.36896
G1 X250.746 Y195.977 E.05545
G1 X250.746 Y202.976 E.49644
G1 X240.909 Y202.976 E.69772
G1 X240.909 Y193.139 E.69772
G1 X247.887 Y193.139 E.49497
G1 X244.562 Y198.899 E.47179
G1 X241.398 Y202.487 F10200
G1 F1200
G1 X241.398 Y193.628 E.62843
G1 X247.041 Y193.628 E.40031
G1 X244.093 Y198.734 E.41826
G1 X243.99 Y198.948 E.01685
G1 X243.905 Y199.22 E.02016
G1 X243.864 Y199.507 E.02059
G1 X243.87 Y199.799 E.0207
G1 X243.923 Y200.086 E.0207
G1 X244.05 Y200.421 E.02541
G1 X244.159 Y200.61 E.01551
G1 X244.337 Y200.837 E.02041
G1 X244.551 Y201.034 E.02067
G1 X244.79 Y201.193 E.02036
G1 X245.119 Y201.333 E.02535
G1 X245.406 Y201.399 E.02089
G1 X245.641 Y201.416 E.01674
G1 X246.276 Y201.416 E.04502
G1 X246.561 Y201.391 E.02028
G1 X246.821 Y201.326 E.01899
G1 X247.068 Y201.224 E.019
G1 X247.301 Y201.084 E.01929
G1 X247.509 Y200.912 E.01913
G1 X247.685 Y200.714 E.0188
G1 X247.808 Y200.532 E.01559
G1 X250.226 Y196.343 E.34303
G1 X250.257 Y196.352 E.00228
G1 X250.257 Y202.487 E.4352
G1 X241.398 Y202.487 E.62843
G1 X242.001 Y201.884 F10200
G1 F1200
G1 X242.001 Y194.231 E.54288
G1 X245.997 Y194.231 E.28344
G1 X243.564 Y198.444 E.34505
G1 X243.392 Y198.825 E.02968
G1 X243.295 Y199.192 E.02692
G1 X243.257 Y199.58 E.02769
G1 X243.283 Y199.969 E.02759
G1 X243.37 Y200.347 E.02752
G1 X243.516 Y200.701 E.0272
G1 X243.649 Y200.933 E.01895
G1 X243.885 Y201.237 E.02729
G1 X244.601 Y201.884 E.06847
G1 X242.001 Y201.884 E.18445
G1 X243.006 Y198.205 F10200
G1 F1200
G1 X242.604 Y198.097 E.02954
G1 X242.604 Y194.834 E.23146
G1 X244.952 Y194.834 E.16658
G1 X243.006 Y198.205 E.2761
;WIPE_START
G1 X243.506 Y197.339 E-.8
;WIPE_END
G1 X247.348 Y201.884 Z.76 F10200
G1 Z.36
G1 E.8 F2400
G1 F1200
G1 X247.936 Y201.338 E.05691
G1 X248.171 Y201.072 E.02515
G1 X248.325 Y200.843 E.0196
G1 X249.252 Y199.237 E.13154
G1 X249.654 Y199.345 E.02954
G1 X249.654 Y201.884 E.18013
G1 X247.348 Y201.884 E.16357
;WIPE_START
G1 X248.348 Y201.884 E-.8
;WIPE_END
G1 X251.289 Y201.048 Z.76 F10200
G1 Z.36
G1 E.8 F2400
;TYPE:Brim
G1 F1200
G1 X251.289 Y195.885 E.36621
G1 X251.232 Y195.72 E.01237
G1 X251.12 Y195.574 E.01307
G1 X250.975 Y195.477 E.01237
G1 X250.233 Y195.278 E.05451
G1 X254.023 Y188.713 E.53767
G1 X254.175 Y188.396 E.02493
G1 X254.285 Y188.032 E.027
G1 X254.337 Y187.637 E.02827
G1 X254.324 Y187.254 E.02713
G1 X254.254 Y186.895 E.02594
G1 X254.124 Y186.539 E.02689
G1 X253.937 Y186.206 E.02706
G1 X253.688 Y185.895 E.02827
G1 X253.403 Y185.64 E.02713
G1 X253.082 Y185.435 E.02706
G1 X252.708 Y185.275 E.02886
G1 X252.337 Y185.186 E.02706
G1 X251.977 Y185.156 E.02559
G1 X228.312 Y185.157 E1.6786
G1 X227.504 Y185.221 E.05747
G1 X226.723 Y185.404 E.05693
G1 X225.977 Y185.701 E.05693
G1 X225.318 Y186.083 E.05406
G1 X224.7 Y186.572 E.05585
G1 X224.152 Y187.157 E.05691
G1 X223.681 Y187.842 E.05893
G1 X199.751 Y229.29 E3.3948
G1 X199.41 Y229.783 E.04247
G1 X199.006 Y230.204 E.04141
G1 X198.539 Y230.555 E.04141
G1 X198.022 Y230.826 E.04141
G1 X197.469 Y231.011 E.04141
G1 X196.893 Y231.105 E.04141
G1 X196.309 Y231.105 E.04141
G1 X195.733 Y231.011 E.04141
G1 X195.179 Y230.826 E.04141
G1 X194.662 Y230.555 E.04141
G1 X194.195 Y230.204 E.04141
G1 X193.791 Y229.783 E.04141
G1 X193.451 Y229.29 E.04247
G1 X168.308 Y185.742 E3.5668
G1 X168.111 Y185.492 E.02252
G1 X167.843 Y185.296 E.02357
G1 X167.608 Y185.202 E.01795
G1 X167.344 Y185.16 E.01902
G1 X166.832 Y185.156 E.03631
G1 X166.512 Y185.203 E.02295
G1 X166.243 Y185.318 E.02069
G1 X165.966 Y185.542 E.0253
G1 X165.769 Y185.838 E.02525
G1 X165.696 Y186.052 E.01602
G1 X165.663 Y186.323 E.01935
G1 X165.698 Y186.612 E.02069
G1 X165.817 Y186.913 E.02294
G1 X191.949 Y232.175 E3.70709
G1 X192.422 Y232.862 E.05919
G1 X193.017 Y233.488 E.06128
G1 X193.756 Y234.044 E.06559
G1 X194.483 Y234.424 E.05821
G1 X195.286 Y234.696 E.06013
G1 X196.199 Y234.844 E.06556
G1 X197.019 Y234.843 E.05821
G1 X197.873 Y234.706 E.0613
G1 X198.678 Y234.441 E.06013
G1 X199.445 Y234.044 E.06127
G1 X200.186 Y233.486 E.06579
G1 X200.752 Y232.896 E.05801
G1 X201.236 Y232.2 E.06013
G1 X225.761 Y189.725 E3.4789
G1 X226.074 Y189.266 E.03944
M73 P0 R65
G1 X226.443 Y188.868 E.03846
G1 X226.867 Y188.53 E.03846
G1 X227.336 Y188.259 E.03846
G1 X227.841 Y188.061 E.03846
G1 X228.369 Y187.94 E.03846
G1 X228.924 Y187.899 E.03944
G1 X248.122 Y187.899 E1.36171
G1 X248.398 Y187.921 E.01964
G1 X248.652 Y187.984 E.01858
G1 X248.893 Y188.086 E.01858
G1 X249.114 Y188.226 E.01858
G1 X249.31 Y188.4 E.01858
G1 X249.476 Y188.603 E.01858
G1 X249.607 Y188.83 E.01858
G1 X249.7 Y189.075 E.01858
G1 X249.752 Y189.331 E.01858
G1 X249.763 Y189.593 E.01858
G1 X249.731 Y189.853 E.01858
G1 X249.658 Y190.104 E.01858
G1 X249.54 Y190.355 E.01964
G1 X248.206 Y192.665 E.18922
G1 X248.159 Y192.622 E.0045
G1 X248.044 Y192.596 E.00836
G1 X243.858 Y192.596 E.29688
G1 X244.142 Y192.105 E.04025
G1 X244.178 Y191.946 E.01155
G1 X244.116 Y191.795 E.01155
G1 X243.907 Y191.698 E.01632
G1 X229.165 Y191.698 E1.04566
G1 X229.01 Y191.747 E.01155
G1 X228.93 Y191.834 E.00836
G1 X204.545 Y234.069 E3.45928
G1 X204.365 Y234.354 E.02391
G1 X203.913 Y235.01 E.05649
G1 X203.489 Y235.531 E.04766
G1 X202.938 Y236.106 E.05646
G1 X202.434 Y236.554 E.04785
G1 X201.794 Y237.037 E.05686
G1 X201.221 Y237.401 E.04818
G1 X200.514 Y237.774 E.05666
G1 X199.892 Y238.04 E.04801
G1 X199.134 Y238.294 E.05666
G1 X198.477 Y238.457 E.04801
G1 X197.689 Y238.586 E.05666
G1 X197.015 Y238.642 E.04801
G1 X196.216 Y238.643 E.05666
G1 X195.541 Y238.59 E.04801
G1 X194.752 Y238.463 E.05666
G1 X194.095 Y238.302 E.04801
G1 X193.337 Y238.05 E.05666
G1 X192.713 Y237.786 E.04801
G1 X192.006 Y237.416 E.05666
G1 X191.433 Y237.055 E.04801
G1 X190.793 Y236.576 E.05666
G1 X190.286 Y236.128 E.04801
G1 X189.732 Y235.553 E.05666
G1 X189.303 Y235.029 E.04801
G1 X188.845 Y234.368 E.05704
G1 X188.66 Y234.076 E.0245
G1 X162.53 Y188.819 E3.70678
G1 X162.323 Y188.414 E.03227
G1 X162.095 Y187.822 E.04501
G1 X161.898 Y186.9 E.06683
G1 X161.87 Y186.103 E.05656
G1 X161.97 Y185.31 E.0567
G1 X162.196 Y184.543 E.0567
G1 X162.542 Y183.823 E.05669
G1 X163 Y183.167 E.05671
G1 X163.556 Y182.594 E.05668
G1 X164.197 Y182.116 E.05671
G1 X164.907 Y181.748 E.05669
G1 X165.666 Y181.499 E.0567
G1 X166.463 Y181.374 E.05718
G1 X166.827 Y181.357 E.02587
G1 X167.605 Y181.369 E.05519
G1 X168.293 Y181.461 E.04924
G1 X169.01 Y181.666 E.05285
G1 X169.684 Y181.973 E.05256
G1 X170.409 Y182.459 E.06191
G1 X170.952 Y182.966 E.05267
G1 X171.34 Y183.445 E.04369
G1 X171.598 Y183.842 E.0336
G1 X196.366 Y226.741 E3.51358
G1 X196.486 Y226.851 E.01155
G1 X196.647 Y226.872 E.01155
G1 X196.836 Y226.741 E.01632
G1 X220.386 Y185.949 E3.34095
G1 X220.972 Y185.069 E.07501
G1 X221.36 Y184.582 E.04416
G1 X221.864 Y184.037 E.05263
G1 X222.324 Y183.609 E.04459
G1 X222.903 Y183.146 E.05262
G1 X223.422 Y182.791 E.04459
G1 X224.064 Y182.419 E.05262
G1 X224.63 Y182.145 E.04459
G1 X225.32 Y181.873 E.05262
G1 X225.921 Y181.687 E.04459
G1 X226.644 Y181.521 E.05262
G1 X227.265 Y181.426 E.04459
G1 X228.005 Y181.37 E.05262
G1 X251.964 Y181.357 E1.69944
G1 X252.298 Y181.37 E.02373
M73 P1 R65
G1 X252.611 Y181.395 E.02226
G1 X253.268 Y181.5 E.04716
G1 X253.575 Y181.575 E.02243
G1 X254.218 Y181.787 E.04801
G1 X254.509 Y181.909 E.02242
G1 X255.11 Y182.221 E.04801
G1 X255.377 Y182.389 E.02242
G1 X255.92 Y182.794 E.04802
G1 X256.157 Y183.003 E.02242
G1 X256.628 Y183.489 E.04802
G1 X256.829 Y183.733 E.02242
G1 X257.216 Y184.289 E.048
G1 X257.375 Y184.562 E.02242
G1 X257.667 Y185.172 E.04801
G1 X257.78 Y185.466 E.02234
G1 X257.97 Y186.113 E.04785
G1 X258.035 Y186.424 E.02249
G1 X258.12 Y187.098 E.04818
G1 X258.134 Y187.413 E.02242
G1 X258.109 Y188.09 E.04801
G1 X258.072 Y188.404 E.02242
G1 X257.939 Y189.067 E.04801
G1 X257.853 Y189.371 E.02242
G1 X257.616 Y190.002 E.0478
G1 X257.313 Y190.613 E.04834
G1 X251.319 Y200.996 E.8504
;WIPE_START
G1 X251.313 Y199.996 E-.8
;WIPE_END
G1 X251.912 Y198.555 Z.76 F10200
G1 Z.36
G1 E.8 F2400
G1 F1200
G1 X251.831 Y198.414 E.01148
G1 X251.831 Y195.898 E.17847
G1 X251.798 Y195.698 E.01441
G1 X251.751 Y195.558 E.01048
G1 X251.655 Y195.379 E.01441
G1 X251.559 Y195.254 E.01117
G1 X251.414 Y195.118 E.0141
G1 X251.208 Y194.996 E.01697
G1 X251.133 Y194.895 E.00888
G1 X251.15 Y194.774 E.00866
G1 X254.515 Y188.943 E.47751
G1 X254.697 Y188.543 E.03118
G1 X254.801 Y188.201 E.02538
G1 X254.874 Y187.717 E.03468
G1 X254.866 Y187.245 E.03347
G1 X254.788 Y186.801 E.032
G1 X254.637 Y186.363 E.03288
G1 X254.417 Y185.952 E.03308
G1 X254.041 Y185.483 E.04256
G1 X253.687 Y185.178 E.03318
G1 X253.285 Y184.931 E.03346
G1 X252.824 Y184.745 E.03525
G1 X252.371 Y184.644 E.03298
G1 X251.971 Y184.614 E.02841
G1 X228.263 Y184.616 E1.68163
G1 X227.37 Y184.695 E.06357
G1 X226.512 Y184.904 E.06266
G1 X225.696 Y185.237 E.0625
G1 X224.972 Y185.664 E.05964
G1 X224.372 Y186.139 E.05425
G1 X223.763 Y186.778 E.0626
G1 X223.207 Y187.576 E.06901
G1 X199.288 Y229.005 E3.39322
G1 X198.98 Y229.448 E.03827
G1 X198.635 Y229.804 E.03518
G1 X198.237 Y230.101 E.03518
G1 X197.821 Y230.319 E.03333
G1 X197.351 Y230.478 E.03518
G1 X196.862 Y230.56 E.03518
G1 X196.366 Y230.562 E.03518
G1 X195.876 Y230.484 E.03518
G1 X195.405 Y230.329 E.03518
G1 X194.942 Y230.087 E.03703
G1 X194.547 Y229.787 E.03518
G1 X194.222 Y229.448 E.03333
G1 X193.907 Y228.994 E.0392
G1 X168.727 Y185.396 E3.57115
G1 X168.544 Y185.165 E.0209
G1 X168.424 Y185.049 E.01188
G1 X168.173 Y184.864 E.02206
G1 X167.824 Y184.703 E.02728
G1 X167.437 Y184.625 E.028
G1 X166.846 Y184.613 E.04194
G1 X166.441 Y184.665 E.02894
G1 X166.29 Y184.708 E.01113
G1 X166.041 Y184.814 E.01914
G1 X165.893 Y184.903 E.01232
G1 X165.634 Y185.113 E.02362
G1 X165.508 Y185.251 E.01322
G1 X165.323 Y185.528 E.02363
G1 X165.253 Y185.671 E.01131
G1 X165.155 Y186 E.02437
G1 X165.125 Y186.398 E.02834
G1 X165.158 Y186.668 E.01925
G1 X165.197 Y186.82 E.01114
G1 X165.352 Y187.194 E.0287
G1 X191.476 Y232.441 E3.7059
G1 X191.968 Y233.16 E.06183
G1 X192.615 Y233.853 E.06722
G1 X193.516 Y234.531 E.07998
G1 X194.321 Y234.942 E.06412
G1 X195.1 Y235.206 E.05833
G1 X196.212 Y235.387 E.07994
G1 X197.116 Y235.377 E.06414
G1 X198.054 Y235.218 E.06742
G1 X198.939 Y234.917 E.0663
G1 X199.683 Y234.532 E.05944
G1 X200.587 Y233.852 E.08024
G1 X201.204 Y233.196 E.06392
G1 X201.678 Y232.516 E.0588
G1 X226.218 Y190.019 E3.48077
G1 X226.493 Y189.615 E.03468
G1 X226.822 Y189.26 E.0344
G1 X227.184 Y188.974 E.03268
G1 X227.584 Y188.745 E.03268
G1 X227.99 Y188.585 E.03096
G1 X228.463 Y188.478 E.0344
G1 X228.95 Y188.441 E.03469
G1 X248.093 Y188.441 E1.35782
G1 X248.336 Y188.465 E.01728
G1 X248.651 Y188.575 E.02369
G1 X248.806 Y188.679 E.01327
G1 X249.034 Y188.924 E.02369
G1 X249.124 Y189.088 E.01327
G1 X249.212 Y189.423 E.02459
G1 X249.2 Y189.718 E.02093
G1 X249.143 Y189.923 E.01511
G1 X249.055 Y190.108 E.01451
G1 X247.979 Y191.972 E.1527
G1 X247.838 Y192.054 E.01155
G1 X244.873 Y192.054 E.21033
G1 X244.757 Y192.006 E.00888
G1 X244.623 Y191.603 E.03009
G1 X244.504 Y191.42 E.0155
G1 X244.332 Y191.298 E.01496
G1 X244.153 Y191.214 E.01399
G1 X243.889 Y191.155 E.0192
G1 X229.178 Y191.155 E1.04351
G1 X228.868 Y191.223 E.02251
G1 X228.6 Y191.393 E.0225
G1 X228.454 Y191.573 E.01647
G1 X203.917 Y234.047 E3.47925
G1 X203.482 Y234.679 E.05441
G1 X203.077 Y235.176 E.0455
G1 X202.566 Y235.71 E.05245
G1 X202.084 Y236.138 E.04568
G1 X201.49 Y236.587 E.05283
G1 X200.954 Y236.928 E.04506
G1 X200.274 Y237.286 E.05448
G1 X199.692 Y237.534 E.04491
G1 X198.989 Y237.77 E.05263
G1 X198.361 Y237.926 E.04584
G1 X197.629 Y238.046 E.05263
G1 X196.998 Y238.099 E.04491
G1 X196.23 Y238.1 E.05449
G1 X195.599 Y238.049 E.04491
G1 X194.866 Y237.932 E.05263
G1 X194.239 Y237.778 E.04584
G1 X193.535 Y237.544 E.05263
G1 X192.952 Y237.297 E.04491
G1 X192.271 Y236.941 E.05449
G1 X191.735 Y236.603 E.04491
G1 X191.142 Y236.159 E.05263
G1 X190.657 Y235.731 E.04584
G1 X190.142 Y235.197 E.05263
G1 X189.741 Y234.707 E.04491
G1 X189.299 Y234.071 E.05493
G1 X189.123 Y233.792 E.02339
G1 X163.009 Y188.563 E3.7045
G1 X162.823 Y188.199 E.02895
G1 X162.614 Y187.654 E.04145
G1 X162.442 Y186.847 E.05848
G1 X162.415 Y186.115 E.052
G1 X162.507 Y185.409 E.05047
G1 X162.701 Y184.752 E.04862
G1 X163.007 Y184.109 E.05047
G1 X163.412 Y183.524 E.05048
G1 X163.906 Y183.012 E.05046
G1 X164.476 Y182.586 E.05048
G1 X165.13 Y182.246 E.05232
G1 X165.807 Y182.026 E.05048
G1 X166.508 Y181.916 E.05035
G1 X166.84 Y181.9 E.02356
G1 X167.555 Y181.911 E.05072
G1 X168.193 Y181.997 E.04569
G1 X168.81 Y182.173 E.04549
G1 X169.43 Y182.456 E.04832
G1 X170.06 Y182.878 E.05377
G1 X170.545 Y183.33 E.04704
G1 X170.895 Y183.758 E.03921
G1 X171.133 Y184.122 E.03086
G1 X195.889 Y227.001 E3.51199
G1 X196.107 Y227.24 E.02294
G1 X196.294 Y227.356 E.01555
G1 X196.565 Y227.408 E.01956
G1 X196.778 Y227.396 E.01516
G1 X196.97 Y227.309 E.01496
G1 X197.132 Y227.196 E.01399
G1 X197.315 Y226.997 E.0192
G1 X220.845 Y186.24 E3.3381
G1 X221.415 Y185.383 E.073
G1 X221.776 Y184.931 E.04102
G1 X222.244 Y184.425 E.0489
G1 X222.683 Y184.016 E.04257
