; HEADER_BLOCK_START
; generated by OrcaSlicer 1.8.0-beta2 on 2023-11-30 at 15:58:15
; total layer number: 7
; HEADER_BLOCK_END

; THUMBNAIL_BLOCK_START
; THUMBNAIL_BLOCK_END

; external perimeters extrusion width = 0.60mm
; perimeters extrusion width = 0.65mm
; infill extrusion width = 0.65mm
; solid infill extrusion width = 0.72mm
; top infill extrusion width = 0.72mm
; first layer extrusion width = 0.62mm

; external perimeters extrusion width = 0.60mm
; perimeters extrusion width = 0.65mm
; infill extrusion width = 0.65mm
; solid infill extrusion width = 0.72mm
; top infill extrusion width = 0.72mm
; first layer extrusion width = 0.62mm

; external perimeters extrusion width = 0.60mm
; perimeters extrusion width = 0.65mm
; infill extrusion width = 0.65mm
; solid infill extrusion width = 0.72mm
; top infill extrusion width = 0.72mm
; first layer extrusion width = 0.62mm

; external perimeters extrusion width = 0.60mm
; perimeters extrusion width = 0.65mm
; infill extrusion width = 0.65mm
; solid infill extrusion width = 0.72mm
; top infill extrusion width = 0.72mm
; first layer extrusion width = 0.62mm

; external perimeters extrusion width = 0.60mm
; perimeters extrusion width = 0.65mm
; infill extrusion width = 0.65mm
; solid infill extrusion width = 0.72mm
; top infill extrusion width = 0.72mm
; first layer extrusion width = 0.62mm

; external perimeters extrusion width = 0.60mm
; perimeters extrusion width = 0.65mm
; infill extrusion width = 0.65mm
; solid infill extrusion width = 0.72mm
; top infill extrusion width = 0.72mm
; first layer extrusion width = 0.62mm

; external perimeters extrusion width = 0.60mm
; perimeters extrusion width = 0.65mm
; infill extrusion width = 0.65mm
; solid infill extrusion width = 0.72mm
; top infill extrusion width = 0.72mm
; first layer extrusion width = 0.62mm

; external perimeters extrusion width = 0.60mm
; perimeters extrusion width = 0.65mm
; infill extrusion width = 0.65mm
; solid infill extrusion width = 0.72mm
; top infill extrusion width = 0.72mm
; first layer extrusion width = 0.62mm

; external perimeters extrusion width = 0.60mm
; perimeters extrusion width = 0.65mm
; infill extrusion width = 0.65mm
; solid infill extrusion width = 0.72mm
; top infill extrusion width = 0.72mm
; first layer extrusion width = 0.62mm

; external perimeters extrusion width = 0.60mm
; perimeters extrusion width = 0.65mm
; infill extrusion width = 0.65mm
; solid infill extrusion width = 0.72mm
; top infill extrusion width = 0.72mm
; first layer extrusion width = 0.62mm

; EXECUTABLE_BLOCK_START
EXCLUDE_OBJECT_DEFINE NAME=flowrate_0_id_0_copy_0 CENTER=210,258 POLYGON=[[190,243],[230,243],[230,263],[220,273],[200,273],[190,263],[190,243]]
EXCLUDE_OBJECT_DEFINE NAME=flowrate_m1_id_1_copy_0 CENTER=168,226 POLYGON=[[148,211],[188,211],[188,231],[178,241],[158,241],[148,231],[148,211]]
EXCLUDE_OBJECT_DEFINE NAME=flowrate_m2_id_2_copy_0 CENTER=210,226 POLYGON=[[190,211],[230,211],[230,231],[220,241],[200,241],[190,231],[190,211]]
EXCLUDE_OBJECT_DEFINE NAME=flowrate_m3_id_3_copy_0 CENTER=252,226 POLYGON=[[232,211],[272,211],[272,231],[262,241],[242,241],[232,231],[232,211]]
EXCLUDE_OBJECT_DEFINE NAME=flowrate_m4_id_4_copy_0 CENTER=168,194 POLYGON=[[148,179],[188,179],[188,199],[178,209],[158,209],[148,199],[148,179]]
EXCLUDE_OBJECT_DEFINE NAME=flowrate_m5_id_5_copy_0 CENTER=210,194 POLYGON=[[190,179],[230,179],[230,199],[220,209],[200,209],[190,199],[190,179]]
EXCLUDE_OBJECT_DEFINE NAME=flowrate_m6_id_6_copy_0 CENTER=252,194 POLYGON=[[232,179],[272,179],[272,199],[262,209],[242,209],[232,199],[232,179]]
EXCLUDE_OBJECT_DEFINE NAME=flowrate_m7_id_7_copy_0 CENTER=252,162 POLYGON=[[232,147],[272,147],[272,167],[262,177],[242,177],[232,167],[232,147]]
EXCLUDE_OBJECT_DEFINE NAME=flowrate_m8_id_8_copy_0 CENTER=210,162 POLYGON=[[190,147],[230,147],[230,167],[220,177],[200,177],[190,167],[190,147]]
EXCLUDE_OBJECT_DEFINE NAME=flowrate_m9_id_9_copy_0 CENTER=168,162 POLYGON=[[148,147],[188,147],[188,167],[178,177],[158,177],[148,167],[148,147]]
M73 P0 R58
;TYPE:Custom
G90 ; use absolute coordinates
M83 ; extruder relative mode
M104 S120 ; set temporary nozzle temp to prevent oozing during homing and auto bed leveling
M140 S60 ; set final bed temp
G4 S10 ; allow partial nozzle warmup
G28 ; home all axis
;G29 ; run abl mesh
M420 S1 ; load mesh
G1 Z50 F240
G1 X2 Y10 F3000
M104 S220 ; set final nozzle temp
M190 S60 ; wait for bed temp to stabilize
M109 S220 ; wait for nozzle temp to stabilize
G1 Z0.28 F240
G92 E0
G1 Y140 E10 F1500 ; prime the nozzle
G1 X2.3 F5000
G92 E0
G1 Y10 E10 F1200 ; prime the nozzle
G92 E0
LINE_PURGE
G90
G21
M83 ; use relative distances for extrusion
; filament start gcode
M106 S0
;LAYER_CHANGE
;Z:0.3
;HEIGHT:0.3
;BEFORE_LAYER_CHANGE
;0.3
G92 E0

G1 E-2 F3600
;AFTER_LAYER_CHANGE
;0.3
;_SET_FAN_SPEED_CHANGING_LAYER
; printing object flowrate_m3 id:3 copy 0
EXCLUDE_OBJECT_START NAME=flowrate_m3_id_3_copy_0
M73 P1 R57
G1 X243.402 Y230.857 F12000
G1 Z.4
G1 Z.3
G1 E2 F2700
;TYPE:Inner wall
;WIDTH:0.62
G1 F1200
G1 X243.363 Y230.569 E.01725
G1 X243.184 Y230.191 E.0248
G1 X242.866 Y229.857 E.02734
G1 X242.483 Y229.654 E.02569
G1 X242.032 Y229.579 E.02708
G1 X233.421 Y229.579 E.51053
G1 X233.421 Y212.421 E1.01725
G1 X270.579 Y212.421 E2.20303
G1 X270.579 Y229.579 E1.01725
G1 X261.968 Y229.579 E.51053
G1 X261.517 Y229.654 E.02708
G1 X261.134 Y229.857 E.02569
G1 X260.817 Y230.191 E.02734
G1 X260.637 Y230.569 E.0248
G1 X260.579 Y230.968 E.02392
G1 X260.579 Y239.579 E.51053
G1 X243.421 Y239.579 E1.01725
G1 X243.421 Y231 E.50862
G1 X243.41 Y230.916 E.005
G1 X242.852 Y230.915 F12000
G1 F1200
G1 X242.813 Y230.675 E.01439
G1 X242.624 Y230.381 E.02072
G1 X242.365 Y230.204 E.01861
G1 X242.032 Y230.134 E.02016
G1 X232.866 Y230.134 E.54348
G1 X232.866 Y211.866 E1.08313
G1 X271.134 Y211.866 E2.26891
G1 X271.134 Y230.134 E1.08313
G1 X261.968 Y230.134 E.54348
G1 X261.635 Y230.204 E.02016
G1 X261.376 Y230.381 E.01861
G1 X261.208 Y230.626 E.01761
G1 X261.134 Y230.968 E.02074
G1 X261.134 Y240.134 E.54348
G1 X242.866 Y240.134 E1.08313
G1 X242.866 Y231 E.54157
G1 X242.861 Y230.974 E.00157
G1 X242.31 Y231 F12000
;TYPE:Outer wall
G1 F1200
G1 X242.307 Y230.927 E.00436
G1 X242.215 Y230.759 E.01136
G1 X242.032 Y230.69 E.01157
G1 X232.31 Y230.69 E.57642
G1 X232.31 Y211.31 E1.14902
G1 X271.69 Y211.31 E2.33479
G1 X271.69 Y230.69 E1.14902
G1 X262 Y230.69 E.57451
G1 X261.922 Y230.694 E.00464
G1 X261.757 Y230.786 E.01119
G1 X261.69 Y230.968 E.01147
G1 X261.69 Y240.69 E.57642
G1 X242.31 Y240.69 E1.14902
G1 X242.31 Y231.06 E.57095
G1 E-2 F3600
G1 X248.805 Y227.052 Z.7 F12000
G1 X270.412 Y213.718 Z.7
G1 Z.3
G1 E2 F2700
;TYPE:Bottom surface
;WIDTH:0.623404
G1 F1200
G1 X269.532 Y212.838 E.07427
G1 X268.741 Y212.838 E.04716
G1 X270.162 Y214.259 E.11987
G1 X270.162 Y215.049 E.04716
G1 X267.951 Y212.838 E.18656
G1 X267.16 Y212.838 E.04716
G1 X270.162 Y215.84 E.25326
G1 X270.162 Y216.631 E.04716
G1 X266.369 Y212.838 E.31995
G1 X265.579 Y212.838 E.04716
G1 X270.162 Y217.421 E.38664
G1 X270.162 Y218.212 E.04716
G1 X264.788 Y212.838 E.45334
G1 X263.998 Y212.838 E.04716
G1 X270.162 Y219.002 E.52003
G1 X270.162 Y219.793 E.04716
G1 X263.207 Y212.838 E.58672
G1 X262.417 Y212.838 E.04716
G1 X270.162 Y220.583 E.65342
G1 X270.162 Y221.374 E.04716
G1 X261.626 Y212.838 E.72011
G1 X260.835 Y212.838 E.04716
G1 X270.162 Y222.165 E.78681
G1 X270.162 Y222.955 E.04716
G1 X260.045 Y212.838 E.8535
G1 X259.254 Y212.838 E.04716
G1 X270.162 Y223.746 E.92019
G1 X270.162 Y224.536 E.04716
G1 X258.464 Y212.838 E.98689
G1 X257.673 Y212.838 E.04716
G1 X270.162 Y225.327 E1.05358
G1 X270.162 Y226.118 E.04716
G1 X256.882 Y212.838 E1.12027
G1 X256.092 Y212.838 E.04716
G1 X270.162 Y226.908 E1.18697
G1 X270.162 Y227.699 E.04716
M73 P2 R57
G1 X255.301 Y212.838 E1.25366
G1 X254.511 Y212.838 E.04716
G1 X270.162 Y228.489 E1.32036
G1 X270.162 Y229.162 E.04014
G1 X270.044 Y229.162 E.00702
G1 X253.72 Y212.838 E1.37713
G1 X252.93 Y212.838 E.04716
G1 X269.254 Y229.163 E1.37717
G1 X268.464 Y229.163 E.04713
G1 X252.139 Y212.838 E1.37722
G1 X251.348 Y212.838 E.04716
G1 X267.674 Y229.164 E1.37726
G1 X266.884 Y229.164 E.04713
G1 X250.558 Y212.838 E1.37731
G1 X249.767 Y212.838 E.04716
G1 X266.094 Y229.165 E1.37735
G1 X265.304 Y229.165 E.04713
G1 X248.977 Y212.838 E1.3774
G1 X248.186 Y212.838 E.04716
G1 X264.514 Y229.166 E1.37745
G1 X263.724 Y229.167 E.04713
G1 X247.396 Y212.838 E1.37749
G1 X246.605 Y212.838 E.04716
G1 X262.934 Y229.167 E1.37754
G1 X262.144 Y229.168 E.04713
G1 X245.814 Y212.838 E1.37758
G1 X245.024 Y212.838 E.04716
G1 X261.434 Y229.248 E1.38435
G1 X261.247 Y229.312 E.01179
G1 X260.995 Y229.446 E.01702
G1 X260.91 Y229.514 E.00652
G1 X244.233 Y212.838 E1.40684
G1 X243.443 Y212.838 E.04716
G1 X260.512 Y229.907 E1.43996
G1 X260.32 Y230.228 E.02227
G1 X260.25 Y230.436 E.01313
G1 X242.652 Y212.838 E1.48461
G1 X241.862 Y212.838 E.04716
G1 X260.167 Y231.143 E1.54423
G1 X260.166 Y231.933 E.04713
G1 X241.071 Y212.838 E1.61088
G1 X240.28 Y212.838 E.04716
M73 P2 R56
G1 X260.166 Y232.723 E1.67754
G1 X260.165 Y233.513 E.04713
G1 X239.49 Y212.838 E1.7442
G1 X238.699 Y212.838 E.04716
G1 X260.165 Y234.304 E1.81085
G1 X260.164 Y235.094 E.04713
G1 X237.909 Y212.838 E1.87751
G1 X237.118 Y212.838 E.04716
G1 X260.164 Y235.884 E1.94417
G1 X260.163 Y236.674 E.04713
G1 X236.327 Y212.838 E2.01083
G1 X235.537 Y212.838 E.04716
G1 X260.163 Y237.464 E2.07748
G1 X260.163 Y238.254 E.04713
G1 X234.746 Y212.838 E2.14414
G1 X233.956 Y212.838 E.04716
M73 P3 R56
G1 X260.162 Y239.044 E2.2108
G1 X260.162 Y239.162 E.00702
G1 X259.489 Y239.162 E.04014
G1 X233.838 Y213.511 E2.16396
G1 X233.838 Y214.301 E.04716
G1 X258.699 Y239.162 E2.09727
G1 X257.908 Y239.162 E.04716
G1 X233.838 Y215.092 E2.03057
G1 X233.838 Y215.882 E.04716
G1 X257.118 Y239.162 E1.96388
G1 X256.327 Y239.162 E.04716
G1 X233.838 Y216.673 E1.89719
G1 X233.838 Y217.464 E.04716
G1 X255.536 Y239.162 E1.83049
G1 X254.746 Y239.162 E.04716
G1 X233.838 Y218.254 E1.7638
G1 X233.838 Y219.045 E.04716
G1 X253.955 Y239.162 E1.69711
G1 X253.165 Y239.162 E.04716
G1 X233.838 Y219.835 E1.63041
G1 X233.838 Y220.626 E.04716
G1 X242.42 Y229.208 E.72395
G1 X242.753 Y229.312 E.02086
G1 X243.005 Y229.446 E.01702
G1 X243.314 Y229.695 E.02367
G1 X243.529 Y229.957 E.02021
G1 X243.68 Y230.228 E.01849
G1 X243.796 Y230.584 E.02238
G1 X252.374 Y239.162 E.72363
G1 X251.583 Y239.162 E.04716
G1 X243.834 Y231.412 E.65378
G1 X243.834 Y232.203 E.04719
G1 X250.793 Y239.162 E.58705
G1 X250.002 Y239.162 E.04716
G1 X243.834 Y232.994 E.52032
G1 X243.835 Y233.785 E.04719
G1 X249.212 Y239.162 E.45359
G1 X248.421 Y239.162 E.04716
G1 X243.835 Y234.576 E.38686
G1 X243.836 Y235.367 E.04719
G1 X247.631 Y239.162 E.32013
G1 X246.84 Y239.162 E.04716
G1 X243.836 Y236.158 E.2534
G1 X243.837 Y236.949 E.04719
G1 X246.049 Y239.162 E.18667
G1 X245.259 Y239.162 E.04716
G1 X243.837 Y237.74 E.11994
G1 X243.838 Y238.531 E.04719
G1 X244.718 Y239.412 E.0743
G1 E-2 F3600
G1 X242.605 Y232.078 Z.7 F12000
G1 X241.839 Y229.418 Z.7
G1 Z.3
G1 E2 F2700
G1 F1200
G1 X233.838 Y221.417 E.67498
G1 X233.838 Y222.207 E.04716
G1 X240.798 Y229.167 E.58713
G1 X240.007 Y229.166 E.04719
G1 X233.838 Y222.998 E.52039
G1 X233.838 Y223.788 E.04716
G1 X239.215 Y229.166 E.45365
G1 X238.424 Y229.165 E.04719
G1 X233.838 Y224.579 E.38691
G1 X233.838 Y225.369 E.04716
G1 X237.633 Y229.165 E.32018
G1 X236.842 Y229.164 E.04719
G1 X233.838 Y226.16 E.25344
G1 X233.838 Y226.951 E.04716
G1 X236.051 Y229.164 E.1867
G1 X235.26 Y229.163 E.04719
G1 X233.838 Y227.741 E.11996
G1 X233.838 Y228.532 E.04716
G1 X234.719 Y229.413 E.07433
; stop printing object flowrate_m3 id:3 copy 0
; printing object flowrate_m6 id:6 copy 0
;WIPE_START
G1 X234.012 Y228.706 E-2
;WIPE_END
EXCLUDE_OBJECT_END NAME=flowrate_m3_id_3_copy_0
EXCLUDE_OBJECT_START NAME=flowrate_m6_id_6_copy_0
G1 X239.083 Y223.002 Z.7 F12000
G1 X260.604 Y198.796 Z.7
G1 Z.3
G1 E2 F2700
;TYPE:Inner wall
;WIDTH:0.62
G1 F1200
G1 X260.579 Y198.968 E.00998
G1 X260.579 Y207.579 E.49474
G1 X243.421 Y207.579 E.98579
G1 X243.421 Y199 E.49289
G1 X243.363 Y198.569 E.02501
G1 X243.184 Y198.191 E.02403
G1 X242.866 Y197.857 E.0265
G1 X242.483 Y197.654 E.02489
G1 X242.032 Y197.579 E.02624
G1 X233.421 Y197.579 E.49474
G1 X233.421 Y189 E.49289
G1 X233.421 Y180.421 E.49289
G1 X270.579 Y180.421 E2.13489
G1 X270.579 Y197.579 E.98579
G1 X261.968 Y197.579 E.49474
G1 X261.517 Y197.654 E.02624
G1 X261.134 Y197.857 E.02489
G1 X260.817 Y198.191 E.0265
G1 X260.637 Y198.569 E.02403
G1 X260.613 Y198.737 E.00975
G1 X261.158 Y198.86 F12000
G1 F1200
G1 X261.134 Y198.968 E.00633
G1 X261.134 Y208.134 E.52667
G1 X242.866 Y208.134 E1.04963
G1 X242.866 Y199 E.52482
M73 P4 R56
G1 X242.813 Y198.675 E.01891
G1 X242.624 Y198.381 E.02008
G1 X242.365 Y198.204 E.01803
G1 X242.032 Y198.134 E.01953
G1 X232.866 Y198.134 E.52667
G1 X232.866 Y189 E.52482
G1 X232.866 Y179.866 E.52482
G1 X271.134 Y179.866 E2.19874
G1 X271.134 Y198.134 E1.04963
G1 X261.968 Y198.134 E.52667
G1 X261.635 Y198.204 E.01953
G1 X261.376 Y198.381 E.01803
G1 X261.208 Y198.626 E.01707
G1 X261.17 Y198.801 E.01032
G1 X261.69 Y198.968 F12000
;TYPE:Outer wall
G1 F1200
G1 X261.69 Y208.69 E.55859
G1 X242.31 Y208.69 E1.11348
G1 X242.307 Y198.927 E.56096
G1 X242.215 Y198.759 E.01101
G1 X242.032 Y198.69 E.01121
G1 X232.31 Y198.69 E.55859
G1 X232.31 Y189 E.55674
G1 X232.31 Y179.31 E.55674
G1 X271.69 Y179.31 E2.26258
G1 X271.69 Y198.69 E1.11348
G1 X262 Y198.69 E.55674
M73 P4 R55
G1 X261.922 Y198.694 E.0045
G1 X261.757 Y198.786 E.01084
G1 X261.711 Y198.912 E.00767
G1 E-2 F3600
G1 X265.157 Y192.102 Z.7 F12000
G1 X270.412 Y181.718 Z.7
G1 Z.3
G1 E2 F2700
;TYPE:Bottom surface
;WIDTH:0.623404
G1 F1200
G1 X269.532 Y180.838 E.07197
G1 X268.741 Y180.838 E.0457
G1 X270.162 Y182.259 E.11616
G1 X270.162 Y183.049 E.0457
G1 X267.951 Y180.838 E.18079
G1 X267.16 Y180.838 E.0457
G1 X270.162 Y183.84 E.24542
G1 X270.162 Y184.631 E.0457
G1 X266.369 Y180.838 E.31005
G1 X265.579 Y180.838 E.0457
G1 X270.162 Y185.421 E.37468
G1 X270.162 Y186.212 E.0457
G1 X264.788 Y180.838 E.43932
G1 X263.998 Y180.838 E.0457
G1 X270.162 Y187.002 E.50395
G1 X270.162 Y187.793 E.0457
G1 X263.207 Y180.838 E.56858
G1 X262.417 Y180.838 E.0457
G1 X270.162 Y188.583 E.63321
G1 X270.162 Y189.374 E.0457
G1 X261.626 Y180.838 E.69784
G1 X260.835 Y180.838 E.0457
G1 X270.162 Y190.165 E.76247
G1 X270.162 Y190.955 E.0457
G1 X260.045 Y180.838 E.8271
G1 X259.254 Y180.838 E.0457
G1 X270.162 Y191.746 E.89173
G1 X270.162 Y192.536 E.0457
G1 X258.464 Y180.838 E.95636
G1 X257.673 Y180.838 E.0457
G1 X270.162 Y193.327 E1.021
G1 X270.162 Y194.118 E.0457
G1 X256.882 Y180.838 E1.08563
G1 X256.092 Y180.838 E.0457
G1 X270.162 Y194.908 E1.15026
G1 X270.162 Y195.699 E.0457
G1 X255.301 Y180.838 E1.21489
G1 X254.511 Y180.838 E.0457
G1 X270.162 Y196.489 E1.27952
G1 X270.162 Y197.162 E.0389
G1 X270.044 Y197.162 E.0068
G1 X253.72 Y180.838 E1.33454
G1 X252.93 Y180.838 E.0457
G1 X269.254 Y197.163 E1.33458
G1 X268.464 Y197.163 E.04567
G1 X252.139 Y180.838 E1.33462
G1 X251.348 Y180.838 E.0457
G1 X267.674 Y197.164 E1.33467
G1 X266.884 Y197.164 E.04567
G1 X250.558 Y180.838 E1.33471
G1 X249.767 Y180.838 E.0457
G1 X266.094 Y197.165 E1.33476
G1 X265.304 Y197.165 E.04567
G1 X248.977 Y180.838 E1.3348
G1 X248.186 Y180.838 E.0457
G1 X264.514 Y197.166 E1.33484
G1 X263.724 Y197.167 E.04567
M73 P5 R55
G1 X247.396 Y180.838 E1.33489
G1 X246.605 Y180.838 E.0457
G1 X262.934 Y197.167 E1.33493
G1 X262.144 Y197.168 E.04567
G1 X245.814 Y180.838 E1.33498
G1 X245.024 Y180.838 E.0457
G1 X261.434 Y197.248 E1.34153
G1 X261.247 Y197.312 E.01142
G1 X260.995 Y197.446 E.0165
G1 X260.91 Y197.514 E.00631
G1 X244.233 Y180.838 E1.36333
G1 X243.443 Y180.838 E.0457
G1 X260.512 Y197.907 E1.39543
G1 X260.32 Y198.228 E.02159
G1 X260.25 Y198.436 E.01272
G1 X242.652 Y180.838 E1.43869
G1 X241.862 Y180.838 E.0457
G1 X260.167 Y199.143 E1.49647
G1 X260.166 Y199.933 E.04568
G1 X241.071 Y180.838 E1.56106
G1 X240.28 Y180.838 E.0457
G1 X260.166 Y200.723 E1.62566
G1 X260.165 Y201.513 E.04568
G1 X239.49 Y180.838 E1.69025
G1 X238.699 Y180.838 E.0457
G1 X260.165 Y202.304 E1.75485
