; HEADER_BLOCK_START
; generated by OrcaSlicer 1.8.0-beta2 on 2023-11-30 at 15:04:11
; total layer number: 7
; HEADER_BLOCK_END

; THUMBNAIL_BLOCK_START
; THUMBNAIL_BLOCK_END

; external perimeters extrusion width = 0.60mm
; perimeters extrusion width = 0.65mm
; infill extrusion width = 0.65mm
; solid infill extrusion width = 0.72mm
; top infill extrusion width = 0.72mm
; first layer extrusion width = 0.62mm

; external perimeters extrusion width = 0.60mm
; perimeters extrusion width = 0.65mm
; infill extrusion width = 0.65mm
; solid infill extrusion width = 0.72mm
; top infill extrusion width = 0.72mm
; first layer extrusion width = 0.62mm

; external perimeters extrusion width = 0.60mm
; perimeters extrusion width = 0.65mm
; infill extrusion width = 0.65mm
; solid infill extrusion width = 0.72mm
; top infill extrusion width = 0.72mm
; first layer extrusion width = 0.62mm

; external perimeters extrusion width = 0.60mm
; perimeters extrusion width = 0.65mm
; infill extrusion width = 0.65mm
; solid infill extrusion width = 0.72mm
; top infill extrusion width = 0.72mm
; first layer extrusion width = 0.62mm

; external perimeters extrusion width = 0.60mm
; perimeters extrusion width = 0.65mm
; infill extrusion width = 0.65mm
; solid infill extrusion width = 0.72mm
; top infill extrusion width = 0.72mm
; first layer extrusion width = 0.62mm

; external perimeters extrusion width = 0.60mm
; perimeters extrusion width = 0.65mm
; infill extrusion width = 0.65mm
; solid infill extrusion width = 0.72mm
; top infill extrusion width = 0.72mm
; first layer extrusion width = 0.62mm

; external perimeters extrusion width = 0.60mm
; perimeters extrusion width = 0.65mm
; infill extrusion width = 0.65mm
; solid infill extrusion width = 0.72mm
; top infill extrusion width = 0.72mm
; first layer extrusion width = 0.62mm

; external perimeters extrusion width = 0.60mm
; perimeters extrusion width = 0.65mm
; infill extrusion width = 0.65mm
; solid infill extrusion width = 0.72mm
; top infill extrusion width = 0.72mm
; first layer extrusion width = 0.62mm

; external perimeters extrusion width = 0.60mm
; perimeters extrusion width = 0.65mm
; infill extrusion width = 0.65mm
; solid infill extrusion width = 0.72mm
; top infill extrusion width = 0.72mm
; first layer extrusion width = 0.62mm

; EXECUTABLE_BLOCK_START
EXCLUDE_OBJECT_DEFINE NAME=flowrate_0_id_0_copy_0 CENTER=210,210 POLYGON=[[190,195],[230,195],[230,215],[220,225],[200,225],[190,215],[190,195]]
EXCLUDE_OBJECT_DEFINE NAME=flowrate_10_id_1_copy_0 CENTER=252,242 POLYGON=[[232,227],[272,227],[272,247],[262,257],[242,257],[232,247],[232,227]]
EXCLUDE_OBJECT_DEFINE NAME=flowrate_15_id_2_copy_0 CENTER=210,242 POLYGON=[[190,227],[230,227],[230,247],[220,257],[200,257],[190,247],[190,227]]
EXCLUDE_OBJECT_DEFINE NAME=flowrate_20_id_3_copy_0 CENTER=168,242 POLYGON=[[148,227],[188,227],[188,247],[178,257],[158,257],[148,247],[148,227]]
EXCLUDE_OBJECT_DEFINE NAME=flowrate_5_id_4_copy_0 CENTER=168,210 POLYGON=[[148,195],[188,195],[188,215],[178,225],[158,225],[148,215],[148,195]]
EXCLUDE_OBJECT_DEFINE NAME=flowrate_m10_id_5_copy_0 CENTER=252,178 POLYGON=[[232,163],[272,163],[272,183],[262,193],[242,193],[232,183],[232,163]]
EXCLUDE_OBJECT_DEFINE NAME=flowrate_m15_id_6_copy_0 CENTER=210,178 POLYGON=[[190,163],[230,163],[230,183],[220,193],[200,193],[190,183],[190,163]]
EXCLUDE_OBJECT_DEFINE NAME=flowrate_m20_id_7_copy_0 CENTER=168,178 POLYGON=[[148,163],[188,163],[188,183],[178,193],[158,193],[148,183],[148,163]]
EXCLUDE_OBJECT_DEFINE NAME=flowrate_m5_id_8_copy_0 CENTER=252,210 POLYGON=[[232,195],[272,195],[272,215],[262,225],[242,225],[232,215],[232,195]]
M73 P0 R53
;TYPE:Custom
G90 ; use absolute coordinates
M83 ; extruder relative mode
M104 S120 ; set temporary nozzle temp to prevent oozing during homing and auto bed leveling
M140 S60 ; set final bed temp
G4 S10 ; allow partial nozzle warmup
G28 ; home all axis
;G29 ; run abl mesh
M420 S1 ; load mesh
G1 Z50 F240
G1 X2 Y10 F3000
M104 S220 ; set final nozzle temp
M190 S60 ; wait for bed temp to stabilize
M109 S220 ; wait for nozzle temp to stabilize
G1 Z0.28 F240
G92 E0
G1 Y140 E10 F1500 ; prime the nozzle
M73 P0 R52
G1 X2.3 F5000
G92 E0
G1 Y10 E10 F1200 ; prime the nozzle
G92 E0
LINE_PURGE
G90
G21
M83 ; use relative distances for extrusion
; filament start gcode
M106 S0
;LAYER_CHANGE
;Z:0.3
;HEIGHT:0.3
;BEFORE_LAYER_CHANGE
;0.3
G92 E0

G1 E-2 F3600
;AFTER_LAYER_CHANGE
;0.3
;_SET_FAN_SPEED_CHANGING_LAYER
; printing object flowrate_m20 id:7 copy 0
EXCLUDE_OBJECT_START NAME=flowrate_m20_id_7_copy_0
M73 P1 R52
G1 X176.604 Y182.796 F12000
G1 Z.4
G1 Z.3
G1 E2 F2700
;TYPE:Inner wall
;WIDTH:0.62
G1 F1200
G1 X176.579 Y182.968 E.00944
G1 X176.579 Y191.579 E.46784
G1 X159.421 Y191.579 E.93219
G1 X159.421 Y183 E.46609
G1 X159.363 Y182.569 E.02365
G1 X159.184 Y182.191 E.02273
G1 X158.866 Y181.857 E.02506
G1 X158.483 Y181.654 E.02354
G1 X158.032 Y181.579 E.02481
G1 X149.421 Y181.579 E.46784
G1 X149.421 Y164.421 E.93219
G1 X186.579 Y164.421 E2.01881
G1 X186.579 Y181.579 E.93219
G1 X177.968 Y181.579 E.46784
G1 X177.517 Y181.654 E.02481
G1 X177.134 Y181.857 E.02354
G1 X176.817 Y182.191 E.02506
G1 X176.637 Y182.569 E.02273
G1 X176.613 Y182.737 E.00922
G1 X177.158 Y182.86 F12000
G1 F1200
G1 X177.134 Y182.968 E.00599
G1 X177.134 Y192.134 E.49803
G1 X158.866 Y192.134 E.99256
G1 X158.866 Y183 E.49628
G1 X158.813 Y182.675 E.01788
G1 X158.624 Y182.381 E.01899
G1 X158.365 Y182.204 E.01705
G1 X158.032 Y182.134 E.01847
G1 X148.866 Y182.134 E.49803
G1 X148.866 Y163.866 E.99256
G1 X187.134 Y163.866 E2.07918
G1 X187.134 Y182.134 E.99256
G1 X177.968 Y182.134 E.49803
G1 X177.635 Y182.204 E.01847
G1 X177.376 Y182.381 E.01705
G1 X177.208 Y182.626 E.01614
G1 X177.17 Y182.801 E.00976
G1 X177.69 Y182.968 F12000
;TYPE:Outer wall
G1 F1200
G1 X177.69 Y192.69 E.52822
G1 X158.31 Y192.69 E1.05294
G1 X158.31 Y183 E.52647
G1 X158.307 Y182.927 E.00399
G1 X158.215 Y182.759 E.01041
G1 X158.032 Y182.69 E.0106
G1 X148.31 Y182.69 E.52822
G1 X148.31 Y163.31 E1.05294
G1 X187.69 Y163.31 E2.13956
G1 X187.69 Y182.69 E1.05294
G1 X178 Y182.69 E.52647
G1 X177.922 Y182.694 E.00425
G1 X177.757 Y182.786 E.01026
G1 X177.711 Y182.912 E.00725
G1 E-2 F3600
G1 X181.157 Y176.102 Z.7 F12000
G1 X186.412 Y165.718 Z.7
G1 Z.3
G1 E2 F2700
;TYPE:Bottom surface
;WIDTH:0.623404
G1 F1200
G1 X185.532 Y164.838 E.06806
G1 X184.741 Y164.838 E.04322
G1 X186.162 Y166.259 E.10984
G1 X186.162 Y167.049 E.04322
G1 X183.951 Y164.838 E.17096
G1 X183.16 Y164.838 E.04322
G1 X186.162 Y167.84 E.23208
G1 X186.162 Y168.631 E.04322
G1 X182.369 Y164.838 E.2932
G1 X181.579 Y164.838 E.04322
G1 X186.162 Y169.421 E.35431
G1 X186.162 Y170.212 E.04322
G1 X180.788 Y164.838 E.41543
G1 X179.998 Y164.838 E.04322
G1 X186.162 Y171.002 E.47655
G1 X186.162 Y171.793 E.04322
G1 X179.207 Y164.838 E.53766
G1 X178.417 Y164.838 E.04322
G1 X186.162 Y172.583 E.59878
G1 X186.162 Y173.374 E.04322
G1 X177.626 Y164.838 E.6599
G1 X176.835 Y164.838 E.04322
G1 X186.162 Y174.165 E.72101
G1 X186.162 Y174.955 E.04322
M73 P2 R52
G1 X176.045 Y164.838 E.78213
G1 X175.254 Y164.838 E.04322
G1 X186.162 Y175.746 E.84325
G1 X186.162 Y176.536 E.04322
G1 X174.464 Y164.838 E.90436
G1 X173.673 Y164.838 E.04322
G1 X186.162 Y177.327 E.96548
G1 X186.162 Y178.118 E.04322
G1 X172.882 Y164.838 E1.0266
G1 X172.092 Y164.838 E.04322
G1 X186.162 Y178.908 E1.08771
G1 X186.162 Y179.699 E.04322
G1 X171.301 Y164.838 E1.14883
G1 X170.511 Y164.838 E.04322
G1 X186.162 Y180.489 E1.20995
G1 X186.162 Y181.162 E.03678
G1 X186.044 Y181.162 E.00643
G1 X169.72 Y164.838 E1.26197
G1 X168.93 Y164.838 E.04322
G1 X185.254 Y181.163 E1.26201
G1 X184.464 Y181.163 E.04319
M73 P2 R51
G1 X168.139 Y164.838 E1.26206
G1 X167.348 Y164.838 E.04322
G1 X183.674 Y181.164 E1.2621
G1 X182.884 Y181.164 E.04319
G1 X166.558 Y164.838 E1.26214
G1 X165.767 Y164.838 E.04322
G1 X182.094 Y181.165 E1.26218
G1 X181.304 Y181.165 E.04319
G1 X164.977 Y164.838 E1.26222
G1 X164.186 Y164.838 E.04322
G1 X180.514 Y181.166 E1.26226
G1 X179.724 Y181.167 E.04319
G1 X163.396 Y164.838 E1.26231
G1 X162.605 Y164.838 E.04322
G1 X178.934 Y181.167 E1.26235
G1 X178.144 Y181.168 E.04319
G1 X161.814 Y164.838 E1.26239
G1 X161.024 Y164.838 E.04322
G1 X177.434 Y181.248 E1.26859
G1 X177.247 Y181.312 E.0108
G1 X176.995 Y181.446 E.0156
G1 X176.91 Y181.514 E.00597
G1 X160.233 Y164.838 E1.2892
G1 X159.443 Y164.838 E.04322
G1 X176.512 Y181.907 E1.31955
G1 X176.32 Y182.228 E.02041
G1 X176.25 Y182.436 E.01203
G1 X158.652 Y164.838 E1.36047
G1 X157.862 Y164.838 E.04322
G1 X176.167 Y183.143 E1.4151
G1 X176.166 Y183.933 E.04319
G1 X157.071 Y164.838 E1.47618
G1 X156.28 Y164.838 E.04322
G1 X176.166 Y184.723 E1.53727
G1 X176.165 Y185.513 E.04319
G1 X155.49 Y164.838 E1.59835
G1 X154.699 Y164.838 E.04322
M73 P3 R51
G1 X176.165 Y186.304 E1.65943
G1 X176.164 Y187.094 E.04319
G1 X153.909 Y164.838 E1.72051
G1 X153.118 Y164.838 E.04322
G1 X176.164 Y187.884 E1.7816
G1 X176.163 Y188.674 E.04319
G1 X152.327 Y164.838 E1.84268
G1 X151.537 Y164.838 E.04322
G1 X176.163 Y189.464 E1.90376
G1 X176.163 Y190.254 E.04319
G1 X150.746 Y164.838 E1.96485
G1 X149.956 Y164.838 E.04322
G1 X176.162 Y191.044 E2.02593
G1 X176.162 Y191.162 E.00643
G1 X175.489 Y191.162 E.03678
G1 X149.838 Y165.511 E1.98301
G1 X149.838 Y166.301 E.04322
G1 X174.699 Y191.162 E1.9219
G1 X173.908 Y191.162 E.04322
G1 X149.838 Y167.092 E1.86078
G1 X149.838 Y167.882 E.04322
G1 X173.118 Y191.162 E1.79966
G1 X172.327 Y191.162 E.04322
G1 X149.838 Y168.673 E1.73855
G1 X149.838 Y169.464 E.04322
G1 X171.536 Y191.162 E1.67743
G1 X170.746 Y191.162 E.04322
G1 X149.838 Y170.254 E1.61631
G1 X149.838 Y171.045 E.04322
G1 X169.955 Y191.162 E1.55519
G1 X169.165 Y191.162 E.04322
G1 X149.838 Y171.835 E1.49408
G1 X149.838 Y172.626 E.04322
G1 X158.42 Y181.208 E.66341
G1 X158.753 Y181.312 E.01911
G1 X159.005 Y181.446 E.0156
G1 X159.314 Y181.695 E.02169
G1 X159.529 Y181.957 E.01852
G1 X159.68 Y182.228 E.01694
G1 X159.796 Y182.584 E.02051
G1 X168.374 Y191.162 E.66312
G1 X167.583 Y191.162 E.04322
G1 X159.834 Y183.412 E.59912
G1 X159.834 Y184.203 E.04324
G1 X166.793 Y191.162 E.53796
G1 X166.002 Y191.162 E.04322
G1 X159.834 Y184.994 E.47681
G1 X159.835 Y185.785 E.04324
G1 X165.212 Y191.162 E.41566
G1 X164.421 Y191.162 E.04322
G1 X159.835 Y186.576 E.35451
G1 X159.836 Y187.367 E.04324
G1 X163.631 Y191.162 E.29336
G1 X162.84 Y191.162 E.04322
G1 X159.836 Y188.158 E.23221
G1 X159.837 Y188.949 E.04324
G1 X162.049 Y191.162 E.17106
G1 X161.259 Y191.162 E.04322
M73 P4 R51
G1 X159.837 Y189.74 E.10991
G1 X159.838 Y190.531 E.04324
G1 X160.718 Y191.412 E.06809
G1 E-2 F3600
G1 X158.605 Y184.078 Z.7 F12000
G1 X157.839 Y181.418 Z.7
G1 Z.3
G1 E2 F2700
G1 F1200
G1 X149.838 Y173.417 E.61854
G1 X149.838 Y174.207 E.04322
G1 X156.798 Y181.167 E.53804
G1 X156.007 Y181.166 E.04325
G1 X149.838 Y174.998 E.47688
G1 X149.838 Y175.788 E.04322
G1 X155.215 Y181.166 E.41572
G1 X154.424 Y181.165 E.04325
G1 X149.838 Y176.579 E.35456
G1 X149.838 Y177.369 E.04322
G1 X153.633 Y181.165 E.2934
G1 X152.842 Y181.164 E.04325
G1 X149.838 Y178.16 E.23224
G1 X149.838 Y178.951 E.04322
G1 X152.051 Y181.164 E.17109
G1 X151.26 Y181.163 E.04325
G1 X149.838 Y179.741 E.10993
G1 X149.838 Y180.532 E.04322
G1 X150.719 Y181.413 E.06811
; stop printing object flowrate_m20 id:7 copy 0
; printing object flowrate_5 id:4 copy 0
;WIPE_START
G1 X150.012 Y180.706 E-2
;WIPE_END
EXCLUDE_OBJECT_END NAME=flowrate_m20_id_7_copy_0
EXCLUDE_OBJECT_START NAME=flowrate_5_id_4_copy_0
G1 X152.035 Y188.065 Z.7 F12000
G1 X159.402 Y214.857 Z.7
G1 Z.3
G1 E2 F2700
;TYPE:Inner wall
;WIDTH:0.62
G1 F1200
G1 X159.363 Y214.569 E.02074
G1 X159.184 Y214.191 E.02983
G1 X158.866 Y213.857 E.03289
G1 X158.483 Y213.654 E.0309
G1 X158.032 Y213.579 E.03257
G1 X149.421 Y213.579 E.61404
G1 X149.421 Y196.421 E1.2235
G1 X186.579 Y196.421 E2.64969
M73 P4 R50
G1 X186.579 Y213.579 E1.2235
G1 X177.968 Y213.579 E.61404
G1 X177.517 Y213.654 E.03257
G1 X177.134 Y213.857 E.0309
G1 X176.817 Y214.191 E.03289
G1 X176.637 Y214.569 E.02983
G1 X176.579 Y214.968 E.02877
G1 X176.579 Y223.579 E.61404
G1 X159.421 Y223.579 E1.2235
G1 X159.421 Y215 E.61175
G1 X159.41 Y214.916 E.00602
G1 X158.852 Y214.915 F12000
G1 F1200
G1 X158.813 Y214.675 E.01731
G1 X158.624 Y214.381 E.02492
G1 X158.365 Y214.204 E.02238
G1 X158.032 Y214.134 E.02424
G1 X148.866 Y214.134 E.65366
G1 X148.866 Y195.866 E1.30274
G1 X187.134 Y195.866 E2.72893
G1 X187.134 Y214.134 E1.30274
G1 X177.968 Y214.134 E.65366
G1 X177.635 Y214.204 E.02424
G1 X177.376 Y214.381 E.02238
G1 X177.208 Y214.626 E.02118
G1 X177.134 Y214.968 E.02494
G1 X177.134 Y224.134 E.65366
G1 X158.866 Y224.134 E1.30274
G1 X158.866 Y215 E.65137
G1 X158.861 Y214.974 E.00188
G1 X158.31 Y215 F12000
;TYPE:Outer wall
G1 F1200
G1 X158.307 Y214.927 E.00524
G1 X158.215 Y214.759 E.01367
G1 X158.032 Y214.69 E.01391
G1 X148.31 Y214.69 E.69329
G1 X148.31 Y195.31 E1.38198
G1 X187.69 Y195.31 E2.80817
G1 X187.69 Y214.69 E1.38198
G1 X178 Y214.69 E.69099
G1 X177.922 Y214.694 E.00558
G1 X177.757 Y214.786 E.01346
G1 X177.69 Y214.968 E.0138
G1 X177.69 Y224.69 E.69329
G1 X158.31 Y224.69 E1.38198
G1 X158.31 Y215.06 E.68671
G1 E-2 F3600
G1 X164.805 Y211.052 Z.7 F12000
G1 X186.412 Y197.718 Z.7
G1 Z.3
G1 E2 F2700
;TYPE:Bottom surface
;WIDTH:0.623404
G1 F1200
G1 X185.532 Y196.838 E.08932
G1 X184.741 Y196.838 E.05672
G1 X186.162 Y198.259 E.14417
G1 X186.162 Y199.049 E.05672
G1 X183.951 Y196.838 E.22439
G1 X183.16 Y196.838 E.05672
G1 X186.162 Y199.84 E.3046
G1 X186.162 Y200.631 E.05672
G1 X182.369 Y196.838 E.38482
G1 X181.579 Y196.838 E.05672
G1 X186.162 Y201.421 E.46503
G1 X186.162 Y202.212 E.05672
G1 X180.788 Y196.838 E.54525
G1 X179.998 Y196.838 E.05672
G1 X186.162 Y203.002 E.62547
G1 X186.162 Y203.793 E.05672
G1 X179.207 Y196.838 E.70568
G1 X178.417 Y196.838 E.05672
G1 X186.162 Y204.583 E.7859
G1 X186.162 Y205.374 E.05672
G1 X177.626 Y196.838 E.86611
G1 X176.835 Y196.838 E.05672
G1 X186.162 Y206.165 E.94633
G1 X186.162 Y206.955 E.05672
G1 X176.045 Y196.838 E1.02655
G1 X175.254 Y196.838 E.05672
G1 X186.162 Y207.746 E1.10676
G1 X186.162 Y208.536 E.05672
M73 P5 R50
G1 X174.464 Y196.838 E1.18698
G1 X173.673 Y196.838 E.05672
G1 X186.162 Y209.327 E1.26719
G1 X186.162 Y210.118 E.05672
G1 X172.882 Y196.838 E1.34741
G1 X172.092 Y196.838 E.05672
G1 X186.162 Y210.908 E1.42762
G1 X186.162 Y211.699 E.05672
G1 X171.301 Y196.838 E1.50784
G1 X170.511 Y196.838 E.05672
G1 X186.162 Y212.489 E1.58806
G1 X186.162 Y213.162 E.04828
G1 X186.044 Y213.162 E.00844
G1 X169.72 Y196.838 E1.65634
G1 X168.93 Y196.838 E.05672
G1 X185.254 Y213.163 E1.65639
G1 X184.464 Y213.163 E.05668
G1 X168.139 Y196.838 E1.65645
G1 X167.348 Y196.838 E.05672
G1 X183.674 Y213.164 E1.6565
G1 X182.884 Y213.164 E.05668
G1 X166.558 Y196.838 E1.65656
G1 X165.767 Y196.838 E.05672
G1 X182.094 Y213.165 E1.65661
G1 X181.304 Y213.165 E.05668
G1 X164.977 Y196.838 E1.65667
G1 X164.186 Y196.838 E.05672
G1 X180.514 Y213.166 E1.65672
G1 X179.724 Y213.167 E.05668
G1 X163.396 Y196.838 E1.65678
G1 X162.605 Y196.838 E.05672
G1 X178.934 Y213.167 E1.65683
G1 X178.144 Y213.168 E.05668
G1 X161.814 Y196.838 E1.65689
G1 X161.024 Y196.838 E.05672
G1 X177.434 Y213.248 E1.66502
G1 X177.247 Y213.312 E.01418
G1 X176.995 Y213.446 E.02047
G1 X176.91 Y213.514 E.00784
G1 X160.233 Y196.838 E1.69208
G1 X159.443 Y196.838 E.05672
G1 X176.512 Y213.907 E1.73191
G1 X176.32 Y214.228 E.02679
G1 X176.25 Y214.436 E.01579
G1 X158.652 Y196.838 E1.78561
G1 X157.862 Y196.838 E.05672
G1 X176.167 Y215.143 E1.85732
G1 X176.166 Y215.933 E.05669
G1 X157.071 Y196.838 E1.93749
G1 X156.28 Y196.838 E.05672
G1 X176.166 Y216.723 E2.01766
G1 X176.165 Y217.513 E.05669
G1 X155.49 Y196.838 E2.09783
G1 X154.699 Y196.838 E.05672
G1 X176.165 Y218.304 E2.178
G1 X176.164 Y219.094 E.05669
M73 P6 R50
G1 X153.909 Y196.838 E2.25818
G1 X153.118 Y196.838 E.05672
G1 X176.164 Y219.884 E2.33835
G1 X176.163 Y220.674 E.05669
M73 P6 R49
G1 X152.327 Y196.838 E2.41852
G1 X151.537 Y196.838 E.05672
G1 X176.163 Y221.464 E2.49869
G1 X176.163 Y222.254 E.05669
G1 X150.746 Y196.838 E2.57886
G1 X149.956 Y196.838 E.05672
G1 X176.162 Y223.044 E2.65903
