; HEADER_BLOCK_START
; generated by OrcaSlicer 1.8.0-beta2 on 2023-11-30 at 11:51:30
; total layer number: 7
; HEADER_BLOCK_END

; THUMBNAIL_BLOCK_START
; THUMBNAIL_BLOCK_END

; external perimeters extrusion width = 0.40mm
; perimeters extrusion width = 0.45mm
; infill extrusion width = 0.45mm
; solid infill extrusion width = 0.72mm
; top infill extrusion width = 0.72mm
; first layer extrusion width = 0.50mm

; external perimeters extrusion width = 0.40mm
; perimeters extrusion width = 0.45mm
; infill extrusion width = 0.45mm
; solid infill extrusion width = 0.72mm
; top infill extrusion width = 0.72mm
; first layer extrusion width = 0.50mm

; external perimeters extrusion width = 0.40mm
; perimeters extrusion width = 0.45mm
; infill extrusion width = 0.45mm
; solid infill extrusion width = 0.72mm
; top infill extrusion width = 0.72mm
; first layer extrusion width = 0.50mm

; external perimeters extrusion width = 0.40mm
; perimeters extrusion width = 0.45mm
; infill extrusion width = 0.45mm
; solid infill extrusion width = 0.72mm
; top infill extrusion width = 0.72mm
; first layer extrusion width = 0.50mm

; external perimeters extrusion width = 0.40mm
; perimeters extrusion width = 0.45mm
; infill extrusion width = 0.45mm
; solid infill extrusion width = 0.72mm
; top infill extrusion width = 0.72mm
; first layer extrusion width = 0.50mm

; external perimeters extrusion width = 0.40mm
; perimeters extrusion width = 0.45mm
; infill extrusion width = 0.45mm
; solid infill extrusion width = 0.72mm
; top infill extrusion width = 0.72mm
; first layer extrusion width = 0.50mm

; external perimeters extrusion width = 0.40mm
; perimeters extrusion width = 0.45mm
; infill extrusion width = 0.45mm
; solid infill extrusion width = 0.72mm
; top infill extrusion width = 0.72mm
; first layer extrusion width = 0.50mm

; external perimeters extrusion width = 0.40mm
; perimeters extrusion width = 0.45mm
; infill extrusion width = 0.45mm
; solid infill extrusion width = 0.72mm
; top infill extrusion width = 0.72mm
; first layer extrusion width = 0.50mm

; external perimeters extrusion width = 0.40mm
; perimeters extrusion width = 0.45mm
; infill extrusion width = 0.45mm
; solid infill extrusion width = 0.72mm
; top infill extrusion width = 0.72mm
; first layer extrusion width = 0.50mm

; EXECUTABLE_BLOCK_START
EXCLUDE_OBJECT_DEFINE NAME=flowrate_0_id_0_copy_0 CENTER=210,210 POLYGON=[[190,195],[230,195],[230,215],[220,225],[200,225],[190,215],[190,195]]
EXCLUDE_OBJECT_DEFINE NAME=flowrate_10_id_1_copy_0 CENTER=252,242 POLYGON=[[232,227],[272,227],[272,247],[262,257],[242,257],[232,247],[232,227]]
EXCLUDE_OBJECT_DEFINE NAME=flowrate_15_id_2_copy_0 CENTER=210,242 POLYGON=[[190,227],[230,227],[230,247],[220,257],[200,257],[190,247],[190,227]]
EXCLUDE_OBJECT_DEFINE NAME=flowrate_20_id_3_copy_0 CENTER=168,242 POLYGON=[[148,227],[188,227],[188,247],[178,257],[158,257],[148,247],[148,227]]
EXCLUDE_OBJECT_DEFINE NAME=flowrate_5_id_4_copy_0 CENTER=168,210 POLYGON=[[148,195],[188,195],[188,215],[178,225],[158,225],[148,215],[148,195]]
EXCLUDE_OBJECT_DEFINE NAME=flowrate_m10_id_5_copy_0 CENTER=252,178 POLYGON=[[232,163],[272,163],[272,183],[262,193],[242,193],[232,183],[232,163]]
EXCLUDE_OBJECT_DEFINE NAME=flowrate_m15_id_6_copy_0 CENTER=210,178 POLYGON=[[190,163],[230,163],[230,183],[220,193],[200,193],[190,183],[190,163]]
EXCLUDE_OBJECT_DEFINE NAME=flowrate_m20_id_7_copy_0 CENTER=168,178 POLYGON=[[148,163],[188,163],[188,183],[178,193],[158,193],[148,183],[148,163]]
EXCLUDE_OBJECT_DEFINE NAME=flowrate_m5_id_8_copy_0 CENTER=252,210 POLYGON=[[232,195],[272,195],[272,215],[262,225],[242,225],[232,215],[232,195]]
M73 P0 R40
;TYPE:Custom
G90 ; use absolute coordinates
M83 ; extruder relative mode
M104 S120 ; set temporary nozzle temp to prevent oozing during homing and auto bed leveling
M140 S60 ; set final bed temp
G4 S10 ; allow partial nozzle warmup
G28 ; home all axis
;G29 ; run abl mesh
M420 S1 ; load mesh
G1 Z50 F240
G1 X2 Y10 F3000
M104 S210 ; set final nozzle temp
M190 S60 ; wait for bed temp to stabilize
M109 S210 ; wait for nozzle temp to stabilize
G1 Z0.28 F240
G92 E0
G1 Y140 E10 F1500 ; prime the nozzle
M73 P1 R40
G1 X2.3 F5000
G92 E0
G1 Y10 E10 F1200 ; prime the nozzle
G92 E0
LINE_PURGE
G90
G21
M83 ; use relative distances for extrusion
; filament start gcode
M106 S0
;LAYER_CHANGE
;Z:0.3
;HEIGHT:0.3
;BEFORE_LAYER_CHANGE
;0.3
G92 E0

G1 E-2 F3600
;AFTER_LAYER_CHANGE
;0.3
;_SET_FAN_SPEED_CHANGING_LAYER
SET_VELOCITY_LIMIT ACCEL=500 ACCEL_TO_DECEL=250
; printing object flowrate_m20 id:7 copy 0
EXCLUDE_OBJECT_START NAME=flowrate_m20_id_7_copy_0
G1 X176.907 Y182.81 F21000
G1 Z.4
G1 Z.3
G1 E2 F2700
;TYPE:Inner wall
;WIDTH:0.5
G1 F3000
G1 X176.879 Y182.968 E.00684
G1 X176.879 Y191.879 E.37958
G1 X159.121 Y191.879 E.75642
G1 X159.121 Y183 E.37821
G1 X159.095 Y182.729 E.01161
G1 X158.935 Y182.359 E.01718
G1 X158.686 Y182.097 E.0154
G1 X158.385 Y181.938 E.01447
G1 X158.032 Y181.879 E.01525
G1 X149.121 Y181.879 E.37958
G1 X149.121 Y173 E.37821
G1 X149.121 Y164.121 E.37821
G1 X186.879 Y164.121 E1.60835
G1 X186.879 Y181.879 E.75642
G1 X178 Y181.879 E.37821
G1 X177.788 Y181.894 E.00907
G1 X177.455 Y182.007 E.01495
G1 X177.143 Y182.257 E.01705
G1 X176.948 Y182.585 E.01627
M73 P1 R39
G1 X176.918 Y182.751 E.00715
G1 X177.338 Y182.874 F21000
G1 F3000
G1 X177.314 Y182.968 E.00412
G1 X177.314 Y192.314 E.39814
G1 X158.686 Y192.314 E.79353
G1 X158.686 Y183 E.39676
G1 X158.658 Y182.78 E.00944
G1 X158.527 Y182.541 E.0116
G1 X158.293 Y182.369 E.01239
G1 X158.032 Y182.314 E.01135
G1 X148.686 Y182.314 E.39814
G1 X148.686 Y173 E.39676
G1 X148.686 Y163.686 E.39676
G1 X187.314 Y163.686 E1.64547
G1 X187.314 Y182.314 E.79353
G1 X178 Y182.314 E.39676
G1 X177.86 Y182.323 E.00599
G1 X177.576 Y182.445 E.01316
G1 X177.389 Y182.664 E.01225
G1 X177.352 Y182.816 E.00665
G1 X177.75 Y182.968 F21000
;TYPE:Outer wall
G1 F3000
G1 X177.75 Y192.75 E.41669
G1 X158.25 Y192.75 E.83064
G1 X158.25 Y182.968 E.41669
G1 X158.187 Y182.814 E.00707
G1 X158.032 Y182.75 E.00714
G1 X148.25 Y182.75 E.41669
G1 X148.25 Y173 E.41532
G1 X148.25 Y163.25 E.41532
G1 X187.75 Y163.25 E1.68258
G1 X187.75 Y182.75 E.83064
G1 X177.968 Y182.75 E.41669
G1 X177.813 Y182.814 E.00714
G1 X177.773 Y182.912 E.00451
G1 E-2 F3600
G1 X181.213 Y176.099 Z.7 F21000
G1 X186.748 Y165.137 Z.7
G1 Z.3
M73 P2 R39
G1 E2 F2700
;TYPE:Bottom surface
;WIDTH:0.501988
G1 F6300
G1 X186.059 Y164.448 E.04168
G1 X185.44 Y164.448 E.02648
G1 X186.552 Y165.56 E.06727
G1 X186.552 Y166.178 E.02648
G1 X184.822 Y164.448 E.10472
G1 X184.203 Y164.448 E.02648
G1 X186.552 Y166.797 E.14217
G1 X186.552 Y167.416 E.02648
G1 X183.584 Y164.448 E.17963
G1 X182.965 Y164.448 E.02648
G1 X186.552 Y168.035 E.21708
G1 X186.552 Y168.654 E.02648
G1 X182.346 Y164.448 E.25453
G1 X181.727 Y164.448 E.02648
G1 X186.552 Y169.273 E.29198
G1 X186.552 Y169.892 E.02648
G1 X181.108 Y164.448 E.32943
G1 X180.489 Y164.448 E.02648
G1 X186.552 Y170.511 E.36688
G1 X186.552 Y171.129 E.02648
G1 X179.871 Y164.448 E.40434
G1 X179.252 Y164.448 E.02648
G1 X186.552 Y171.748 E.44179
G1 X186.552 Y172.367 E.02648
G1 X178.633 Y164.448 E.47924
G1 X178.014 Y164.448 E.02648
G1 X186.552 Y172.986 E.51669
G1 X186.552 Y173.605 E.02648
G1 X177.395 Y164.448 E.55414
G1 X176.776 Y164.448 E.02648
G1 X186.552 Y174.224 E.59159
G1 X186.552 Y174.843 E.02648
G1 X176.157 Y164.448 E.62904
G1 X175.539 Y164.448 E.02648
G1 X186.552 Y175.461 E.6665
G1 X186.552 Y176.08 E.02648
G1 X174.92 Y164.448 E.70395
G1 X174.301 Y164.448 E.02648
G1 X186.552 Y176.699 E.7414
G1 X186.552 Y177.318 E.02648
G1 X173.682 Y164.448 E.77885
G1 X173.063 Y164.448 E.02648
G1 X186.552 Y177.937 E.8163
G1 X186.552 Y178.556 E.02648
G1 X172.444 Y164.448 E.85375
G1 X171.825 Y164.448 E.02648
G1 X186.552 Y179.175 E.89121
G1 X186.552 Y179.794 E.02648
G1 X171.206 Y164.448 E.92866
G1 X170.588 Y164.448 E.02648
G1 X186.552 Y180.412 E.96611
G1 X186.552 Y181.031 E.02648
G1 X169.969 Y164.448 E1.00356
G1 X169.35 Y164.448 E.02648
G1 X186.454 Y181.552 E1.03507
G1 X185.835 Y181.552 E.02648
G1 X168.731 Y164.448 E1.03507
G1 X168.112 Y164.448 E.02648
G1 X185.216 Y181.552 E1.03507
G1 X184.597 Y181.552 E.02648
G1 X167.493 Y164.448 E1.03507
G1 X166.874 Y164.448 E.02648
G1 X183.978 Y181.552 E1.03507
G1 X183.36 Y181.552 E.02648
G1 X166.255 Y164.448 E1.03507
G1 X165.637 Y164.448 E.02648
G1 X182.741 Y181.552 E1.03507
G1 X182.122 Y181.552 E.02648
G1 X165.018 Y164.448 E1.03507
G1 X164.399 Y164.448 E.02648
G1 X181.503 Y181.552 E1.03507
G1 X180.884 Y181.552 E.02648
G1 X163.78 Y164.448 E1.03507
G1 X163.161 Y164.448 E.02648
G1 X180.265 Y181.552 E1.03507
G1 X179.646 Y181.552 E.02648
G1 X162.542 Y164.448 E1.03507
G1 X161.923 Y164.448 E.02648
G1 X179.027 Y181.552 E1.03507
G1 X178.409 Y181.552 E.02648
G1 X161.305 Y164.448 E1.03507
G1 X160.686 Y164.448 E.02648
G1 X177.804 Y181.566 E1.03591
G1 X177.721 Y181.573 E.00353
G1 X177.404 Y181.668 E.01417
G1 X177.328 Y181.709 E.0037
G1 X160.067 Y164.448 E1.04458
G1 X159.448 Y164.448 E.02648
G1 X176.967 Y181.967 E1.06017
G1 X176.794 Y182.175 E.01157
G1 X176.709 Y182.328 E.00749
G1 X158.829 Y164.448 E1.08203
G1 X158.21 Y164.448 E.02648
G1 X176.565 Y182.802 E1.11074
G1 X176.555 Y183.412 E.0261
G1 X157.591 Y164.448 E1.14764
G1 X156.972 Y164.448 E.02648
G1 X176.555 Y184.031 E1.18507
G1 X176.555 Y184.649 E.02647
G1 X156.354 Y164.448 E1.22251
G1 X155.735 Y164.448 E.02648
G1 X176.555 Y185.268 E1.25995
G1 X176.554 Y185.887 E.02647
G1 X155.116 Y164.448 E1.29738
G1 X154.497 Y164.448 E.02648
G1 X176.554 Y186.505 E1.33482
G1 X176.554 Y187.124 E.02647
G1 X153.878 Y164.448 E1.37225
G1 X153.259 Y164.448 E.02648
G1 X176.554 Y187.742 E1.40969
G1 X176.553 Y188.361 E.02647
G1 X152.64 Y164.448 E1.44713
G1 X152.021 Y164.448 E.02648
G1 X176.553 Y188.98 E1.48456
G1 X176.553 Y189.598 E.02647
G1 X151.403 Y164.448 E1.522
G1 X150.784 Y164.448 E.02648
G1 X176.553 Y190.217 E1.55943
G1 X176.552 Y190.835 E.02647
G1 X150.165 Y164.448 E1.59687
G1 X149.546 Y164.448 E.02648
G1 X176.552 Y191.454 E1.63431
G1 X176.552 Y191.552 E.00419
M73 P3 R39
G1 X176.031 Y191.552 E.02229
G1 X149.448 Y164.969 E1.60871
G1 X149.448 Y165.588 E.02648
G1 X175.412 Y191.552 E1.57126
G1 X174.793 Y191.552 E.02648
G1 X149.448 Y166.207 E1.53381
G1 X149.448 Y166.825 E.02648
G1 X174.175 Y191.552 E1.49636
G1 X173.556 Y191.552 E.02648
G1 X149.448 Y167.444 E1.45891
G1 X149.448 Y168.063 E.02648
G1 X172.937 Y191.552 E1.42146
G1 X172.318 Y191.552 E.02648
G1 X149.448 Y168.682 E1.384
G1 X149.448 Y169.301 E.02648
G1 X171.699 Y191.552 E1.34655
G1 X171.08 Y191.552 E.02648
G1 X149.448 Y169.92 E1.3091
G1 X149.448 Y170.539 E.02648
G1 X170.461 Y191.552 E1.27165
G1 X169.843 Y191.552 E.02648
G1 X149.448 Y171.157 E1.2342
G1 X149.448 Y171.776 E.02648
G1 X169.224 Y191.552 E1.19675
G1 X168.605 Y191.552 E.02648
G1 X149.448 Y172.395 E1.1593
G1 X149.448 Y173.014 E.02648
G1 X157.986 Y181.552 E.51668
G1 X157.367 Y181.552 E.02648
G1 X149.448 Y173.633 E.47923
G1 X149.448 Y174.252 E.02648
G1 X156.748 Y181.552 E.44178
G1 X156.129 Y181.552 E.02648
G1 X149.448 Y174.871 E.40433
G1 X149.448 Y175.49 E.02648
G1 X155.51 Y181.552 E.36688
G1 X154.892 Y181.552 E.02648
G1 X149.448 Y176.108 E.32943
G1 X149.448 Y176.727 E.02648
G1 X154.273 Y181.552 E.29197
G1 X153.654 Y181.552 E.02648
G1 X149.448 Y177.346 E.25452
G1 X149.448 Y177.965 E.02648
G1 X153.035 Y181.552 E.21707
G1 X152.416 Y181.552 E.02648
G1 X149.448 Y178.584 E.17962
G1 X149.448 Y179.203 E.02648
G1 X151.797 Y181.552 E.14217
G1 X151.178 Y181.552 E.02648
G1 X149.448 Y179.822 E.10472
G1 X149.448 Y180.441 E.02648
G1 X150.559 Y181.552 E.06726
G1 X149.941 Y181.552 E.02648
G1 X149.252 Y180.863 E.04168
G1 E-2 F3600
G1 X156.744 Y182.319 Z.7 F21000
G1 X159.237 Y182.804 Z.7
G1 Z.3
G1 E2 F2700
G1 F6300
G1 X167.986 Y191.552 E.52943
G1 X167.367 Y191.552 E.02648
G1 X159.445 Y183.63 E.47943
G1 X159.445 Y184.249 E.02649
G1 X166.748 Y191.552 E.44197
G1 X166.129 Y191.552 E.02648
G1 X159.445 Y184.868 E.4045
G1 X159.445 Y185.487 E.02649
G1 X165.51 Y191.552 E.36703
G1 X164.892 Y191.552 E.02648
G1 X159.446 Y186.106 E.32957
G1 X159.446 Y186.725 E.02649
G1 X164.273 Y191.552 E.2921
G1 X163.654 Y191.552 E.02648
G1 X159.446 Y187.344 E.25463
G1 X159.446 Y187.964 E.02649
G1 X163.035 Y191.552 E.21716
G1 X162.416 Y191.552 E.02648
G1 X159.447 Y188.583 E.1797
G1 X159.447 Y189.202 E.02649
G1 X161.797 Y191.552 E.14223
G1 X161.178 Y191.552 E.02648
G1 X159.447 Y189.821 E.10476
G1 X159.447 Y190.44 E.02649
G1 X160.559 Y191.552 E.0673
G1 X159.941 Y191.552 E.02648
G1 X159.252 Y190.863 E.0417
; stop printing object flowrate_m20 id:7 copy 0
; printing object flowrate_5 id:4 copy 0
;WIPE_START
G1 X159.941 Y191.552 E-1.9488
G1 X159.966 Y191.552 E-.0512
;WIPE_END
EXCLUDE_OBJECT_END NAME=flowrate_m20_id_7_copy_0
EXCLUDE_OBJECT_START NAME=flowrate_5_id_4_copy_0
G1 X159.685 Y199.179 Z.7 F21000
G1 X159.107 Y214.851 Z.7
G1 Z.3
G1 E2 F2700
;TYPE:Inner wall
;WIDTH:0.5
G1 F3000
G1 X159.095 Y214.729 E.00689
G1 X158.935 Y214.359 E.02255
G1 X158.686 Y214.097 E.02021
G1 X158.385 Y213.938 E.01899
G1 X158.032 Y213.879 E.02002
G1 X149.121 Y213.879 E.4982
G1 X149.121 Y196.121 E.9928
G1 X186.879 Y196.121 E2.11096
G1 X186.879 Y213.879 E.9928
G1 X178 Y213.879 E.4964
G1 X177.788 Y213.894 E.01191
G1 X177.455 Y214.007 E.01962
G1 X177.143 Y214.257 E.02237
G1 X176.948 Y214.585 E.02135
G1 X176.879 Y214.968 E.02173
G1 X176.879 Y223.879 E.4982
G1 X159.121 Y223.879 E.9928
G1 X159.121 Y215 E.4964
G1 X159.113 Y214.911 E.00499
G1 X158.673 Y214.903 F21000
G1 F3000
G1 X158.658 Y214.78 E.00693
G1 X158.527 Y214.541 E.01522
G1 X158.293 Y214.369 E.01626
G1 X158.032 Y214.314 E.0149
G1 X148.686 Y214.314 E.52255
G1 X148.686 Y195.686 E1.04151
G1 X187.314 Y195.686 E2.15967
G1 X187.314 Y214.314 E1.04151
G1 X178 Y214.314 E.52075
G1 X177.86 Y214.323 E.00786
G1 X177.576 Y214.445 E.01727
G1 X177.389 Y214.664 E.01608
G1 X177.314 Y214.968 E.01749
G1 X177.314 Y224.314 E.52255
G1 X158.686 Y224.314 E1.04151
G1 X158.686 Y215 E.52075
G1 X158.681 Y214.963 E.00211
G1 X158.25 Y214.968 F21000
;TYPE:Outer wall
G1 F3000
G1 X158.187 Y214.814 E.00927
G1 X158.032 Y214.75 E.00937
G1 X148.25 Y214.75 E.54691
G1 X148.25 Y195.25 E1.09021
G1 X187.75 Y195.25 E2.20838
G1 X187.75 Y214.75 E1.09021
G1 X177.968 Y214.75 E.54691
G1 X177.813 Y214.814 E.00937
G1 X177.75 Y214.968 E.00927
G1 X177.75 Y224.75 E.54691
G1 X158.25 Y224.75 E1.09021
G1 X158.25 Y215.028 E.54355
M73 P4 R39
G1 E-2 F3600
G1 X164.714 Y210.97 Z.7 F21000
G1 X186.748 Y197.137 Z.7
G1 Z.3
G1 E2 F2700
;TYPE:Bottom surface
;WIDTH:0.501988
G1 F5223.212
G1 X186.059 Y196.448 E.05471
G1 X185.44 Y196.448 E.03476
G1 X186.552 Y197.56 E.08829
G1 X186.552 Y198.178 E.03476
G1 X184.822 Y196.448 E.13745
G1 X184.203 Y196.448 E.03476
G1 X186.552 Y198.797 E.1866
G1 X186.552 Y199.416 E.03476
G1 X183.584 Y196.448 E.23576
G1 X182.965 Y196.448 E.03476
G1 X186.552 Y200.035 E.28491
G1 X186.552 Y200.654 E.03476
G1 X182.346 Y196.448 E.33407
G1 X181.727 Y196.448 E.03476
G1 X186.552 Y201.273 E.38322
G1 X186.552 Y201.892 E.03476
G1 X181.108 Y196.448 E.43238
G1 X180.489 Y196.448 E.03476
G1 X186.552 Y202.511 E.48153
G1 X186.552 Y203.129 E.03476
G1 X179.871 Y196.448 E.53069
G1 X179.252 Y196.448 E.03476
G1 X186.552 Y203.748 E.57985
G1 X186.552 Y204.367 E.03476
G1 X178.633 Y196.448 E.629
G1 X178.014 Y196.448 E.03476
G1 X186.552 Y204.986 E.67816
M73 P4 R38
G1 X186.552 Y205.605 E.03476
G1 X177.395 Y196.448 E.72731
G1 X176.776 Y196.448 E.03476
G1 X186.552 Y206.224 E.77647
G1 X186.552 Y206.843 E.03476
G1 X176.157 Y196.448 E.82562
G1 X175.539 Y196.448 E.03476
G1 X186.552 Y207.461 E.87478
G1 X186.552 Y208.08 E.03476
G1 X174.92 Y196.448 E.92393
G1 X174.301 Y196.448 E.03476
G1 X186.552 Y208.699 E.97309
G1 X186.552 Y209.318 E.03476
G1 X173.682 Y196.448 E1.02224
G1 X173.063 Y196.448 E.03476
G1 X186.552 Y209.937 E1.0714
G1 X186.552 Y210.556 E.03476
G1 X172.444 Y196.448 E1.12055
G1 X171.825 Y196.448 E.03476
G1 X186.552 Y211.175 E1.16971
G1 X186.552 Y211.794 E.03476
G1 X171.206 Y196.448 E1.21886
G1 X170.588 Y196.448 E.03476
G1 X186.552 Y212.412 E1.26802
G1 X186.552 Y213.031 E.03476
G1 X169.969 Y196.448 E1.31717
G1 X169.35 Y196.448 E.03476
G1 X186.454 Y213.552 E1.35853
