; HEADER_BLOCK_START
; generated by OrcaSlicer 1.8.0-beta2 on 2023-11-30 at 13:23:02
; total layer number: 7
; HEADER_BLOCK_END

; THUMBNAIL_BLOCK_START
; THUMBNAIL_BLOCK_END

; external perimeters extrusion width = 0.40mm
; perimeters extrusion width = 0.45mm
; infill extrusion width = 0.45mm
; solid infill extrusion width = 0.72mm
; top infill extrusion width = 0.72mm
; first layer extrusion width = 0.50mm

; external perimeters extrusion width = 0.40mm
; perimeters extrusion width = 0.45mm
; infill extrusion width = 0.45mm
; solid infill extrusion width = 0.72mm
; top infill extrusion width = 0.72mm
; first layer extrusion width = 0.50mm

; external perimeters extrusion width = 0.40mm
; perimeters extrusion width = 0.45mm
; infill extrusion width = 0.45mm
; solid infill extrusion width = 0.72mm
; top infill extrusion width = 0.72mm
; first layer extrusion width = 0.50mm

; external perimeters extrusion width = 0.40mm
; perimeters extrusion width = 0.45mm
; infill extrusion width = 0.45mm
; solid infill extrusion width = 0.72mm
; top infill extrusion width = 0.72mm
; first layer extrusion width = 0.50mm

; external perimeters extrusion width = 0.40mm
; perimeters extrusion width = 0.45mm
; infill extrusion width = 0.45mm
; solid infill extrusion width = 0.72mm
; top infill extrusion width = 0.72mm
; first layer extrusion width = 0.50mm

; external perimeters extrusion width = 0.40mm
; perimeters extrusion width = 0.45mm
; infill extrusion width = 0.45mm
; solid infill extrusion width = 0.72mm
; top infill extrusion width = 0.72mm
; first layer extrusion width = 0.50mm

; external perimeters extrusion width = 0.40mm
; perimeters extrusion width = 0.45mm
; infill extrusion width = 0.45mm
; solid infill extrusion width = 0.72mm
; top infill extrusion width = 0.72mm
; first layer extrusion width = 0.50mm

; external perimeters extrusion width = 0.40mm
; perimeters extrusion width = 0.45mm
; infill extrusion width = 0.45mm
; solid infill extrusion width = 0.72mm
; top infill extrusion width = 0.72mm
; first layer extrusion width = 0.50mm

; external perimeters extrusion width = 0.40mm
; perimeters extrusion width = 0.45mm
; infill extrusion width = 0.45mm
; solid infill extrusion width = 0.72mm
; top infill extrusion width = 0.72mm
; first layer extrusion width = 0.50mm

; external perimeters extrusion width = 0.40mm
; perimeters extrusion width = 0.45mm
; infill extrusion width = 0.45mm
; solid infill extrusion width = 0.72mm
; top infill extrusion width = 0.72mm
; first layer extrusion width = 0.50mm

; EXECUTABLE_BLOCK_START
EXCLUDE_OBJECT_DEFINE NAME=flowrate_0_id_0_copy_0 CENTER=210,258 POLYGON=[[190,243],[230,243],[230,263],[220,273],[200,273],[190,263],[190,243]]
EXCLUDE_OBJECT_DEFINE NAME=flowrate_m1_id_1_copy_0 CENTER=168,226 POLYGON=[[148,211],[188,211],[188,231],[178,241],[158,241],[148,231],[148,211]]
EXCLUDE_OBJECT_DEFINE NAME=flowrate_m2_id_2_copy_0 CENTER=210,226 POLYGON=[[190,211],[230,211],[230,231],[220,241],[200,241],[190,231],[190,211]]
EXCLUDE_OBJECT_DEFINE NAME=flowrate_m3_id_3_copy_0 CENTER=252,226 POLYGON=[[232,211],[272,211],[272,231],[262,241],[242,241],[232,231],[232,211]]
EXCLUDE_OBJECT_DEFINE NAME=flowrate_m4_id_4_copy_0 CENTER=168,194 POLYGON=[[148,179],[188,179],[188,199],[178,209],[158,209],[148,199],[148,179]]
EXCLUDE_OBJECT_DEFINE NAME=flowrate_m5_id_5_copy_0 CENTER=210,194 POLYGON=[[190,179],[230,179],[230,199],[220,209],[200,209],[190,199],[190,179]]
EXCLUDE_OBJECT_DEFINE NAME=flowrate_m6_id_6_copy_0 CENTER=252,194 POLYGON=[[232,179],[272,179],[272,199],[262,209],[242,209],[232,199],[232,179]]
EXCLUDE_OBJECT_DEFINE NAME=flowrate_m7_id_7_copy_0 CENTER=252,162 POLYGON=[[232,147],[272,147],[272,167],[262,177],[242,177],[232,167],[232,147]]
EXCLUDE_OBJECT_DEFINE NAME=flowrate_m8_id_8_copy_0 CENTER=210,162 POLYGON=[[190,147],[230,147],[230,167],[220,177],[200,177],[190,167],[190,147]]
EXCLUDE_OBJECT_DEFINE NAME=flowrate_m9_id_9_copy_0 CENTER=168,162 POLYGON=[[148,147],[188,147],[188,167],[178,177],[158,177],[148,167],[148,147]]
M73 P0 R42
;TYPE:Custom
G90 ; use absolute coordinates
M83 ; extruder relative mode
M104 S120 ; set temporary nozzle temp to prevent oozing during homing and auto bed leveling
M140 S60 ; set final bed temp
G4 S10 ; allow partial nozzle warmup
G28 ; home all axis
;G29 ; run abl mesh
M420 S1 ; load mesh
G1 Z50 F240
G1 X2 Y10 F3000
M104 S210 ; set final nozzle temp
M190 S60 ; wait for bed temp to stabilize
M109 S210 ; wait for nozzle temp to stabilize
G1 Z0.28 F240
G92 E0
G1 Y140 E10 F1500 ; prime the nozzle
G1 X2.3 F5000
G92 E0
M73 P1 R42
G1 Y10 E10 F1200 ; prime the nozzle
G92 E0
LINE_PURGE
G90
G21
M83 ; use relative distances for extrusion
; filament start gcode
M106 S0
;LAYER_CHANGE
;Z:0.3
;HEIGHT:0.3
;BEFORE_LAYER_CHANGE
;0.3
G92 E0

G1 E-2 F3600
;AFTER_LAYER_CHANGE
;0.3
;_SET_FAN_SPEED_CHANGING_LAYER
SET_VELOCITY_LIMIT ACCEL=500 ACCEL_TO_DECEL=250
; printing object flowrate_m3 id:3 copy 0
EXCLUDE_OBJECT_START NAME=flowrate_m3_id_3_copy_0
G1 X243.107 Y230.851 F21000
G1 Z.4
G1 Z.3
G1 E2 F2700
;TYPE:Inner wall
;WIDTH:0.5
G1 F3000
G1 X243.095 Y230.729 E.00509
G1 X242.935 Y230.359 E.01666
G1 X242.686 Y230.097 E.01494
G1 X242.385 Y229.938 E.01404
G1 X242.032 Y229.879 E.0148
G1 X233.121 Y229.879 E.36819
G1 X233.121 Y221 E.36686
G1 X233.121 Y212.121 E.36686
G1 X270.879 Y212.121 E1.5601
G1 X270.879 Y229.879 E.73372
G1 X262 Y229.879 E.36686
G1 X261.788 Y229.894 E.0088
G1 X261.455 Y230.007 E.0145
G1 X261.143 Y230.257 E.01654
G1 X260.948 Y230.585 E.01578
G1 X260.879 Y230.968 E.01606
G1 X260.879 Y239.879 E.36819
G1 X243.121 Y239.879 E.73372
G1 X243.121 Y231 E.36686
G1 X243.113 Y230.911 E.00369
G1 X242.673 Y230.903 F21000
G1 F3000
G1 X242.658 Y230.78 E.00512
G1 X242.527 Y230.541 E.01125
G1 X242.293 Y230.369 E.01201
G1 X242.032 Y230.314 E.01101
G1 X232.686 Y230.314 E.38619
G1 X232.686 Y221 E.38486
G1 X232.686 Y211.686 E.38486
G1 X271.314 Y211.686 E1.5961
G1 X271.314 Y230.314 E.76972
G1 X262 Y230.314 E.38486
G1 X261.86 Y230.323 E.00581
G1 X261.576 Y230.445 E.01276
G1 X261.389 Y230.664 E.01189
G1 X261.314 Y230.968 E.01293
G1 X261.314 Y240.314 E.38619
G1 X242.686 Y240.314 E.76972
G1 X242.686 Y231 E.38486
G1 X242.681 Y230.963 E.00156
G1 X242.25 Y230.968 F21000
;TYPE:Outer wall
G1 F3000
G1 X242.187 Y230.814 E.00685
G1 X242.032 Y230.75 E.00692
G1 X232.25 Y230.75 E.40419
G1 X232.25 Y221 E.40286
G1 X232.25 Y211.25 E.40286
G1 X271.75 Y211.25 E1.6321
G1 X271.75 Y230.75 E.80572
G1 X261.968 Y230.75 E.40419
G1 X261.813 Y230.814 E.00692
G1 X261.75 Y230.968 E.00685
G1 X261.75 Y240.75 E.40419
G1 X242.25 Y240.75 E.80572
G1 X242.25 Y231.028 E.40171
G1 E-2 F3600
G1 X248.714 Y226.97 Z.7 F21000
G1 X270.748 Y213.137 Z.7
G1 Z.3
G1 E2 F2700
;TYPE:Bottom surface
;WIDTH:0.501988
G1 F5653.992
G1 X270.059 Y212.448 E.04043
G1 X269.44 Y212.448 E.02569
G1 X270.552 Y213.56 E.06525
G1 X270.552 Y214.178 E.02569
G1 X268.822 Y212.448 E.10158
G1 X268.203 Y212.448 E.02569
G1 X270.552 Y214.797 E.13791
G1 X270.552 Y215.416 E.02569
G1 X267.584 Y212.448 E.17424
G1 X266.965 Y212.448 E.02569
G1 X270.552 Y216.035 E.21057
G1 X270.552 Y216.654 E.02569
G1 X266.346 Y212.448 E.24689
G1 X265.727 Y212.448 E.02569
G1 X270.552 Y217.273 E.28322
G1 X270.552 Y217.892 E.02569
G1 X265.108 Y212.448 E.31955
G1 X264.489 Y212.448 E.02569
G1 X270.552 Y218.511 E.35588
G1 X270.552 Y219.129 E.02569
M73 P2 R42
G1 X263.871 Y212.448 E.39221
G1 X263.252 Y212.448 E.02569
G1 X270.552 Y219.748 E.42853
G1 X270.552 Y220.367 E.02569
G1 X262.633 Y212.448 E.46486
G1 X262.014 Y212.448 E.02569
G1 X270.552 Y220.986 E.50119
G1 X270.552 Y221.605 E.02569
G1 X261.395 Y212.448 E.53752
G1 X260.776 Y212.448 E.02569
G1 X270.552 Y222.224 E.57385
G1 X270.552 Y222.843 E.02569
G1 X260.157 Y212.448 E.61017
G1 X259.539 Y212.448 E.02569
G1 X270.552 Y223.461 E.6465
G1 X270.552 Y224.08 E.02569
G1 X258.92 Y212.448 E.68283
G1 X258.301 Y212.448 E.02569
G1 X270.552 Y224.699 E.71916
G1 X270.552 Y225.318 E.02569
G1 X257.682 Y212.448 E.75549
G1 X257.063 Y212.448 E.02569
G1 X270.552 Y225.937 E.79181
G1 X270.552 Y226.556 E.02569
G1 X256.444 Y212.448 E.82814
G1 X255.825 Y212.448 E.02569
M73 P2 R41
G1 X270.552 Y227.175 E.86447
G1 X270.552 Y227.794 E.02569
G1 X255.206 Y212.448 E.9008
G1 X254.588 Y212.448 E.02569
G1 X270.552 Y228.412 E.93713
G1 X270.552 Y229.031 E.02569
G1 X253.969 Y212.448 E.97345
G1 X253.35 Y212.448 E.02569
G1 X270.454 Y229.552 E1.00402
G1 X269.835 Y229.552 E.02569
G1 X252.731 Y212.448 E1.00402
G1 X252.112 Y212.448 E.02569
G1 X269.216 Y229.552 E1.00402
G1 X268.597 Y229.552 E.02569
G1 X251.493 Y212.448 E1.00402
G1 X250.874 Y212.448 E.02569
G1 X267.978 Y229.552 E1.00402
G1 X267.36 Y229.552 E.02569
G1 X250.255 Y212.448 E1.00402
G1 X249.637 Y212.448 E.02569
G1 X266.741 Y229.552 E1.00402
G1 X266.122 Y229.552 E.02569
G1 X249.018 Y212.448 E1.00402
G1 X248.399 Y212.448 E.02569
G1 X265.503 Y229.552 E1.00402
G1 X264.884 Y229.552 E.02569
G1 X247.78 Y212.448 E1.00402
G1 X247.161 Y212.448 E.02569
G1 X264.265 Y229.552 E1.00402
G1 X263.646 Y229.552 E.02569
G1 X246.542 Y212.448 E1.00402
G1 X245.923 Y212.448 E.02569
G1 X263.027 Y229.552 E1.00402
G1 X262.409 Y229.552 E.02569
G1 X245.305 Y212.448 E1.00402
G1 X244.686 Y212.448 E.02569
G1 X261.804 Y229.566 E1.00484
G1 X261.721 Y229.573 E.00343
G1 X261.404 Y229.668 E.01375
G1 X261.328 Y229.709 E.00359
G1 X244.067 Y212.448 E1.01324
G1 X243.448 Y212.448 E.02569
G1 X260.967 Y229.967 E1.02836
G1 X260.794 Y230.175 E.01123
G1 X260.709 Y230.328 E.00726
G1 X242.829 Y212.448 E1.04957
G1 X242.21 Y212.448 E.02569
G1 X260.565 Y230.802 E1.07742
G1 X260.555 Y231.412 E.02531
G1 X241.591 Y212.448 E1.11321
G1 X240.972 Y212.448 E.02569
G1 X260.555 Y232.031 E1.14952
G1 X260.555 Y232.649 E.02568
G1 X240.354 Y212.448 E1.18584
G1 X239.735 Y212.448 E.02569
G1 X260.555 Y233.268 E1.22215
G1 X260.554 Y233.887 E.02568
G1 X239.116 Y212.448 E1.25846
G1 X238.497 Y212.448 E.02569
G1 X260.554 Y234.505 E1.29477
G1 X260.554 Y235.124 E.02568
G1 X237.878 Y212.448 E1.33109
G1 X237.259 Y212.448 E.02569
G1 X260.554 Y235.742 E1.3674
G1 X260.553 Y236.361 E.02568
G1 X236.64 Y212.448 E1.40371
G1 X236.021 Y212.448 E.02569
G1 X260.553 Y236.98 E1.44003
G1 X260.553 Y237.598 E.02568
G1 X235.403 Y212.448 E1.47634
G1 X234.784 Y212.448 E.02569
G1 X260.553 Y238.217 E1.51265
G1 X260.552 Y238.835 E.02568
G1 X234.165 Y212.448 E1.54896
G1 X233.546 Y212.448 E.02569
G1 X260.552 Y239.454 E1.58528
G1 X260.552 Y239.552 E.00407
G1 X260.031 Y239.552 E.02162
G1 X233.448 Y212.969 E1.56045
G1 X233.448 Y213.588 E.02569
G1 X259.412 Y239.552 E1.52412
G1 X258.793 Y239.552 E.02569
G1 X233.448 Y214.207 E1.4878
G1 X233.448 Y214.825 E.02569
G1 X258.175 Y239.552 E1.45147
G1 X257.556 Y239.552 E.02569
G1 X233.448 Y215.444 E1.41514
G1 X233.448 Y216.063 E.02569
G1 X256.937 Y239.552 E1.37881
G1 X256.318 Y239.552 E.02569
M73 P3 R41
G1 X233.448 Y216.682 E1.34248
G1 X233.448 Y217.301 E.02569
G1 X255.699 Y239.552 E1.30616
G1 X255.08 Y239.552 E.02569
G1 X233.448 Y217.92 E1.26983
G1 X233.448 Y218.539 E.02569
G1 X254.461 Y239.552 E1.2335
G1 X253.843 Y239.552 E.02569
G1 X233.448 Y219.157 E1.19717
G1 X233.448 Y219.776 E.02569
G1 X253.224 Y239.552 E1.16084
G1 X252.605 Y239.552 E.02569
G1 X233.448 Y220.395 E1.12452
G1 X233.448 Y221.014 E.02569
G1 X241.986 Y229.552 E.50118
G1 X241.367 Y229.552 E.02569
G1 X233.448 Y221.633 E.46485
G1 X233.448 Y222.252 E.02569
G1 X240.748 Y229.552 E.42853
G1 X240.129 Y229.552 E.02569
G1 X233.448 Y222.871 E.3922
G1 X233.448 Y223.49 E.02569
G1 X239.51 Y229.552 E.35587
G1 X238.892 Y229.552 E.02569
G1 X233.448 Y224.108 E.31954
G1 X233.448 Y224.727 E.02569
G1 X238.273 Y229.552 E.28321
G1 X237.654 Y229.552 E.02569
G1 X233.448 Y225.346 E.24689
G1 X233.448 Y225.965 E.02569
G1 X237.035 Y229.552 E.21056
G1 X236.416 Y229.552 E.02569
G1 X233.448 Y226.584 E.17423
G1 X233.448 Y227.203 E.02569
G1 X235.797 Y229.552 E.1379
G1 X235.178 Y229.552 E.02569
G1 X233.448 Y227.822 E.10157
G1 X233.448 Y228.441 E.02569
G1 X234.559 Y229.552 E.06525
G1 X233.941 Y229.552 E.02569
G1 X233.252 Y228.863 E.04043
G1 E-2 F3600
G1 X240.744 Y230.319 Z.7 F21000
G1 X243.237 Y230.804 Z.7
G1 Z.3
G1 E2 F2700
G1 F5653.992
G1 X251.986 Y239.552 E.51354
G1 X251.367 Y239.552 E.02569
G1 X243.445 Y231.63 E.46505
G1 X243.445 Y232.249 E.0257
G1 X250.748 Y239.552 E.42871
G1 X250.129 Y239.552 E.02569
G1 X243.445 Y232.868 E.39236
G1 X243.445 Y233.487 E.0257
G1 X249.51 Y239.552 E.35602
G1 X248.892 Y239.552 E.02569
G1 X243.446 Y234.106 E.31968
G1 X243.446 Y234.725 E.0257
G1 X248.273 Y239.552 E.28334
G1 X247.654 Y239.552 E.02569
G1 X243.446 Y235.344 E.24699
G1 X243.446 Y235.964 E.0257
G1 X247.035 Y239.552 E.21065
G1 X246.416 Y239.552 E.02569
G1 X243.447 Y236.583 E.17431
G1 X243.447 Y237.202 E.0257
G1 X245.797 Y239.552 E.13796
G1 X245.178 Y239.552 E.02569
G1 X243.447 Y237.821 E.10162
G1 X243.447 Y238.44 E.0257
G1 X244.559 Y239.552 E.06528
G1 X243.941 Y239.552 E.02569
G1 X243.252 Y238.863 E.04045
; stop printing object flowrate_m3 id:3 copy 0
; printing object flowrate_m6 id:6 copy 0
;WIPE_START
G1 X243.941 Y239.552 E-1.9488
G1 X243.966 Y239.552 E-.0512
;WIPE_END
EXCLUDE_OBJECT_END NAME=flowrate_m3_id_3_copy_0
EXCLUDE_OBJECT_START NAME=flowrate_m6_id_6_copy_0
G1 X246.897 Y232.505 Z.7 F21000
G1 X260.907 Y198.81 Z.7
G1 Z.3
G1 E2 F2700
;TYPE:Inner wall
;WIDTH:0.5
G1 F3000
G1 X260.879 Y198.968 E.00643
G1 X260.879 Y207.879 E.3568
G1 X243.121 Y207.879 E.71103
G1 X243.121 Y199 E.35552
G1 X243.095 Y198.729 E.01091
G1 X242.935 Y198.359 E.01615
G1 X242.686 Y198.097 E.01448
G1 X242.385 Y197.938 E.0136
G1 X242.032 Y197.879 E.01434
G1 X233.121 Y197.879 E.3568
G1 X233.121 Y180.121 E.71103
G1 X270.879 Y180.121 E1.51185
G1 X270.879 Y197.879 E.71103
G1 X262 Y197.879 E.35552
G1 X261.788 Y197.894 E.00853
G1 X261.455 Y198.007 E.01405
G1 X261.143 Y198.257 E.01602
G1 X260.948 Y198.585 E.01529
G1 X260.918 Y198.751 E.00672
G1 X261.338 Y198.874 F21000
G1 F3000
G1 X261.314 Y198.968 E.00387
G1 X261.314 Y208.314 E.37425
G1 X242.686 Y208.314 E.74592
G1 X242.686 Y199 E.37296
G1 X242.658 Y198.78 E.00888
G1 X242.527 Y198.541 E.0109
G1 X242.293 Y198.369 E.01164
G1 X242.032 Y198.314 E.01067
G1 X232.686 Y198.314 E.37425
G1 X232.686 Y179.686 E.74592
G1 X271.314 Y179.686 E1.54674
G1 X271.314 Y198.314 E.74592
G1 X262 Y198.314 E.37296
G1 X261.86 Y198.323 E.00563
G1 X261.576 Y198.445 E.01237
G1 X261.389 Y198.664 E.01152
G1 X261.352 Y198.816 E.00625
G1 X261.75 Y198.968 F21000
;TYPE:Outer wall
G1 F3000
G1 X261.75 Y208.75 E.39169
G1 X242.25 Y208.75 E.7808
G1 X242.25 Y198.968 E.39169
G1 X242.187 Y198.814 E.00664
G1 X242.032 Y198.75 E.00671
G1 X232.25 Y198.75 E.39169
G1 X232.25 Y179.25 E.7808
G1 X271.75 Y179.25 E1.58162
G1 X271.75 Y198.75 E.7808
G1 X261.968 Y198.75 E.39169
G1 X261.813 Y198.814 E.00671
G1 X261.773 Y198.912 E.00424
G1 E-2 F3600
G1 X265.213 Y192.099 Z.7 F21000
G1 X270.748 Y181.137 Z.7
G1 Z.3
G1 E2 F2700
;TYPE:Bottom surface
;WIDTH:0.501988
G1 F5834.439
G1 X270.059 Y180.448 E.03918
G1 X269.44 Y180.448 E.02489
G1 X270.552 Y181.56 E.06324
G1 X270.552 Y182.178 E.02489
G1 X268.822 Y180.448 E.09844
G1 X268.203 Y180.448 E.02489
G1 X270.552 Y182.797 E.13364
G1 X270.552 Y183.416 E.02489
G1 X267.584 Y180.448 E.16885
G1 X266.965 Y180.448 E.02489
G1 X270.552 Y184.035 E.20405
G1 X270.552 Y184.654 E.02489
G1 X266.346 Y180.448 E.23926
G1 X265.727 Y180.448 E.02489
G1 X270.552 Y185.273 E.27446
G1 X270.552 Y185.892 E.02489
G1 X265.108 Y180.448 E.30967
G1 X264.489 Y180.448 E.02489
G1 X270.552 Y186.511 E.34487
G1 X270.552 Y187.129 E.02489
G1 X263.871 Y180.448 E.38008
G1 X263.252 Y180.448 E.02489
G1 X270.552 Y187.748 E.41528
G1 X270.552 Y188.367 E.02489
G1 X262.633 Y180.448 E.45048
G1 X262.014 Y180.448 E.02489
G1 X270.552 Y188.986 E.48569
G1 X270.552 Y189.605 E.02489
G1 X261.395 Y180.448 E.52089
G1 X260.776 Y180.448 E.02489
M73 P4 R41
G1 X270.552 Y190.224 E.5561
G1 X270.552 Y190.843 E.02489
G1 X260.157 Y180.448 E.5913
G1 X259.539 Y180.448 E.02489
G1 X270.552 Y191.461 E.62651
G1 X270.552 Y192.08 E.02489
G1 X258.92 Y180.448 E.66171
G1 X258.301 Y180.448 E.02489
G1 X270.552 Y192.699 E.69692
G1 X270.552 Y193.318 E.02489
G1 X257.682 Y180.448 E.73212
G1 X257.063 Y180.448 E.02489
