; HEADER_BLOCK_START
; generated by OrcaSlicer 1.8.0-beta2 on 2023-12-01 at 16:12:44
; total layer number: 239
; HEADER_BLOCK_END

; THUMBNAIL_BLOCK_START
; THUMBNAIL_BLOCK_END

; external perimeters extrusion width = 0.60mm
; perimeters extrusion width = 0.65mm
; infill extrusion width = 0.65mm
; solid infill extrusion width = 0.65mm
; top infill extrusion width = 0.56mm
; support material extrusion width = 0.55mm
; first layer extrusion width = 0.62mm

; external perimeters extrusion width = 0.60mm
; perimeters extrusion width = 0.65mm
; infill extrusion width = 0.65mm
; solid infill extrusion width = 0.65mm
; top infill extrusion width = 0.56mm
; support material extrusion width = 0.55mm
; first layer extrusion width = 0.62mm

; EXECUTABLE_BLOCK_START
EXCLUDE_OBJECT_DEFINE NAME=Neptune_3_Z_Axis_Camera_Mount_-_Logi.stl_id_0_copy_0 CENTER=201.375,257.27 POLYGON=[[152.803,274.27],[184.168,245.563],[184.376,245.404],[204.375,235.404],[204.617,235.304],[204.875,235.27],[217.875,235.27],[218.134,235.304],[218.375,235.404],[218.583,235.563],[249.948,274.27],[249.948,279.27],[152.803,279.27],[152.803,274.27]]
EXCLUDE_OBJECT_DEFINE NAME=Logitech_C270_Z_Axis_Cam_Holder.stl_id_1_copy_0 CENTER=200,190 POLYGON=[[190,165.5],[207.5,160],[210,160],[210,220],[190,220],[190,165.5]]
M73 P0 R152
;TYPE:Custom
; Start G-code with Adaptive Meshing for Elegoo Neptune 3 Max

G90 ; Set absolute positioning
M83 ; Set extruder to relative mode
M104 S120 ; Set temporary nozzle temp to prevent oozing during homing and auto bed leveling
M140 S60 ; Set final bed temp
G4 S10 ; Allow partial nozzle warmup
G28 ; Home all axes

; Run Adaptive Meshing (KAMP)
G29

; Load the mesh
M420 S1

SMART_PARK

; Set final nozzle temp
M104 S220

; Wait for bed temp to stabilize
M190 S60

; Wait for nozzle temp to stabilize
M109 S220

; Move to printing height
G1 Z0.28 F240

; Start Line Purge macro (assuming you have it defined)
LINE_PURGE
G90
G21
M83 ; use relative distances for extrusion
; filament start gcode
SET_PRESSURE_ADVANCE ADVANCE=0.06; Override pressure advance value
M106 S0
;LAYER_CHANGE
;Z:0.36
;HEIGHT:0.36
;BEFORE_LAYER_CHANGE
;0.36
G92 E0

G1 E-.8 F3000
;AFTER_LAYER_CHANGE
;0.36
;_SET_FAN_SPEED_CHANGING_LAYER
; printing object Neptune 3 Z Axis Camera Mount - Logi.stl id:0 copy 0
EXCLUDE_OBJECT_START NAME=Neptune_3_Z_Axis_Camera_Mount_-_Logi.stl_id_0_copy_0
G1 X153.823 Y272.198 F10200
G1 Z.4
G1 Z.36
G1 E.8 F2400
;TYPE:Support interface
;WIDTH:0.62
G1 F1200
G1 X153.606 Y272.198 E.01542
G1 X153.606 Y281.155 E.63532
G1 X154.066 Y281.155 E.03264
G1 X154.066 Y272.198 E.63532
G1 X154.809 Y272.198 E.05269
G1 X156.28 Y272.198 F10200
G1 F1200
G1 X156.591 Y272.198 E.02209
G1 X156.591 Y273.677 E.10492
G1 X156.281 Y273.677 E.02202
G1 X156.236 Y273.722 E.00448
G1 X155.44 Y273.827 F10200
G1 F1200
G1 X156.037 Y273.827 E.04235
G1 X156.037 Y272.198 E.11555
G1 X155.051 Y272.198 E.06991
G1 X155.051 Y281.155 E.63532
G1 X156.037 Y281.155 E.06991
G1 X156.037 Y279.713 E.10229
G1 X155.44 Y279.713 E.04235
G1 X156.236 Y279.818 F10200
G1 F1200
G1 X156.281 Y279.863 E.00448
G1 X156.591 Y279.863 E.02202
G1 X156.591 Y281.155 E.09165
G1 X156.28 Y281.155 E.02209
;WIPE_START
G1 X156.591 Y281.155 E-.24912
G1 X156.591 Y280.466 E-.55088
;WIPE_END
G1 X164.185 Y281.237 Z.76 F10200
G1 X182.409 Y283.087 Z.76
G1 Z.36
G1 E.8 F2400
;TYPE:Support
G1 F1200
G1 X160.63 Y283.087 E1.54481
G1 X160.63 Y279.68 E.24171
G1 X182.409 Y279.68 E1.54481
G1 X182.409 Y283.006 E.23593
G1 X181.92 Y280.168 F10200
G1 F1200
G1 X181.92 Y282.599 E.17241
G1 X161.118 Y282.599 E1.47552
G1 X161.118 Y280.168 E.17241
G1 X181.92 Y280.168 E1.47552
G1 X181.317 Y280.771 F10200
G1 F1200
G1 X181.317 Y281.996 E.08686
G1 X161.721 Y281.996 E1.38997
G1 X161.721 Y280.771 E.08686
G1 X181.317 Y280.771 E1.38997
;WIPE_START
G1 X180.317 Y280.771 E-.8
;WIPE_END
G1 X186.434 Y276.206 Z.76 F10200
G1 X221.222 Y250.246 Z.76
G1 Z.36
G1 E.8 F2400
G1 F1200
G1 X219.286 Y250.246 E.13735
G1 X219.286 Y246.256 E.28296
G1 X219.284 Y246.229 E.0019
G1 X219.244 Y245.931 E.02137
G1 X219.23 Y245.879 E.00381
G1 X219.11 Y245.588 E.02233
G1 X219.083 Y245.541 E.00381
G1 X218.892 Y245.292 E.02233
G1 X218.854 Y245.254 E.00381
G1 X218.604 Y245.062 E.02233
G1 X218.557 Y245.035 E.00381
G1 X218.266 Y244.915 E.02233
G1 X218.214 Y244.901 E.00381
G1 X217.919 Y244.862 E.02117
G1 X217.892 Y244.86 E.0019
G1 X199.443 Y244.86 E1.3086
G1 X199.443 Y231.452 E.95103
G1 X221.222 Y231.452 E1.54481
G1 X221.222 Y250.164 E1.32727
;WIPE_START
G1 X221.222 Y249.164 E-.8
;WIPE_END
G1 X213.776 Y247.488 Z.76 F10200
G1 X199.931 Y244.371 Z.76
G1 Z.36
G1 E.8 F2400
G1 F1200
G1 X199.931 Y231.941 E.88173
G1 X220.733 Y231.941 E1.47552
G1 X220.733 Y249.757 E1.26374
G1 X219.774 Y249.757 E.06806
G1 X219.774 Y246.24 E.24945
G1 X219.77 Y246.182 E.00417
G1 X219.725 Y245.835 E.02478
G1 X219.694 Y245.721 E.00836
G1 X219.549 Y245.371 E.02687
G1 X219.49 Y245.269 E.00835
G1 X219.26 Y244.969 E.02687
G1 X219.176 Y244.886 E.00836
G1 X218.876 Y244.655 E.02687
G1 X218.774 Y244.596 E.00835
G1 X218.424 Y244.451 E.02687
G1 X218.31 Y244.421 E.00835
G1 X217.966 Y244.375 E.02457
G1 X217.908 Y244.372 E.00417
G1 X199.931 Y244.371 E1.27509
G1 X200.534 Y243.768 F10200
G1 F1200
G1 X200.534 Y232.544 E.79618
G1 X220.13 Y232.544 E1.38997
G1 X220.13 Y244.987 E.88262
G1 X219.575 Y244.431 E.05574
G1 X219.211 Y244.153 E.03248
G1 X219.041 Y244.054 E.01396
G1 X218.618 Y243.879 E.03247
G1 X218.428 Y243.828 E.01396
G1 X218.026 Y243.775 E.02878
G1 X217.928 Y243.769 E.00697
G1 X200.534 Y243.768 E1.23371
G1 X201.137 Y243.165 F10200
G1 F1200
G1 X201.137 Y233.147 E.71064
G1 X219.527 Y233.147 E1.30442
G1 X219.527 Y243.603 E.74167
G1 X218.812 Y243.307 E.0549
G1 X218.546 Y243.235 E.01957
G1 X218.085 Y243.175 E.03298
G1 X217.947 Y243.166 E.00977
G1 X201.137 Y243.165 E1.19234
G1 X201.74 Y242.562 F10200
G1 F1200
G1 X201.74 Y233.75 E.62509
G1 X218.924 Y233.75 E1.21887
G1 X218.924 Y242.677 E.63321
G1 X218.144 Y242.574 E.05584
G1 X217.967 Y242.562 E.01257
G1 X201.74 Y242.562 E1.15097
G1 X202.343 Y241.959 F10200
G1 F1200
G1 X202.343 Y234.353 E.53954
G1 X218.321 Y234.353 E1.13332
M73 P0 R151
G1 X218.321 Y241.981 E.54111
G1 X217.987 Y241.959 E.02378
G1 X202.343 Y241.959 E1.10959
G1 X202.946 Y241.356 F10200
G1 F1200
G1 X202.946 Y234.956 E.45399
G1 X217.718 Y234.956 E1.04777
G1 X217.718 Y241.356 E.454
G1 X202.946 Y241.356 E1.04777
G1 X203.55 Y240.753 F10200
G1 F1200
G1 X203.55 Y235.559 E.36844
G1 X217.115 Y235.559 E.96222
G1 X217.115 Y240.753 E.36845
G1 X203.55 Y240.753 E.96222
G1 X204.153 Y240.15 F10200
G1 F1200
G1 X204.153 Y236.162 E.28289
G1 X216.512 Y236.162 E.87667
G1 X216.512 Y240.15 E.2829
G1 X204.153 Y240.15 E.87667
G1 X204.756 Y239.547 F10200
G1 F1200
G1 X204.756 Y236.765 E.19734
G1 X215.909 Y236.765 E.79112
G1 X215.909 Y239.547 E.19735
G1 X204.756 Y239.547 E.79112
G1 X205.359 Y238.944 F10200
G1 F1200
G1 X205.359 Y237.368 E.1118
G1 X215.306 Y237.368 E.70557
G1 X215.306 Y238.944 E.1118
G1 X205.359 Y238.944 E.70557
;WIPE_START
G1 X206.359 Y238.944 E-.8
;WIPE_END
G1 X212.235 Y243.815 Z.76 F10200
G1 X246.471 Y272.198 Z.76
G1 Z.36
G1 E.8 F2400
;TYPE:Support interface
G1 F1200
G1 X246.16 Y272.198 E.02209
G1 X246.16 Y273.677 E.10492
G1 X246.47 Y273.677 E.02202
G1 X246.62 Y273.827 E.01505
G1 X246.714 Y273.827 E.00665
G1 X246.714 Y272.198 E.11555
G1 X247.7 Y272.198 E.06991
G1 X247.7 Y281.155 E.63532
G1 X248.685 Y281.155 E.06991
G1 X248.685 Y272.198 E.63532
G1 X249.145 Y272.198 E.03264
G1 X249.145 Y281.155 E.63532
G1 X248.928 Y281.155 E.01542
;WIPE_START
G1 X249.145 Y281.155 E-.17393
G1 X249.145 Y280.372 E-.62607
;WIPE_END
G1 X247.311 Y279.713 Z.76 F10200
G1 Z.36
G1 E.8 F2400
G1 F1200
G1 X246.714 Y279.713 E.04235
G1 X246.714 Y281.155 E.10229
G1 X246.16 Y281.155 E.03931
G1 X246.16 Y279.863 E.09165
G1 X246.47 Y279.863 E.02202
G1 X246.515 Y279.818 E.00447
;WIPE_START
G1 X246.47 Y279.863 E-.05047
G1 X246.16 Y279.863 E-.24834
G1 X246.16 Y280.489 E-.50119
;WIPE_END
G1 X242.121 Y283.087 Z.76 F10200
G1 Z.36
G1 E.8 F2400
;TYPE:Support
G1 F1200
G1 X220.342 Y283.087 E1.54481
G1 X220.342 Y279.68 E.24171
G1 X242.121 Y279.68 E1.54481
G1 X242.121 Y283.006 E.23593
G1 X220.831 Y280.168 F10200
G1 F1200
G1 X241.633 Y280.168 E1.47552
G1 X241.633 Y282.599 E.17241
G1 X220.831 Y282.599 E1.47552
G1 X220.831 Y280.168 E.17241
G1 X221.434 Y280.771 F10200
G1 F1200
G1 X241.03 Y280.771 E1.38997
G1 X241.03 Y281.996 E.08686
G1 X221.434 Y281.996 E1.38997
G1 X221.434 Y280.771 E.08686
;WIPE_START
G1 X221.434 Y281.771 E-.8
;WIPE_END
G1 X215.999 Y276.412 Z.76 F10200
G1 X186.035 Y246.866 Z.76
G1 Z.36
G1 E.8 F2400
;TYPE:Inner wall
;WIDTH:0.709294
G1 F1200
G1 X185.945 Y247.064 E.0179
G1 X185.938 Y247.231 E.01384
;WIDTH:0.703143
G1 X185.938 Y274.308 E2.21483
G1 X185.955 Y274.705 E.03251
;WIDTH:0.669385
G1 X185.972 Y275.102 E.03075
;WIDTH:0.635627
G1 X185.98 Y275.897 E.05795
;WIDTH:0.62
G1 X185.98 Y277.874 E.14028
G1 X157.922 Y277.874 E1.99019
G1 X157.922 Y275.665 E.15669
G1 X183.914 Y275.665 E1.84365
G1 X184.385 Y275.581 E.03396
G1 X184.79 Y275.344 E.03325
;WIDTH:0.635627
G1 X185.139 Y274.909 E.04072
;WIDTH:0.675867
G1 X185.219 Y274.73 E.01532
;WIDTH:0.716108
G1 X185.298 Y274.551 E.01635
G1 X185.313 Y274.308 E.0203
;WIDTH:0.703143
G1 X185.313 Y247.231 E2.21483
;WIDTH:0.709294
G1 X185.316 Y246.71 E.04305
G1 X186.107 Y246.71 E.06535
G1 X186.06 Y246.812 E.00926
G1 X186.565 Y247.054 F10200
;WIDTH:0.62
G1 F1200
G1 X186.529 Y247.134 E.00623
G1 X186.523 Y247.231 E.00691
G1 X186.523 Y278.417 E2.21204
G1 X157.379 Y278.417 E2.06718
G1 X157.379 Y275.122 E.23368
G1 X183.914 Y275.122 E1.88215
G1 X184.197 Y275.072 E.02037
G1 X184.44 Y274.93 E.01995
G1 X184.645 Y274.667 E.02368
G1 X184.728 Y274.308 E.0261
G1 X184.728 Y246.34 E1.98383
G1 X184.777 Y246.171 E.01247
G1 X184.931 Y246.122 E.0115
G1 X186.484 Y246.122 E.11015
;WIDTH:0.66415
G1 X186.582 Y246.145 E.0077
;WIDTH:0.708301
G1 X186.68 Y246.167 E.00828
;WIDTH:0.752452
G1 X186.778 Y246.189 E.00886
;WIDTH:0.796603
G1 X186.876 Y246.211 E.00943
;WIDTH:0.840753
G1 X186.974 Y246.233 E.01001
;WIDTH:0.884904
G1 X187.072 Y246.255 E.01059
;WIDTH:0.929055
G1 X187.17 Y246.277 E.01117
G1 X187.107 Y246.335 E.00949
;WIDTH:0.884904
G1 X187.045 Y246.393 E.009
;WIDTH:0.840753
G1 X186.983 Y246.452 E.00851
;WIDTH:0.796603
G1 X186.92 Y246.51 E.00802
;WIDTH:0.752452
G1 X186.858 Y246.568 E.00752
;WIDTH:0.708301
G1 X186.796 Y246.626 E.00703
;WIDTH:0.66415
G1 X186.734 Y246.685 E.00654
;WIDTH:0.62
G1 X186.59 Y246.999 E.02454
;WIPE_START
G1 X186.529 Y247.134 E-.11823
G1 X186.523 Y247.231 E-.07796
G1 X186.523 Y247.986 E-.60382
;WIPE_END
G1 X194.148 Y247.663 Z.76 F10200
G1 X216.644 Y246.71 Z.76
G1 Z.36
G1 E.8 F2400
;WIDTH:0.709274
G1 F1200
G1 X217.435 Y246.71 E.06534
G1 X217.438 Y247.231 E.04302
;WIDTH:0.703142
G1 X217.438 Y274.308 E2.21483
;WIDTH:0.71611
G1 X217.453 Y274.551 E.0203
G1 X217.532 Y274.73 E.01635
;WIDTH:0.675868
G1 X217.612 Y274.909 E.01532
;WIDTH:0.635627
G1 X217.961 Y275.344 E.04072
;WIDTH:0.62
G1 X218.366 Y275.581 E.03325
G1 X218.837 Y275.665 E.03396
G1 X244.829 Y275.665 E1.84365
G1 X244.829 Y277.874 E.15669
G1 X216.771 Y277.874 E1.99019
G1 X216.771 Y275.897 E.14028
;WIDTH:0.635627
G1 X216.779 Y275.102 E.05795
;WIDTH:0.669384
G1 X216.796 Y274.705 E.03075
;WIDTH:0.703142
G1 X216.813 Y274.308 E.03251
G1 X216.813 Y247.231 E2.21483
;WIDTH:0.709274
G1 X216.806 Y247.064 E.01382
G1 X216.669 Y246.765 E.02715
G1 X215.414 Y246.27 F10200
;WIDTH:0.914165
G1 F1200
G1 X215.556 Y246.245 E.01577
;WIDTH:0.865137
G1 X215.698 Y246.221 E.01485
;WIDTH:0.81611
G1 X215.84 Y246.196 E.01392
;WIDTH:0.767082
G1 X215.983 Y246.172 E.013
;WIDTH:0.718055
G1 X216.125 Y246.147 E.01208
;WIDTH:0.669027
G1 X216.267 Y246.123 E.01115
;WIDTH:0.62
G1 X217.806 Y246.123 E.10916
G1 X217.974 Y246.171 E.01244
G1 X218.023 Y246.326 E.0115
G1 X218.023 Y274.308 E1.98484
G1 X218.106 Y274.667 E.0261
G1 X218.311 Y274.93 E.02368
G1 X218.554 Y275.072 E.01995
G1 X218.837 Y275.122 E.02037
G1 X245.372 Y275.122 E1.88215
G1 X245.372 Y278.417 E.23368
G1 X216.228 Y278.417 E2.06718
G1 X216.228 Y247.231 E2.21204
G1 X216.222 Y247.134 E.0069
G1 X216.018 Y246.685 E.03503
;WIDTH:0.669027
G1 X215.917 Y246.615 E.00944
;WIDTH:0.718055
G1 X215.816 Y246.546 E.01022
;WIDTH:0.767082
G1 X215.716 Y246.477 E.011
;WIDTH:0.81611
G1 X215.615 Y246.408 E.01178
;WIDTH:0.865137
G1 X215.515 Y246.339 E.01257
;WIDTH:0.914165
G1 X215.464 Y246.304 E.00679
;WIPE_START
G1 X215.556 Y246.245 E-.08766
G1 X215.698 Y246.221 E-.11536
G1 X215.84 Y246.196 E-.11536
G1 X215.983 Y246.172 E-.11536
G1 X216.125 Y246.147 E-.11536
G1 X216.267 Y246.123 E-.11536
G1 X216.436 Y246.123 E-.13554
;WIPE_END
G1 X208.809 Y246.411 Z.76 F10200
G1 X187.066 Y247.231 Z.76
G1 Z.36
G1 E.8 F2400
;TYPE:Outer wall
;WIDTH:0.62
G1 F1200
G1 X187.066 Y278.96 E2.25054
G1 X156.836 Y278.96 E2.14418
G1 X156.836 Y274.58 E.31068
G1 X183.914 Y274.58 E1.92065
G1 X184.008 Y274.563 E.00679
G1 X184.158 Y274.428 E.01428
G1 X184.186 Y274.308 E.0087
G1 X184.186 Y246.29 E1.98736
G1 X184.28 Y245.926 E.02668
G1 X184.532 Y245.674 E.02524
G1 X184.896 Y245.58 E.02668
G1 X217.858 Y245.58 E2.33804
G1 X218.219 Y245.674 E.02647
G1 X218.471 Y245.926 E.02524
G1 X218.566 Y246.29 E.02668
G1 X218.566 Y274.308 E1.98736
G1 X218.57 Y274.355 E.00334
G1 X218.662 Y274.516 E.01311
G1 X218.837 Y274.58 E.01323
G1 X245.915 Y274.58 E1.92065
G1 X245.915 Y278.96 E.31068
G1 X215.686 Y278.96 E2.14418
G1 X215.686 Y247.231 E2.25054
M73 P1 R150
G1 X215.615 Y247.049 E.01385
G1 X215.414 Y246.96 E.01561
G1 X187.337 Y246.96 E1.99154
G1 X187.136 Y247.049 E.01561
G1 X187.087 Y247.175 E.00959
;WIPE_START
G1 X187.086 Y248.175 E-.8
;WIPE_END
G1 X194.702 Y247.663 Z.76 F10200
G1 X215.414 Y246.27 Z.76
G1 Z.36
G1 E.8 F2400
;TYPE:Inner wall
;WIDTH:0.914485
G1 F1200
G1 X187.337 Y246.27 E3.07213
;WIDTH:0.929055
G1 X187.17 Y246.277 E.01865
;WIPE_START
G1 X187.337 Y246.27 E-.13401
G1 X188.169 Y246.27 E-.66599
;WIPE_END
G1 X187.566 Y253.878 Z.76 F10200
G1 X185.807 Y276.044 Z.76
G1 Z.36
G1 E.8 F2400
;TYPE:Bottom surface
;WIDTH:0.632468
G1 F1200
G1 X185.219 Y275.456 E.06037
G1 X185.055 Y275.657 E.01882
G1 X184.79 Y275.811 E.02229
G1 X185.567 Y276.588 E.07973
G1 X185.572 Y277.379 E.05733
G1 X184.235 Y276.042 E.13715
G1 X183.92 Y276.072 E.02296
G1 X183.48 Y276.072 E.03192
G1 X184.875 Y277.467 E.14314
G1 X184.09 Y277.467 E.05697
G1 X182.695 Y276.072 E.14314
G1 X181.91 Y276.072 E.05697
G1 X183.305 Y277.467 E.14314
G1 X182.519 Y277.467 E.05697
G1 X181.125 Y276.072 E.14314
G1 X180.339 Y276.072 E.05697
G1 X181.734 Y277.467 E.14314
G1 X180.949 Y277.467 E.05697
G1 X179.554 Y276.072 E.14314
G1 X178.769 Y276.072 E.05697
G1 X180.164 Y277.467 E.14314
G1 X179.379 Y277.467 E.05697
G1 X177.984 Y276.072 E.14314
G1 X177.199 Y276.072 E.05697
G1 X178.594 Y277.467 E.14314
G1 X177.808 Y277.467 E.05697
G1 X176.413 Y276.072 E.14314
G1 X175.628 Y276.072 E.05697
G1 X177.023 Y277.467 E.14314
G1 X176.238 Y277.467 E.05697
G1 X174.843 Y276.072 E.14314
G1 X174.058 Y276.072 E.05697
G1 X175.453 Y277.467 E.14314
G1 X174.668 Y277.467 E.05697
G1 X173.273 Y276.072 E.14314
G1 X172.487 Y276.072 E.05697
G1 X173.882 Y277.467 E.14314
G1 X173.097 Y277.467 E.05697
G1 X171.702 Y276.072 E.14314
G1 X170.917 Y276.072 E.05697
G1 X172.312 Y277.467 E.14314
G1 X171.527 Y277.467 E.05697
G1 X170.132 Y276.072 E.14314
G1 X169.347 Y276.072 E.05697
G1 X170.742 Y277.467 E.14314
G1 X169.956 Y277.467 E.05697
G1 X168.562 Y276.072 E.14314
G1 X167.776 Y276.072 E.05697
G1 X169.171 Y277.467 E.14314
G1 X168.386 Y277.467 E.05697
G1 X166.991 Y276.072 E.14314
G1 X166.206 Y276.072 E.05697
G1 X167.601 Y277.467 E.14314
G1 X166.816 Y277.467 E.05697
G1 X165.421 Y276.072 E.14314
G1 X164.636 Y276.072 E.05697
G1 X166.031 Y277.467 E.14314
G1 X165.245 Y277.467 E.05697
G1 X163.85 Y276.072 E.14314
G1 X163.065 Y276.072 E.05697
G1 X164.46 Y277.467 E.14314
G1 X163.675 Y277.467 E.05697
G1 X162.28 Y276.072 E.14314
G1 X161.495 Y276.072 E.05697
G1 X162.89 Y277.467 E.14314
G1 X162.105 Y277.467 E.05697
G1 X160.71 Y276.072 E.14314
G1 X159.924 Y276.072 E.05697
G1 X161.319 Y277.467 E.14314
G1 X160.534 Y277.467 E.05697
G1 X159.139 Y276.072 E.14314
G1 X158.354 Y276.072 E.05697
G1 X159.749 Y277.467 E.14314
