; HEADER_BLOCK_START
; generated by OrcaSlicer 1.8.0-beta2 on 2023-12-01 at 11:21:50
; total layer number: 32
; HEADER_BLOCK_END

; THUMBNAIL_BLOCK_START
; THUMBNAIL_BLOCK_END

; external perimeters extrusion width = 0.60mm
; perimeters extrusion width = 0.65mm
; infill extrusion width = 0.65mm
; solid infill extrusion width = 0.65mm
; top infill extrusion width = 0.56mm
; first layer extrusion width = 0.62mm

; EXECUTABLE_BLOCK_START
EXCLUDE_OBJECT_DEFINE NAME=OrcaToleranceTest.stl_id_0_copy_0 CENTER=210,210 POLYGON=[[181.032,206.2],[184.032,203.2],[185.336,202.8],[234.083,202.8],[235.968,203.2],[238.968,206.2],[238.968,214.2],[235.968,217.2],[184.032,217.2],[181.032,214.2],[181.032,206.2]]
M73 P0 R23
;TYPE:Custom
; Start G-code with Adaptive Meshing for Elegoo Neptune 3 Max

G90 ; Set absolute positioning
M83 ; Set extruder to relative mode
M104 S120 ; Set temporary nozzle temp to prevent oozing during homing and auto bed leveling
M140 S60 ; Set final bed temp
G4 S10 ; Allow partial nozzle warmup
G28 ; Home all axes

; Run Adaptive Meshing (KAMP)
G29

; Load the mesh
M420 S1

SMART_PARK

; Set final nozzle temp
M104 S220

; Wait for bed temp to stabilize
M190 S60

; Wait for nozzle temp to stabilize
M109 S220

; Move to printing height
G1 Z0.28 F240

; Start Line Purge macro (assuming you have it defined)
LINE_PURGE
G90
G21
M83 ; use relative distances for extrusion
; filament start gcode
SET_PRESSURE_ADVANCE ADVANCE=0.06; Override pressure advance value
M106 S0
;LAYER_CHANGE
;Z:0.28
;HEIGHT:0.28
;BEFORE_LAYER_CHANGE
;0.28
G92 E0

G1 E-.8 F3000
;AFTER_LAYER_CHANGE
;0.28
;_SET_FAN_SPEED_CHANGING_LAYER
; printing object OrcaToleranceTest.stl id:0 copy 0
EXCLUDE_OBJECT_START NAME=OrcaToleranceTest.stl_id_0_copy_0
G1 X235.371 Y207.246 F12000
G1 Z.4
G1 Z.28
G1 E.8 F2400
;TYPE:Inner wall
;WIDTH:0.62
G1 F1200
G1 X235.173 Y207.21 E.0115
G1 X230.912 Y207.21 E.2425
G1 X230.418 Y207.3 E.02857
G1 X230.011 Y207.539 E.02685
G1 X229.7 Y207.91 E.02758
G1 X228.116 Y210.652 E.18022
G1 X226.591 Y208.01 E.17365
G1 X226.25 Y207.614 E.02974
G1 X225.853 Y207.393 E.02587
G1 X225.378 Y207.31 E.0274
G1 X221.233 Y207.31 E.23593
G1 X220.757 Y207.394 E.02751
G1 X220.359 Y207.617 E.02596
G1 X220.021 Y208.01 E.02953
G1 X218.495 Y210.652 E.17365
G1 X217.001 Y208.066 E.17002
G1 X216.658 Y207.693 E.02882
G1 X216.271 Y207.487 E.02496
G1 X215.815 Y207.41 E.02632
G1 X211.785 Y207.41 E.22936
G1 X211.326 Y207.487 E.02648
G1 X210.938 Y207.696 E.02509
G1 X210.573 Y208.11 E.03142
G1 X209.105 Y210.652 E.16708
G1 X207.668 Y208.165 E.16351
G1 X207.298 Y207.772 E.03068
G1 X206.921 Y207.581 E.02407
G1 X206.483 Y207.51 E.02528
G1 X202.568 Y207.51 E.22279
G1 X202.127 Y207.581 E.02542
G1 X201.749 Y207.775 E.02419
G1 X201.469 Y208.043 E.02205
G1 X201.356 Y208.21 E.01148
G1 X199.946 Y210.652 E.16051
G1 X198.493 Y208.148 E.16477
G1 X198.156 Y207.813 E.02705
G1 X197.783 Y207.628 E.02367
G1 X197.353 Y207.56 E.02482
G1 X193.496 Y207.56 E.2195
G1 X193.068 Y207.627 E.02467
G1 X192.697 Y207.811 E.02354
G1 X192.418 Y208.067 E.02156
G1 X192.284 Y208.26 E.0134
G1 X190.931 Y210.602 E.15393
G1 X189.524 Y208.183 E.1593
G1 X189.178 Y207.849 E.02739
G1 X188.813 Y207.674 E.02301
G1 X188.395 Y207.61 E.02405
G1 X184.596 Y207.61 E.21621
G1 X184.247 Y207.654 E.02003
G1 X183.898 Y207.797 E.02149
G1 X183.384 Y208.31 E.04132
G1 X182.722 Y209.458 E.07541
G1 X182.722 Y206.792 E.15169
G1 X184.624 Y204.89 E.15312
G1 X235.376 Y204.89 E2.88846
G1 X237.278 Y206.792 E.15312
G1 X237.278 Y209.458 E.15169
G1 X236.385 Y207.91 E.1017
G1 X236.123 Y207.582 E.02387
G1 X235.664 Y207.299 E.03073
G1 X235.43 Y207.257 E.01348
G1 X235.272 Y207.788 F12000
G1 F1200
G1 X235.173 Y207.77 E.00575
G1 X230.912 Y207.77 E.2425
G1 X230.615 Y207.824 E.01714
G1 X230.371 Y207.967 E.01611
G1 X230.184 Y208.19 E.01655
G1 X228.116 Y211.772 E.23542
G1 X226.106 Y208.29 E.22884
G1 X225.901 Y208.053 E.01784
G1 X225.663 Y207.92 E.01552
G1 X225.378 Y207.87 E.01644
G1 X221.233 Y207.87 E.23593
G1 X221.088 Y207.883 E.00829
G1 X220.709 Y208.054 E.02368
G1 X220.506 Y208.29 E.01772
G1 X218.495 Y211.772 E.22884
G1 X216.542 Y208.39 E.22227
G1 X216.321 Y208.14 E.01903
G1 X216.089 Y208.016 E.01497
G1 X215.815 Y207.97 E.01579
G1 X211.785 Y207.97 E.22936
G1 X211.64 Y207.983 E.00829
G1 X211.277 Y208.141 E.02256
G1 X211.058 Y208.39 E.01885
G1 X209.105 Y211.772 E.22227
G1 X207.21 Y208.49 E.2157
G1 X206.972 Y208.227 E.02017
G1 X206.746 Y208.112 E.01444
G1 X206.483 Y208.07 E.01517
G1 X202.568 Y208.07 E.22279
G1 X202.423 Y208.083 E.00829
G1 X202.077 Y208.229 E.02141
G1 X201.841 Y208.49 E.02002
G1 X199.946 Y211.772 E.2157
G1 X198.08 Y208.54 E.21241
G1 X197.834 Y208.272 E.02068
G1 X197.611 Y208.161 E.0142
G1 X197.353 Y208.12 E.01489
G1 X193.496 Y208.12 E.2195
G1 X193.351 Y208.133 E.00829
G1 X193.016 Y208.27 E.02057
G1 X192.768 Y208.54 E.02085
G1 X190.931 Y211.722 E.20913
G1 X189.123 Y208.59 E.20584
G1 X188.865 Y208.313 E.02153
G1 X188.646 Y208.208 E.0138
G1 X188.395 Y208.17 E.01443
G1 X185.187 Y208.17 E.18258
G1 X184.387 Y208.197 E.04558
G1 X184.177 Y208.282 E.01289
G1 X183.869 Y208.59 E.02479
G1 X182.162 Y211.547 E.19434
G1 X182.162 Y206.56 E.28382
G1 X184.392 Y204.33 E.17952
G1 X235.608 Y204.33 E2.91486
G1 X237.838 Y206.56 E.17952
M73 P1 R23
G1 X237.838 Y211.547 E.28382
G1 X235.9 Y208.19 E.22063
G1 X235.743 Y207.993 E.01432
G1 X235.467 Y207.823 E.01844
G1 X235.331 Y207.799 E.00787
;WIPE_START
G1 X235.173 Y207.77 E-.1288
G1 X234.334 Y207.77 E-.6712
;WIPE_END
G1 X226.781 Y208.871 Z.68 F12000
G1 X183.447 Y215.189 Z.68
G1 Z.28
G1 E.8 F2400
;WIDTH:0.529827
G1 F1200
G1 X182.117 Y213.858 E.08983
G1 X182.117 Y212.885 E.0465
G1 X183.417 Y215.137 E.12417
;WIPE_START
G1 X182.704 Y214.436 E-.8
;WIPE_END
G1 X190.203 Y213.016 Z.68 F12000
G1 X190.931 Y212.878 Z.68
G1 Z.28
G1 E.8 F2400
;WIDTH:0.62
G1 F1200
G1 X192.786 Y216.07 E.21013
G1 X189.037 Y216.07 E.21337
G1 X189.123 Y216.01 E.00597
G1 X190.901 Y212.93 E.20243
G1 X190.931 Y214.222 F12000
;WIDTH:0.84424
G1 F1200
G1 X191.61 Y215.398 E.10826
G1 X190.252 Y215.398 E.10826
G1 X190.901 Y214.274 E.10347
;WIPE_START
G1 X191.435 Y215.12 E-.8
;WIPE_END
G1 X198.805 Y213.135 Z.68 F12000
G1 X199.946 Y212.828 Z.68
G1 Z.28
G1 E.8 F2400
;WIDTH:0.62
G1 F1200
G1 X201.818 Y216.07 E.21308
G1 X198.065 Y216.07 E.21357
G1 X199.916 Y212.88 E.20991
G1 X199.946 Y214.188 F12000
;WIDTH:0.860907
G1 F1200
G1 X200.639 Y215.39 E.11291
G1 X199.252 Y215.39 E.11291
G1 X199.916 Y214.24 E.10802
;WIPE_START
G1 X200.449 Y215.087 E-.8
;WIPE_END
G1 X207.834 Y213.16 Z.68 F12000
G1 X209.105 Y212.828 Z.68
G1 Z.28
G1 E.8 F2400
;WIDTH:0.62
G1 F1200
G1 X210.977 Y216.07 E.21308
G1 X207.233 Y216.07 E.21308
G1 X209.075 Y212.88 E.20966
G1 X209.105 Y214.188 F12000
;WIDTH:0.860906
G1 F1200
G1 X209.799 Y215.39 E.11291
G1 X208.412 Y215.39 E.11291
G1 X209.075 Y214.24 E.10802
;WIPE_START
G1 X209.608 Y215.087 E-.8
;WIPE_END
G1 X217.005 Y213.207 Z.68 F12000
G1 X218.495 Y212.828 Z.68
G1 Z.28
G1 E.8 F2400
;WIDTH:0.62
G1 F1200
G1 X220.367 Y216.07 E.21308
G1 X216.623 Y216.07 E.21308
G1 X218.465 Y212.88 E.20966
G1 X218.495 Y214.189 F12000
;WIDTH:0.860906
G1 F1200
G1 X219.189 Y215.39 E.11291
G1 X217.802 Y215.39 E.11291
G1 X218.465 Y214.24 E.10802
;WIPE_START
G1 X218.998 Y215.087 E-.8
;WIPE_END
G1 X226.406 Y213.251 Z.68 F12000
G1 X228.116 Y212.828 Z.68
G1 Z.28
G1 E.8 F2400
;WIDTH:0.62
G1 F1200
G1 X229.988 Y216.07 E.21308
G1 X226.244 Y216.07 E.21308
G1 X228.086 Y212.88 E.20966
G1 X228.116 Y214.189 F12000
;WIDTH:0.860906
G1 F1200
G1 X228.81 Y215.39 E.11291
G1 X227.423 Y215.39 E.11291
G1 X228.086 Y214.24 E.10802
;WIPE_START
G1 X228.619 Y215.087 E-.8
;WIPE_END
G1 X235.253 Y216.447 Z.68 F12000
G1 Z.28
G1 E.8 F2400
;TYPE:Outer wall
;WIDTH:0.98697
G1 F1200
G1 X235.173 Y216.45 E.00755
;WIDTH:0.98
G1 X230.912 Y216.45 E.39842
;WIPE_START
G1 X231.912 Y216.45 E-.8
;WIPE_END
G1 X237.883 Y212.885 Z.68 F12000
G1 Z.28
G1 E.8 F2400
;TYPE:Inner wall
;WIDTH:0.529827
G1 F1200
G1 X237.883 Y213.858 E.0465
G1 X236.553 Y215.189 E.08983
G1 X237.853 Y212.936 E.12417
;WIPE_START
G1 X237.883 Y213.858 E-.73788
G1 X237.828 Y213.913 E-.06212
;WIPE_END
G1 X230.256 Y214.865 Z.68 F12000
G1 X220.991 Y216.03 Z.68
G1 Z.28
G1 E.8 F2400
;TYPE:Outer wall
;WIDTH:0.62
G1 F1200
G1 X219.916 Y214.169 E.1223
;WIDTH:0.669225
G1 X218.897 Y212.452 E.12363
;WIDTH:0.698469
G1 X218.862 Y212.362 E.00629
;WIDTH:0.727714
G1 X218.828 Y212.271 E.00658
G1 X218.862 Y212.209 E.00479
;WIDTH:0.698469
G1 X218.897 Y212.148 E.00458
;WIDTH:0.669225
G1 X220.933 Y208.67 E.24953
;WIDTH:0.62
G1 X221.058 Y208.491 E.01242
G1 X221.233 Y208.43 E.01054
G1 X225.378 Y208.43 E.23593
G1 X225.553 Y208.491 E.0105
G1 X225.621 Y208.57 E.00595
;WIDTH:0.669225
G1 X227.715 Y212.148 E.25668
;WIDTH:0.698469
G1 X227.749 Y212.238 E.00629
;WIDTH:0.727714
G1 X227.784 Y212.329 E.00658
G1 X227.749 Y212.391 E.00479
;WIDTH:0.698469
G1 X227.715 Y212.452 E.00458
;WIDTH:0.669225
G1 X226.695 Y214.169 E.12363
;WIDTH:0.62
G1 X225.618 Y216.029 E.1223
;WIDTH:0.614386
G1 X225.378 Y216.145 E.01503
;WIDTH:0.570045
G1 X221.233 Y216.145 E.21488
;WIDTH:0.62
G1 X221.045 Y216.056 E.01186
;WIPE_START
G1 X220.531 Y215.198 E-.8
;WIPE_END
G1 X216.124 Y208.966 Z.68 F12000
G1 X215.815 Y208.53 Z.68
G1 Z.28
G1 E.8 F2400
G1 F1200
G1 X215.984 Y208.586 E.01012
G1 X216.058 Y208.67 E.00634
;WIDTH:0.669225
G1 X218.094 Y212.148 E.24953
;WIDTH:0.698469
G1 X218.128 Y212.238 E.00629
;WIDTH:0.727714
G1 X218.163 Y212.329 E.00658
G1 X218.128 Y212.391 E.00479
;WIDTH:0.698469
G1 X218.094 Y212.452 E.00458
;WIDTH:0.669225
G1 X217.074 Y214.169 E.12363
;WIDTH:0.620152
G1 X216.058 Y215.93 E.11576
G1 X215.815 Y216.07 E.01594
;WIDTH:0.620045
G1 X211.785 Y216.07 E.22938
G1 X211.543 Y215.93 E.01594
G1 X210.526 Y214.169 E.11574
;WIDTH:0.669225
G1 X209.506 Y212.452 E.12363
;WIDTH:0.698469
G1 X209.472 Y212.362 E.00629
;WIDTH:0.727714
G1 X209.438 Y212.271 E.00658
G1 X209.472 Y212.209 E.00479
;WIDTH:0.698469
M73 P2 R23
G1 X209.506 Y212.148 E.00458
;WIDTH:0.669225
G1 X211.485 Y208.77 E.24238
;WIDTH:0.62
G1 X211.616 Y208.587 E.01279
G1 X211.785 Y208.53 E.01018
G1 X215.755 Y208.53 E.22594
;WIPE_START
G1 X215.984 Y208.586 E-.18841
G1 X216.058 Y208.67 E-.08915
G1 X216.388 Y209.234 E-.52244
;WIPE_END
G1 X208.769 Y208.769 Z.68 F12000
G1 X206.483 Y208.63 Z.68
G1 Z.28
G1 E.8 F2400
G1 F1200
G1 X206.646 Y208.682 E.00975
G1 X206.725 Y208.77 E.00672
;WIDTH:0.669225
G1 X208.704 Y212.148 E.24238
;WIDTH:0.698469
G1 X208.738 Y212.238 E.00629
;WIDTH:0.727714
G1 X208.773 Y212.329 E.00658
G1 X208.738 Y212.391 E.00479
;WIDTH:0.698469
G1 X208.704 Y212.452 E.00458
;WIDTH:0.669225
G1 X207.684 Y214.169 E.12363
;WIDTH:0.62
G1 X206.725 Y215.83 E.10916
;WIDTH:0.647333
G1 X206.631 Y215.911 E.00745
;WIDTH:0.674667
G1 X206.536 Y215.993 E.0078
G1 X206.483 Y215.995 E.00332
;WIDTH:0.670045
G1 X202.568 Y215.995 E.2427
G1 X202.447 Y215.913 E.00909
;WIDTH:0.645022
G1 X202.326 Y215.83 E.00872
;WIDTH:0.62
G1 X201.367 Y214.169 E.10916
;WIDTH:0.669223
G1 X200.347 Y212.452 E.12362
;WIDTH:0.698468
G1 X200.313 Y212.362 E.00629
;WIDTH:0.727713
G1 X200.279 Y212.271 E.00658
G1 X200.313 Y212.209 E.00479
;WIDTH:0.698468
G1 X200.347 Y212.148 E.00458
;WIDTH:0.669223
G1 X202.297 Y208.82 E.2388
;WIDTH:0.62
G1 X202.404 Y208.683 E.00991
G1 X202.568 Y208.63 E.0098
G1 X206.423 Y208.63 E.21937
;WIPE_START
G1 X206.646 Y208.682 E-.18335
G1 X206.725 Y208.77 E-.09453
G1 X207.055 Y209.333 E-.52213
;WIPE_END
G1 X199.434 Y208.92 Z.68 F12000
G1 X197.595 Y208.82 Z.68
G1 Z.28
G1 E.8 F2400
;WIDTH:0.669223
G1 F1200
G1 X199.545 Y212.148 E.2388
;WIDTH:0.698468
G1 X199.579 Y212.238 E.00629
;WIDTH:0.727713
G1 X199.613 Y212.329 E.00658
G1 X199.579 Y212.391 E.00479
;WIDTH:0.698468
G1 X199.545 Y212.452 E.00458
;WIDTH:0.669223
G1 X198.525 Y214.169 E.12362
;WIDTH:0.62
G1 X197.595 Y215.78 E.10587
;WIDTH:0.659927
G1 X197.501 Y215.868 E.00781
;WIDTH:0.699854
G1 X197.408 Y215.955 E.00833
G1 X197.353 Y215.958 E.0036
;WIDTH:0.695045
G1 X193.496 Y215.958 E.24892
G1 X193.375 Y215.869 E.0097
;WIDTH:0.657522
G1 X193.253 Y215.78 E.00912
;WIDTH:0.62
G1 X192.338 Y214.194 E.10423
;WIDTH:0.657838
G1 X191.309 Y212.449 E.12306
;WIDTH:0.698736
G1 X191.249 Y212.272 E.01213
G1 X191.309 Y212.151 E.00878
;WIDTH:0.657838
G1 X193.224 Y208.87 E.23083
;WIDTH:0.62
G1 X193.336 Y208.73 E.01018
G1 X193.496 Y208.68 E.00953
G1 X197.353 Y208.68 E.2195
G1 X197.513 Y208.731 E.00959
G1 X197.554 Y208.776 E.00348
;WIPE_START
G1 X198.063 Y209.637 E-.8
;WIPE_END
G1 X190.455 Y209.018 Z.68 F12000
G1 X188.638 Y208.87 Z.68
G1 Z.28
G1 E.8 F2400
;WIDTH:0.657838
G1 F1200
G1 X190.554 Y212.151 E.23083
;WIDTH:0.698736
G1 X190.613 Y212.328 E.01213
G1 X190.554 Y212.449 E.00878
;WIDTH:0.657838
G1 X189.525 Y214.194 E.12306
;WIDTH:0.62
G1 X188.638 Y215.73 E.10095
;WIDTH:0.655015
G1 X188.576 Y215.793 E.00531
;WIDTH:0.69003
G1 X188.515 Y215.855 E.00562
;WIDTH:0.725044
G1 X188.453 Y215.918 E.00593
G1 X188.395 Y215.92 E.00389
;WIDTH:0.720044
G1 X184.596 Y215.92 E.25485
;WIDTH:0.74716
G1 X184.463 Y215.906 E.00939
G1 X184.305 Y215.758 E.01511
;WIDTH:0.733433
G1 X183.87 Y214.968 E.06176
;WIDTH:0.695622
G1 X183.435 Y214.177 E.05829
;WIDTH:0.657811
G1 X183.001 Y213.386 E.05482
;WIDTH:0.658446
G1 X182.711 Y212.923 E.03325
;WIDTH:0.696892
G1 X182.421 Y212.459 E.03538
;WIDTH:0.722251
G1 X182.387 Y212.38 E.00583
;WIDTH:0.747609
G1 X182.353 Y212.3 E.00605
G1 X182.393 Y212.224 E.00601
;WIDTH:0.708079
G1 X182.433 Y212.148 E.00566
;WIDTH:0.668548
G1 X184.354 Y208.87 E.23497
;WIDTH:0.62
G1 X184.527 Y208.739 E.01234
G1 X185.187 Y208.73 E.03762
G1 X188.395 Y208.73 E.18258
G1 X188.552 Y208.778 E.00931
G1 X188.597 Y208.826 E.00376
;WIPE_START
G1 X189.104 Y209.688 E-.8
;WIPE_END
G1 X196.733 Y209.463 Z.68 F12000
G1 X235.173 Y208.33 Z.68
G1 Z.28
G1 E.8 F2400
G1 F1200
G1 X230.912 Y208.33 E.2425
G1 X230.732 Y208.396 E.01092
G1 X230.612 Y208.57 E.01204
;WIDTH:0.669225
G1 X228.518 Y212.148 E.25668
;WIDTH:0.698469
G1 X228.483 Y212.209 E.00458
;WIDTH:0.727714
G1 X228.449 Y212.271 E.00479
G1 X228.483 Y212.362 E.00658
;WIDTH:0.698469
G1 X228.518 Y212.452 E.00629
;WIDTH:0.669225
G1 X229.537 Y214.169 E.12363
;WIDTH:0.64832
G1 X230.657 Y216.137 E.1354
;WIDTH:0.695703
G1 X230.693 Y216.182 E.00372
;WIDTH:0.743086
G1 X230.73 Y216.227 E.004
;WIDTH:0.790469
G1 X230.766 Y216.271 E.00428
;WIDTH:0.837852
G1 X230.803 Y216.316 E.00456
;WIDTH:0.885235
G1 X230.839 Y216.361 E.00483
;WIDTH:0.932618
G1 X230.875 Y216.405 E.00511
;WIDTH:0.98
G1 X230.912 Y216.45 E.00539
G1 X230.836 Y216.474 E.00743
;WIDTH:0.932618
G1 X230.76 Y216.497 E.00705
;WIDTH:0.885235
G1 X230.684 Y216.521 E.00667
;WIDTH:0.837852
G1 X230.608 Y216.545 E.00628
;WIDTH:0.790469
G1 X230.532 Y216.568 E.0059
;WIDTH:0.743086
G1 X230.457 Y216.592 E.00552
;WIDTH:0.695703
G1 X230.381 Y216.616 E.00514
;WIDTH:0.64832
G1 X228.116 Y216.63 E.1354
;WIDTH:0.62
G1 X225.967 Y216.633 E.1223
;WIDTH:0.614386
G1 X225.378 Y216.655 E.0332
;WIDTH:0.570045
G1 X221.233 Y216.655 E.21488
;WIDTH:0.62
G1 X220.644 Y216.63 E.03354
G1 X218.495 Y216.63 E.1223
;WIDTH:0.620152
G1 X215.815 Y216.63 E.15257
;WIDTH:0.62
G1 X207.187 Y216.63 E.49105
;WIDTH:0.645022
G1 X206.835 Y216.617 E.02095
;WIDTH:0.670045
G1 X206.483 Y216.605 E.02185
G1 X202.216 Y216.617 E.26453
;WIDTH:0.645022
G1 X201.864 Y216.63 E.02095
;WIDTH:0.62
G1 X198.086 Y216.63 E.21504
;WIDTH:0.657522
G1 X197.719 Y216.611 E.02229
;WIDTH:0.695045
G1 X197.353 Y216.592 E.02369
G1 X193.496 Y216.592 E.24892
G1 X193.129 Y216.611 E.02369
;WIDTH:0.657522
G1 X192.763 Y216.63 E.02229
;WIDTH:0.62
G1 X189.157 Y216.63 E.20518
;WIDTH:0.653348
G1 X188.903 Y216.613 E.01535
;WIDTH:0.686696
G1 X188.649 Y216.597 E.01621
;WIDTH:0.720044
G1 X188.395 Y216.58 E.01708
G1 X184.596 Y216.58 E.25485
;WIDTH:0.74716
G1 X184.187 Y216.566 E.02864
G1 X183.775 Y216.165 E.04015
;WIDTH:0.733433
G1 X183.124 Y215.54 E.06176
;WIDTH:0.695622
G1 X182.473 Y214.916 E.05829
;WIDTH:0.657811
G1 X181.821 Y214.291 E.05482
;WIDTH:0.62
G1 X181.602 Y214.072 E.01767
G1 X181.602 Y213.761 E.01767
;WIDTH:0.658446
G1 X181.621 Y213.215 E.03325
;WIDTH:0.696892
G1 X181.64 Y212.668 E.03538
;WIDTH:0.724856
G1 X181.654 Y212.544 E.00846
;WIDTH:0.752819
G1 X181.668 Y212.42 E.00881
G1 X181.647 Y212.176 E.01725
;WIDTH:0.710683
G1 X181.626 Y211.932 E.0162
