; HEADER_BLOCK_START
; generated by OrcaSlicer 1.8.0-beta2 on 2023-11-30 at 17:00:29
; total layer number: 0
; HEADER_BLOCK_END

; THUMBNAIL_BLOCK_START
; THUMBNAIL_BLOCK_END

; external perimeters extrusion width = 0.60mm
; perimeters extrusion width = 0.65mm
; infill extrusion width = 0.65mm
; solid infill extrusion width = 0.65mm
; top infill extrusion width = 0.56mm
; first layer extrusion width = 0.62mm

; EXECUTABLE_BLOCK_START
EXCLUDE_OBJECT_DEFINE NAME=Orca-PA-Calibration-Test CENTER=0,0 POLYGON=[[5,5],[415,5],[415,415],[5,415],[5,5]]
M73 P0 R8
;TYPE:Custom
G90 ; use absolute coordinates
M83 ; extruder relative mode
M104 S120 ; set temporary nozzle temp to prevent oozing during homing and auto bed leveling
M140 S60 ; set final bed temp
G4 S10 ; allow partial nozzle warmup
G28 ; home all axis
;G29 ; run abl mesh
M420 S1 ; load mesh
G1 Z50 F240
G1 X2 Y10 F3000
M104 S220 ; set final nozzle temp
M190 S60 ; wait for bed temp to stabilize
M109 S220 ; wait for nozzle temp to stabilize
M73 P2 R8
G1 Z0.28 F240
G92 E0
G1 Y140 E10 F1500 ; prime the nozzle
M73 P4 R8
G1 X2.3 F5000
G92 E0
M73 P5 R8
G1 Y10 E10 F1200 ; prime the nozzle
G92 E0
LINE_PURGE
G90
G21
M83 ; use relative distances for extrusion
; filament start gcode
SET_VELOCITY_LIMIT ACCEL=500 ACCEL_TO_DECEL=250
G1 Z.2 F12000
M73 P6 R8
G1 E-2 F3600
G1 X160 Y297.5 F12000
G1 E2 F2700
M73 P7 R8
G1 F1200
G1 X160 Y122.5 E9.72749
SET_PRESSURE_ADVANCE ADVANCE=0; Override pressure advance value
G1 E-2 F3600
M73 P9 R8
G1 X160 Y122.5 F12000
G1 E2 F2700
G1 F1200
G1 X180 Y122.5 E.92643
G1 F6000
G1 X220 Y122.5 E1.85285
G1 F1200
G1 X240 Y122.5 E.92643
SET_PRESSURE_ADVANCE ADVANCE=0.002; Override pressure advance value
G1 E-2 F3600
G1 X160 Y126 F12000
G1 E2 F2700
M73 P9 R7
G1 F1200
G1 X180 Y126 E.92643
G1 F6000
G1 X220 Y126 E1.85285
G1 F1200
M73 P10 R7
G1 X240 Y126 E.92643
SET_PRESSURE_ADVANCE ADVANCE=0.004; Override pressure advance value
G1 E-2 F3600
G1 X160 Y129.5 F12000
G1 E2 F2700
G1 F1200
G1 X180 Y129.5 E.92643
G1 F6000
G1 X220 Y129.5 E1.85285
G1 F1200
G1 X240 Y129.5 E.92643
SET_PRESSURE_ADVANCE ADVANCE=0.006; Override pressure advance value
G1 E-2 F3600
G1 X160 Y133 F12000
G1 E2 F2700
M73 P11 R7
G1 F1200
G1 X180 Y133 E.92643
G1 F6000
G1 X220 Y133 E1.85285
G1 F1200
G1 X240 Y133 E.92643
SET_PRESSURE_ADVANCE ADVANCE=0.008; Override pressure advance value
G1 E-2 F3600
G1 X160 Y136.5 F12000
G1 E2 F2700
G1 F1200
G1 X180 Y136.5 E.92643
G1 F6000
G1 X220 Y136.5 E1.85285
G1 F1200
M73 P12 R7
G1 X240 Y136.5 E.92643
SET_PRESSURE_ADVANCE ADVANCE=0.01; Override pressure advance value
G1 E-2 F3600
G1 X160 Y140 F12000
G1 E2 F2700
G1 F1200
G1 X180 Y140 E.92643
G1 F6000
G1 X220 Y140 E1.85285
G1 F1200
G1 X240 Y140 E.92643
SET_PRESSURE_ADVANCE ADVANCE=0.012; Override pressure advance value
G1 E-2 F3600
G1 X160 Y143.5 F12000
G1 E2 F2700
M73 P13 R7
G1 F1200
G1 X180 Y143.5 E.92643
G1 F6000
G1 X220 Y143.5 E1.85285
G1 F1200
G1 X240 Y143.5 E.92643
SET_PRESSURE_ADVANCE ADVANCE=0.014; Override pressure advance value
G1 E-2 F3600
G1 X160 Y147 F12000
G1 E2 F2700
G1 F1200
G1 X180 Y147 E.92643
G1 F6000
G1 X220 Y147 E1.85285
G1 F1200
M73 P14 R7
G1 X240 Y147 E.92643
SET_PRESSURE_ADVANCE ADVANCE=0.016; Override pressure advance value
G1 E-2 F3600
G1 X160 Y150.5 F12000
G1 E2 F2700
G1 F1200
G1 X180 Y150.5 E.92643
G1 F6000
G1 X220 Y150.5 E1.85285
G1 F1200
G1 X240 Y150.5 E.92643
SET_PRESSURE_ADVANCE ADVANCE=0.018; Override pressure advance value
G1 E-2 F3600
G1 X160 Y154 F12000
G1 E2 F2700
M73 P15 R7
G1 F1200
G1 X180 Y154 E.92643
G1 F6000
G1 X220 Y154 E1.85285
G1 F1200
G1 X240 Y154 E.92643
SET_PRESSURE_ADVANCE ADVANCE=0.02; Override pressure advance value
G1 E-2 F3600
G1 X160 Y157.5 F12000
G1 E2 F2700
G1 F1200
G1 X180 Y157.5 E.92643
G1 F6000
G1 X220 Y157.5 E1.85285
G1 F1200
M73 P16 R7
G1 X240 Y157.5 E.92643
SET_PRESSURE_ADVANCE ADVANCE=0.022; Override pressure advance value
G1 E-2 F3600
G1 X160 Y161 F12000
G1 E2 F2700
G1 F1200
G1 X180 Y161 E.92643
G1 F6000
G1 X220 Y161 E1.85285
G1 F1200
G1 X240 Y161 E.92643
SET_PRESSURE_ADVANCE ADVANCE=0.024; Override pressure advance value
G1 E-2 F3600
G1 X160 Y164.5 F12000
G1 E2 F2700
M73 P17 R7
G1 F1200
G1 X180 Y164.5 E.92643
G1 F6000
G1 X220 Y164.5 E1.85285
G1 F1200
G1 X240 Y164.5 E.92643
SET_PRESSURE_ADVANCE ADVANCE=0.026; Override pressure advance value
G1 E-2 F3600
G1 X160 Y168 F12000
G1 E2 F2700
G1 F1200
G1 X180 Y168 E.92643
G1 F6000
G1 X220 Y168 E1.85285
G1 F1200
M73 P18 R7
G1 X240 Y168 E.92643
SET_PRESSURE_ADVANCE ADVANCE=0.028; Override pressure advance value
G1 E-2 F3600
G1 X160 Y171.5 F12000
G1 E2 F2700
G1 F1200
G1 X180 Y171.5 E.92643
G1 F6000
G1 X220 Y171.5 E1.85285
G1 F1200
G1 X240 Y171.5 E.92643
SET_PRESSURE_ADVANCE ADVANCE=0.03; Override pressure advance value
G1 E-2 F3600
G1 X160 Y175 F12000
G1 E2 F2700
M73 P19 R7
G1 F1200
G1 X180 Y175 E.92643
G1 F6000
G1 X220 Y175 E1.85285
G1 F1200
G1 X240 Y175 E.92643
SET_PRESSURE_ADVANCE ADVANCE=0.032; Override pressure advance value
G1 E-2 F3600
G1 X160 Y178.5 F12000
G1 E2 F2700
G1 F1200
G1 X180 Y178.5 E.92643
G1 F6000
G1 X220 Y178.5 E1.85285
G1 F1200
M73 P20 R7
G1 X240 Y178.5 E.92643
SET_PRESSURE_ADVANCE ADVANCE=0.034; Override pressure advance value
G1 E-2 F3600
G1 X160 Y182 F12000
G1 E2 F2700
G1 F1200
G1 X180 Y182 E.92643
G1 F6000
G1 X220 Y182 E1.85285
G1 F1200
G1 X240 Y182 E.92643
SET_PRESSURE_ADVANCE ADVANCE=0.036; Override pressure advance value
G1 E-2 F3600
G1 X160 Y185.5 F12000
G1 E2 F2700
M73 P21 R6
G1 F1200
G1 X180 Y185.5 E.92643
G1 F6000
G1 X220 Y185.5 E1.85285
G1 F1200
G1 X240 Y185.5 E.92643
SET_PRESSURE_ADVANCE ADVANCE=0.038; Override pressure advance value
G1 E-2 F3600
G1 X160 Y189 F12000
G1 E2 F2700
G1 F1200
G1 X180 Y189 E.92643
G1 F6000
G1 X220 Y189 E1.85285
G1 F1200
M73 P22 R6
G1 X240 Y189 E.92643
SET_PRESSURE_ADVANCE ADVANCE=0.04; Override pressure advance value
G1 E-2 F3600
G1 X160 Y192.5 F12000
G1 E2 F2700
G1 F1200
G1 X180 Y192.5 E.92643
G1 F6000
G1 X220 Y192.5 E1.85285
G1 F1200
G1 X240 Y192.5 E.92643
SET_PRESSURE_ADVANCE ADVANCE=0.042; Override pressure advance value
G1 E-2 F3600
G1 X160 Y196 F12000
G1 E2 F2700
M73 P23 R6
G1 F1200
G1 X180 Y196 E.92643
G1 F6000
G1 X220 Y196 E1.85285
G1 F1200
G1 X240 Y196 E.92643
SET_PRESSURE_ADVANCE ADVANCE=0.044; Override pressure advance value
G1 E-2 F3600
G1 X160 Y199.5 F12000
G1 E2 F2700
G1 F1200
G1 X180 Y199.5 E.92643
G1 F6000
G1 X220 Y199.5 E1.85285
G1 F1200
M73 P24 R6
G1 X240 Y199.5 E.92643
SET_PRESSURE_ADVANCE ADVANCE=0.046; Override pressure advance value
G1 E-2 F3600
G1 X160 Y203 F12000
G1 E2 F2700
G1 F1200
G1 X180 Y203 E.92643
G1 F6000
G1 X220 Y203 E1.85285
G1 F1200
G1 X240 Y203 E.92643
SET_PRESSURE_ADVANCE ADVANCE=0.048; Override pressure advance value
G1 E-2 F3600
G1 X160 Y206.5 F12000
G1 E2 F2700
M73 P25 R6
G1 F1200
G1 X180 Y206.5 E.92643
G1 F6000
G1 X220 Y206.5 E1.85285
G1 F1200
G1 X240 Y206.5 E.92643
SET_PRESSURE_ADVANCE ADVANCE=0.05; Override pressure advance value
G1 E-2 F3600
G1 X160 Y210 F12000
G1 E2 F2700
G1 F1200
G1 X180 Y210 E.92643
G1 F6000
G1 X220 Y210 E1.85285
G1 F1200
M73 P26 R6
G1 X240 Y210 E.92643
SET_PRESSURE_ADVANCE ADVANCE=0.052; Override pressure advance value
G1 E-2 F3600
G1 X160 Y213.5 F12000
G1 E2 F2700
G1 F1200
G1 X180 Y213.5 E.92643
G1 F6000
G1 X220 Y213.5 E1.85285
G1 F1200
G1 X240 Y213.5 E.92643
SET_PRESSURE_ADVANCE ADVANCE=0.054; Override pressure advance value
G1 E-2 F3600
G1 X160 Y217 F12000
G1 E2 F2700
M73 P27 R6
G1 F1200
G1 X180 Y217 E.92643
G1 F6000
G1 X220 Y217 E1.85285
G1 F1200
G1 X240 Y217 E.92643
SET_PRESSURE_ADVANCE ADVANCE=0.056; Override pressure advance value
G1 E-2 F3600
G1 X160 Y220.5 F12000
G1 E2 F2700
G1 F1200
G1 X180 Y220.5 E.92643
G1 F6000
G1 X220 Y220.5 E1.85285
G1 F1200
M73 P28 R6
G1 X240 Y220.5 E.92643
SET_PRESSURE_ADVANCE ADVANCE=0.058; Override pressure advance value
G1 E-2 F3600
G1 X160 Y224 F12000
G1 E2 F2700
G1 F1200
G1 X180 Y224 E.92643
G1 F6000
G1 X220 Y224 E1.85285
G1 F1200
G1 X240 Y224 E.92643
SET_PRESSURE_ADVANCE ADVANCE=0.06; Override pressure advance value
G1 E-2 F3600
G1 X160 Y227.5 F12000
G1 E2 F2700
M73 P29 R6
G1 F1200
G1 X180 Y227.5 E.92643
G1 F6000
G1 X220 Y227.5 E1.85285
G1 F1200
G1 X240 Y227.5 E.92643
SET_PRESSURE_ADVANCE ADVANCE=0.062; Override pressure advance value
G1 E-2 F3600
G1 X160 Y231 F12000
G1 E2 F2700
G1 F1200
G1 X180 Y231 E.92643
G1 F6000
G1 X220 Y231 E1.85285
G1 F1200
M73 P30 R6
G1 X240 Y231 E.92643
SET_PRESSURE_ADVANCE ADVANCE=0.064; Override pressure advance value
G1 E-2 F3600
G1 X160 Y234.5 F12000
G1 E2 F2700
G1 F1200
G1 X180 Y234.5 E.92643
G1 F6000
G1 X220 Y234.5 E1.85285
G1 F1200
G1 X240 Y234.5 E.92643
SET_PRESSURE_ADVANCE ADVANCE=0.066; Override pressure advance value
G1 E-2 F3600
G1 X160 Y238 F12000
G1 E2 F2700
M73 P31 R6
G1 F1200
G1 X180 Y238 E.92643
G1 F6000
G1 X220 Y238 E1.85285
G1 F1200
G1 X240 Y238 E.92643
SET_PRESSURE_ADVANCE ADVANCE=0.068; Override pressure advance value
G1 E-2 F3600
G1 X160 Y241.5 F12000
G1 E2 F2700
G1 F1200
G1 X180 Y241.5 E.92643
G1 F6000
G1 X220 Y241.5 E1.85285
G1 F1200
M73 P32 R6
G1 X240 Y241.5 E.92643
SET_PRESSURE_ADVANCE ADVANCE=0.07; Override pressure advance value
G1 E-2 F3600
G1 X160 Y245 F12000
G1 E2 F2700
M73 P32 R5
G1 F1200
G1 X180 Y245 E.92643
G1 F6000
G1 X220 Y245 E1.85285
G1 F1200
G1 X240 Y245 E.92643
SET_PRESSURE_ADVANCE ADVANCE=0.072; Override pressure advance value
G1 E-2 F3600
G1 X160 Y248.5 F12000
G1 E2 F2700
M73 P33 R5
G1 F1200
G1 X180 Y248.5 E.92643
G1 F6000
G1 X220 Y248.5 E1.85285
G1 F1200
G1 X240 Y248.5 E.92643
SET_PRESSURE_ADVANCE ADVANCE=0.074; Override pressure advance value
G1 E-2 F3600
G1 X160 Y252 F12000
G1 E2 F2700
G1 F1200
G1 X180 Y252 E.92643
G1 F6000
G1 X220 Y252 E1.85285
G1 F1200
M73 P34 R5
G1 X240 Y252 E.92643
SET_PRESSURE_ADVANCE ADVANCE=0.076; Override pressure advance value
G1 E-2 F3600
G1 X160 Y255.5 F12000
G1 E2 F2700
G1 F1200
G1 X180 Y255.5 E.92643
G1 F6000
G1 X220 Y255.5 E1.85285
G1 F1200
G1 X240 Y255.5 E.92643
SET_PRESSURE_ADVANCE ADVANCE=0.078; Override pressure advance value
G1 E-2 F3600
G1 X160 Y259 F12000
G1 E2 F2700
M73 P35 R5
G1 F1200
G1 X180 Y259 E.92643
G1 F6000
G1 X220 Y259 E1.85285
G1 F1200
G1 X240 Y259 E.92643
SET_PRESSURE_ADVANCE ADVANCE=0.08; Override pressure advance value
G1 E-2 F3600
G1 X160 Y262.5 F12000
G1 E2 F2700
G1 F1200
G1 X180 Y262.5 E.92643
G1 F6000
G1 X220 Y262.5 E1.85285
G1 F1200
M73 P36 R5
G1 X240 Y262.5 E.92643
SET_PRESSURE_ADVANCE ADVANCE=0.082; Override pressure advance value
G1 E-2 F3600
G1 X160 Y266 F12000
G1 E2 F2700
G1 F1200
G1 X180 Y266 E.92643
G1 F6000
G1 X220 Y266 E1.85285
G1 F1200
G1 X240 Y266 E.92643
SET_PRESSURE_ADVANCE ADVANCE=0.084; Override pressure advance value
G1 E-2 F3600
G1 X160 Y269.5 F12000
G1 E2 F2700
M73 P37 R5
G1 F1200
G1 X180 Y269.5 E.92643
G1 F6000
G1 X220 Y269.5 E1.85285
G1 F1200
G1 X240 Y269.5 E.92643
SET_PRESSURE_ADVANCE ADVANCE=0.086; Override pressure advance value
G1 E-2 F3600
G1 X160 Y273 F12000
G1 E2 F2700
G1 F1200
G1 X180 Y273 E.92643
G1 F6000
G1 X220 Y273 E1.85285
G1 F1200
M73 P38 R5
G1 X240 Y273 E.92643
SET_PRESSURE_ADVANCE ADVANCE=0.088; Override pressure advance value
G1 E-2 F3600
G1 X160 Y276.5 F12000
G1 E2 F2700
G1 F1200
G1 X180 Y276.5 E.92643
G1 F6000
G1 X220 Y276.5 E1.85285
G1 F1200
G1 X240 Y276.5 E.92643
SET_PRESSURE_ADVANCE ADVANCE=0.09; Override pressure advance value
G1 E-2 F3600
G1 X160 Y280 F12000
G1 E2 F2700
M73 P39 R5
G1 F1200
G1 X180 Y280 E.92643
G1 F6000
G1 X220 Y280 E1.85285
G1 F1200
G1 X240 Y280 E.92643
SET_PRESSURE_ADVANCE ADVANCE=0.092; Override pressure advance value
G1 E-2 F3600
G1 X160 Y283.5 F12000
G1 E2 F2700
G1 F1200
G1 X180 Y283.5 E.92643
G1 F6000
G1 X220 Y283.5 E1.85285
G1 F1200
M73 P40 R5
G1 X240 Y283.5 E.92643
SET_PRESSURE_ADVANCE ADVANCE=0.094; Override pressure advance value
G1 E-2 F3600
G1 X160 Y287 F12000
G1 E2 F2700
G1 F1200
G1 X180 Y287 E.92643
G1 F6000
G1 X220 Y287 E1.85285
G1 F1200
G1 X240 Y287 E.92643
SET_PRESSURE_ADVANCE ADVANCE=0.096; Override pressure advance value
G1 E-2 F3600
G1 X160 Y290.5 F12000
G1 E2 F2700
M73 P41 R5
G1 F1200
G1 X180 Y290.5 E.92643
G1 F6000
G1 X220 Y290.5 E1.85285
G1 F1200
G1 X240 Y290.5 E.92643
SET_PRESSURE_ADVANCE ADVANCE=0.098; Override pressure advance value
G1 E-2 F3600
G1 X160 Y294 F12000
G1 E2 F2700
G1 F1200
G1 X180 Y294 E.92643
G1 F6000
G1 X220 Y294 E1.85285
G1 F1200
M73 P42 R5
G1 X240 Y294 E.92643
SET_PRESSURE_ADVANCE ADVANCE=0; Override pressure advance value
G1 E-2 F3600
G1 X240 Y119 F12000
G1 E2 F2700
G1 F6000
G1 X240 Y294 E7.0782
G1 F6000
G1 X264 Y294 E.97073
G1 F6000
G1 X264 Y119 E7.0782
G1 F6000
M73 P43 R5
G1 X240 Y119 E.97073
G1 E-2 F3600
G1 X240.557 Y119.557 F12000
G1 E2 F2700
G1 F6000
G1 X240.557 Y293.443 E7.03314
G1 F6000
M73 P43 R4
G1 X263.443 Y293.443 E.92566
G1 F6000
G1 X263.443 Y119.557 E7.03314
G1 F6000
M73 P44 R4
G1 X240.557 Y119.557 E.92566
G1 E-2 F3600
G1 X240.957 Y119.957 F12000
G1 E2 F2700
G1 E-2 F3600
G1 X241.745 Y119.957 F12000
G1 E2 F2700
G1 F6000
G1 X240.957 Y120.745 E.04506
G1 E-2 F3600
G1 X240.957 Y121.533 F12000
G1 E2 F2700
G1 F6000
G1 X242.533 Y119.957 E.09013
G1 E-2 F3600
G1 X243.321 Y119.957 F12000
G1 E2 F2700
G1 F6000
G1 X240.957 Y122.321 E.13519
G1 E-2 F3600
G1 X240.957 Y123.108 F12000
G1 E2 F2700
G1 F6000
G1 X244.108 Y119.957 E.18026
G1 E-2 F3600
G1 X244.896 Y119.957 F12000
G1 E2 F2700
G1 F6000
G1 X240.957 Y123.896 E.22532
G1 E-2 F3600
G1 X240.957 Y124.684 F12000
G1 E2 F2700
G1 F6000
G1 X245.684 Y119.957 E.27039
G1 E-2 F3600
G1 X246.472 Y119.957 F12000
G1 E2 F2700
G1 F6000
G1 X240.957 Y125.472 E.31545
G1 E-2 F3600
G1 X240.957 Y126.26 F12000
G1 E2 F2700
G1 F6000
G1 X247.26 Y119.957 E.36051
G1 E-2 F3600
G1 X248.048 Y119.957 F12000
G1 E2 F2700
M73 P45 R4
G1 F6000
G1 X240.957 Y127.048 E.40558
G1 E-2 F3600
G1 X240.957 Y127.835 F12000
G1 E2 F2700
G1 F6000
G1 X248.835 Y119.957 E.45064
G1 E-2 F3600
G1 X249.623 Y119.957 F12000
G1 E2 F2700
G1 F6000
G1 X240.957 Y128.623 E.49571
G1 E-2 F3600
G1 X240.957 Y129.411 F12000
G1 E2 F2700
G1 F6000
G1 X250.411 Y119.957 E.54077
G1 E-2 F3600
G1 X251.199 Y119.957 F12000
G1 E2 F2700
G1 F6000
G1 X240.957 Y130.199 E.58584
G1 E-2 F3600
G1 X240.957 Y130.987 F12000
G1 E2 F2700
G1 F6000
G1 X251.987 Y119.957 E.6309
G1 E-2 F3600
G1 X252.775 Y119.957 F12000
G1 E2 F2700
G1 F6000
G1 X240.957 Y131.775 E.67596
G1 E-2 F3600
G1 X240.957 Y132.562 F12000
G1 E2 F2700
G1 F6000
G1 X253.562 Y119.957 E.72103
G1 E-2 F3600
G1 X254.35 Y119.957 F12000
G1 E2 F2700
G1 F6000
G1 X240.957 Y133.35 E.76609
G1 E-2 F3600
G1 X240.957 Y134.138 F12000
G1 E2 F2700
G1 F6000
G1 X255.138 Y119.957 E.81116
G1 E-2 F3600
M73 P46 R4
G1 X255.926 Y119.957 F12000
G1 E2 F2700
G1 F6000
G1 X240.957 Y134.926 E.85622
G1 E-2 F3600
G1 X240.957 Y135.714 F12000
G1 E2 F2700
G1 F6000
G1 X256.714 Y119.957 E.90129
G1 E-2 F3600
G1 X257.502 Y119.957 F12000
G1 E2 F2700
G1 F6000
G1 X240.957 Y136.502 E.94635
G1 E-2 F3600
G1 X240.957 Y137.289 F12000
G1 E2 F2700
G1 F6000
G1 X258.289 Y119.957 E.99141
G1 E-2 F3600
G1 X259.077 Y119.957 F12000
G1 E2 F2700
G1 F6000
G1 X240.957 Y138.077 E1.03648
G1 E-2 F3600
G1 X240.957 Y138.865 F12000
G1 E2 F2700
G1 F6000
G1 X259.865 Y119.957 E1.08154
G1 E-2 F3600
G1 X260.653 Y119.957 F12000
G1 E2 F2700
G1 F6000
G1 X240.957 Y139.653 E1.12661
G1 E-2 F3600
G1 X240.957 Y140.441 F12000
G1 E2 F2700
G1 F6000
G1 X261.441 Y119.957 E1.17167
G1 E-2 F3600
M73 P47 R4
G1 X262.228 Y119.957 F12000
G1 E2 F2700
G1 F6000
G1 X240.957 Y141.228 E1.21674
G1 E-2 F3600
G1 X240.957 Y142.016 F12000
G1 E2 F2700
G1 F6000
G1 X263.016 Y119.957 E1.2618
G1 E-2 F3600
G1 X263.043 Y120.718 F12000
G1 E2 F2700
G1 F6000
G1 X240.957 Y142.804 E1.26332
G1 E-2 F3600
G1 X240.957 Y143.592 F12000
G1 E2 F2700
G1 F6000
G1 X263.043 Y121.506 E1.26332
G1 E-2 F3600
G1 X263.043 Y122.294 F12000
G1 E2 F2700
G1 F6000
G1 X240.957 Y144.38 E1.26332
G1 E-2 F3600
G1 X240.957 Y145.168 F12000
G1 E2 F2700
G1 F6000
G1 X263.043 Y123.082 E1.26332
G1 E-2 F3600
G1 X263.043 Y123.87 F12000
G1 E2 F2700
G1 F6000
G1 X240.957 Y145.955 E1.26332
G1 E-2 F3600
G1 X240.957 Y146.743 F12000
M73 P48 R4
G1 E2 F2700
G1 F6000
G1 X263.043 Y124.657 E1.26332
G1 E-2 F3600
G1 X263.043 Y125.445 F12000
G1 E2 F2700
G1 F6000
G1 X240.957 Y147.531 E1.26332
G1 E-2 F3600
G1 X240.957 Y148.319 F12000
G1 E2 F2700
G1 F6000
