; HEADER_BLOCK_START
; generated by OrcaSlicer 1.8.0-beta2 on 2023-12-01 at 10:20:23
; total layer number: 127
; HEADER_BLOCK_END

; THUMBNAIL_BLOCK_START
; THUMBNAIL_BLOCK_END

; external perimeters extrusion width = 0.60mm
; perimeters extrusion width = 0.65mm
; infill extrusion width = 0.65mm
; solid infill extrusion width = 0.65mm
; top infill extrusion width = 0.56mm
; first layer extrusion width = 0.62mm

; EXECUTABLE_BLOCK_START
EXCLUDE_OBJECT_DEFINE NAME=Retraction_tower.stl_id_0_copy_0 CENTER=210,210 POLYGON=[[189.75,207.75],[189.763,207.473],[189.801,207.199],[189.865,206.929],[189.953,206.666],[190.065,206.413],[190.199,206.171],[190.356,205.942],[190.533,205.729],[190.729,205.533],[190.942,205.356],[191.171,205.199],[191.413,205.065],[191.666,204.953],[191.929,204.865],[192.199,204.801],[192.473,204.763],[192.75,204.75],[227.25,204.75],[227.527,204.763],[227.801,204.801],[228.071,204.865],[228.334,204.953],[228.587,205.065],[228.829,205.199],[229.058,205.356],[229.271,205.533],[229.467,205.729],[229.644,205.942],[229.801,206.171],[229.935,206.413],[230.047,206.666],[230.135,206.929],[230.199,207.199],[230.237,207.473],[230.25,207.75],[230.25,212.25],[230.237,212.527],[230.199,212.801],[230.135,213.071],[230.047,213.334],[229.935,213.587],[229.801,213.829],[229.644,214.058],[229.467,214.271],[229.271,214.467],[229.058,214.644],[228.829,214.801],[228.587,214.935],[228.334,215.047],[228.071,215.135],[227.801,215.199],[227.527,215.237],[227.25,215.25],[192.75,215.25],[192.473,215.237],[192.199,215.199],[191.929,215.135],[191.666,215.047],[191.413,214.935],[191.171,214.801],[190.942,214.644],[190.729,214.467],[190.533,214.271],[190.356,214.058],[190.199,213.829],[190.065,213.587],[189.953,213.334],[189.865,213.071],[189.801,212.801],[189.763,212.527],[189.75,212.25],[189.75,207.75]]
M73 P0 R15
;TYPE:Custom
; Start G-code with Adaptive Meshing for Elegoo Neptune 3 Max

G90 ; Set absolute positioning
M83 ; Set extruder to relative mode
M104 S120 ; Set temporary nozzle temp to prevent oozing during homing and auto bed leveling
M140 S60 ; Set final bed temp
G4 S10 ; Allow partial nozzle warmup
G28 ; Home all axes

; Run Adaptive Meshing (KAMP)
G29

; Load the mesh
M420 S1

SMART_PARK

; Set final nozzle temp
M104 S220

; Wait for bed temp to stabilize
M190 S60

; Wait for nozzle temp to stabilize
M109 S220

; Move to printing height
G1 Z0.28 F240

; Prime the nozzle
G92 E0
G1 Y140 E10 F1500 ; Forward
G1 X2.3 F5000
G92 E0
G1 Y10 E10 F1200 ; Backward
G92 E0

; Start Line Purge macro (assuming you have it defined)
LINE_PURGE
G90
G21
M83 ; use relative distances for extrusion
; filament start gcode
SET_PRESSURE_ADVANCE ADVANCE=0.06; Override pressure advance value
M106 S0
;LAYER_CHANGE
;Z:0.28
;HEIGHT:0.28
;BEFORE_LAYER_CHANGE
;0.28
G92 E0

G1 E-.2 F3000
;AFTER_LAYER_CHANGE
;0.28
;_SET_FAN_SPEED_CHANGING_LAYER
; printing object Retraction_tower.stl id:0 copy 0
EXCLUDE_OBJECT_START NAME=Retraction_tower.stl_id_0_copy_0
M73 P1 R15
G1 X227.656 Y206.262 F12000
G1 Z.4
G1 Z.28
G1 E.2 F3000
;TYPE:Inner wall
;WIDTH:0.62
G1 F1200
G1 X227.947 Y206.35 E.01728
G1 X228.298 Y206.597 E.02442
G1 X228.58 Y206.927 E.02468
G1 X228.748 Y207.323 E.02452
G1 X228.82 Y207.815 E.02831
G1 X228.82 Y212.105 E.24416
G1 X228.79 Y212.508 E.02298
G1 X228.695 Y212.797 E.01734
G1 X228.494 Y213.197 E.02548
G1 X228.211 Y213.476 E.0226
G1 X227.673 Y213.752 E.0344
G1 X227.217 Y213.82 E.02624
G1 X192.895 Y213.82 E1.9534
G1 X192.463 Y213.788 E.02466
G1 X192.056 Y213.645 E.0245
G1 X191.696 Y213.406 E.02459
G1 X191.432 Y213.081 E.02383
G1 X191.244 Y212.672 E.02563
G1 X191.18 Y212.217 E.02615
G1 X191.18 Y207.815 E.25051
G1 X191.21 Y207.492 E.01848
G1 X191.305 Y207.203 E.01734
G1 X191.506 Y206.803 E.02548
G1 X191.789 Y206.524 E.0226
G1 X192.327 Y206.248 E.0344
G1 X192.783 Y206.18 E.02623
G1 X227.117 Y206.191 E1.9541
G1 X227.5 Y206.215 E.02182
G1 X227.599 Y206.245 E.00588
G1 X227.836 Y205.706 F12000
G1 F1200
G1 X228.198 Y205.846 E.02212
G1 X228.677 Y206.186 E.03344
G1 X229.058 Y206.631 E.03331
M73 P2 R15
G1 X229.287 Y207.171 E.03339
G1 X229.38 Y207.79 E.03561
G1 X229.38 Y212.105 E.24563
G1 X229.342 Y212.623 E.02954
G1 X229.225 Y212.976 E.02115
G1 X229.042 Y213.373 E.0249
G1 X228.796 Y213.697 E.02315
G1 X228.384 Y214.047 E.03078
G1 X227.843 Y214.289 E.03368
G1 X227.23 Y214.38 E.03529
G1 X192.895 Y214.38 E1.95414
G1 X192.359 Y214.34 E.03055
G1 X191.805 Y214.145 E.03344
G1 X191.317 Y213.821 E.03331
G1 X190.957 Y213.378 E.03254
G1 X190.704 Y212.828 E.03443
G1 X190.62 Y212.23 E.03439
G1 X190.62 Y207.79 E.25272
G1 X190.658 Y207.377 E.02358
G1 X190.775 Y207.024 E.02115
G1 X190.958 Y206.627 E.0249
G1 X191.204 Y206.303 E.02315
G1 X191.616 Y205.953 E.03078
G1 X192.157 Y205.711 E.03368
G1 X192.77 Y205.62 E.03528
G1 X227.223 Y205.631 E1.96085
G1 X227.776 Y205.699 E.0317
G1 X227.987 Y205.164 F12000
;TYPE:Outer wall
G1 F1200
G1 X228.448 Y205.343 E.02817
G1 X228.87 Y205.604 E.02824
G1 X229.237 Y205.939 E.02824
G1 X229.536 Y206.335 E.02824
G1 X229.757 Y206.779 E.02824
G1 X229.893 Y207.256 E.02824
G1 X229.94 Y207.764 E.02902
G1 X229.94 Y212.236 E.25456
G1 X229.894 Y212.738 E.02868
G1 X229.668 Y213.421 E.04093
G1 X229.395 Y213.871 E.02997
G1 X229.061 Y214.237 E.02817
G1 X228.67 Y214.532 E.0279
G1 X228.014 Y214.826 E.04093
G1 X227.243 Y214.94 E.04434
G1 X192.764 Y214.94 E1.96233
G1 X192.256 Y214.893 E.02902
G1 X191.779 Y214.757 E.02824
G1 X191.335 Y214.536 E.02824
G1 X190.939 Y214.237 E.02824
G1 X190.604 Y213.87 E.02823
G1 X190.361 Y213.48 E.02619
G1 X190.164 Y212.985 E.03035
G1 X190.06 Y212.243 E.04263
G1 X190.06 Y207.764 E.25492
G1 X190.106 Y207.262 E.02868
G1 X190.332 Y206.579 E.04093
G1 X190.605 Y206.129 E.02997
G1 X190.939 Y205.763 E.02817
G1 X191.33 Y205.468 E.0279
G1 X191.986 Y205.174 E.04093
G1 X192.757 Y205.06 E.04434
G1 X227.461 Y205.071 E1.97514
G1 X227.928 Y205.154 E.02697
M73 P3 R15
G1 X227.498 Y206.385 F12000
;TYPE:Bottom surface
;WIDTH:0.623444
G1 F1200
G1 X228.098 Y206.985 E.04858
G1 X228.221 Y207.149 E.01171
G1 X228.315 Y207.337 E.01207
G1 X228.373 Y207.54 E.01207
G1 X228.4 Y207.835 E.01695
G1 X228.4 Y208.084 E.01429
G1 X226.927 Y206.611 E.11935
G1 X226.13 Y206.61 E.04564
G1 X228.4 Y208.881 E.18389
G1 X228.4 Y209.678 E.04562
G1 X225.333 Y206.61 E.24843
G1 X224.536 Y206.61 E.04564
M73 P3 R14
G1 X228.4 Y210.474 E.31297
G1 X228.4 Y211.271 E.04562
G1 X223.739 Y206.61 E.37751
G1 X222.942 Y206.609 E.04564
G1 X228.4 Y212.068 E.44205
G1 X228.376 Y212.422 E.02031
G1 X228.272 Y212.737 E.019
G1 X222.145 Y206.609 E.49624
G1 X221.348 Y206.609 E.04564
G1 X227.913 Y213.174 E.5317
G1 X227.548 Y213.347 E.02315
G1 X227.324 Y213.381 E.01299
G1 X220.551 Y206.609 E.54849
G1 X219.754 Y206.608 E.04564
G1 X226.546 Y213.4 E.55003
G1 X225.749 Y213.4 E.04562
G1 X218.957 Y206.608 E.55005
G1 X218.16 Y206.608 E.04564
G1 X224.952 Y213.4 E.55007
G1 X224.156 Y213.4 E.04562
G1 X217.363 Y206.608 E.55009
G1 X216.566 Y206.607 E.04564
G1 X223.359 Y213.4 E.55011
G1 X222.562 Y213.4 E.04562
G1 X215.769 Y206.607 E.55013
G1 X214.972 Y206.607 E.04564
G1 X221.766 Y213.4 E.55015
G1 X220.969 Y213.4 E.04562
G1 X214.175 Y206.607 E.55017
G1 X213.378 Y206.606 E.04564
G1 X220.172 Y213.4 E.55019
G1 X219.375 Y213.4 E.04562
G1 X212.581 Y206.606 E.55022
G1 X211.784 Y206.606 E.04564
G1 X218.579 Y213.4 E.55024
G1 X217.782 Y213.4 E.04562
M73 P4 R14
G1 X210.987 Y206.606 E.55026
G1 X210.19 Y206.605 E.04564
G1 X216.985 Y213.4 E.55028
G1 X216.189 Y213.4 E.04562
G1 X209.393 Y206.605 E.5503
G1 X208.597 Y206.605 E.04564
G1 X215.392 Y213.4 E.55032
G1 X214.595 Y213.4 E.04562
G1 X207.8 Y206.605 E.55034
G1 X207.003 Y206.604 E.04564
G1 X213.799 Y213.4 E.55036
G1 X213.002 Y213.4 E.04562
G1 X206.206 Y206.604 E.55038
G1 X205.409 Y206.604 E.04564
G1 X212.205 Y213.4 E.5504
G1 X211.408 Y213.4 E.04562
G1 X204.612 Y206.604 E.55042
G1 X203.815 Y206.603 E.04564
G1 X210.612 Y213.4 E.55044
G1 X209.815 Y213.4 E.04562
G1 X203.018 Y206.603 E.55046
G1 X202.221 Y206.603 E.04564
G1 X209.018 Y213.4 E.55048
G1 X208.222 Y213.4 E.04562
G1 X201.424 Y206.603 E.5505
G1 X200.627 Y206.602 E.04564
G1 X207.425 Y213.4 E.55052
G1 X206.628 Y213.4 E.04562
G1 X199.83 Y206.602 E.55054
G1 X199.033 Y206.602 E.04564
G1 X205.832 Y213.4 E.55056
G1 X205.035 Y213.4 E.04562
G1 X198.236 Y206.601 E.55058
G1 X197.439 Y206.601 E.04564
G1 X204.238 Y213.4 E.5506
M73 P5 R14
G1 X203.441 Y213.4 E.04562
G1 X196.642 Y206.601 E.55062
G1 X195.845 Y206.601 E.04564
G1 X202.645 Y213.4 E.55064
G1 X201.848 Y213.4 E.04562
G1 X195.048 Y206.6 E.55067
G1 X194.251 Y206.6 E.04564
G1 X201.051 Y213.4 E.55069
G1 X200.255 Y213.4 E.04562
G1 X193.454 Y206.6 E.55071
G1 X192.667 Y206.61 E.04507
G1 X199.458 Y213.4 E.54992
G1 X198.661 Y213.4 E.04562
G1 X192.086 Y206.826 E.53243
G1 X191.98 Y206.906 E.00762
G1 X191.844 Y207.055 E.0116
G1 X191.728 Y207.263 E.01365
G1 X197.864 Y213.4 E.49698
G1 X197.068 Y213.4 E.04562
G1 X191.6 Y207.932 E.4428
G1 X191.601 Y208.73 E.04568
G1 X196.271 Y213.4 E.3782
G1 X195.474 Y213.4 E.04562
G1 X191.602 Y209.528 E.31361
G1 X191.603 Y210.325 E.04568
G1 X194.678 Y213.4 E.24901
G1 X193.881 Y213.4 E.04562
G1 X191.604 Y211.123 E.18441
G1 X191.605 Y211.921 E.04568
G1 X193.084 Y213.4 E.11981
G1 X192.835 Y213.4 E.01428
G1 X192.54 Y213.373 E.01695
G1 X192.337 Y213.315 E.01207
G1 X192.149 Y213.221 E.01207
G1 X191.985 Y213.098 E.01174
G1 X191.382 Y212.495 E.04882
; stop printing object Retraction_tower.stl id:0 copy 0
M106 S255
;LAYER_CHANGE
;Z:0.48
;HEIGHT:0.2
;BEFORE_LAYER_CHANGE
;0.48
G92 E0

;WIPE_START
G1 F1200
G1 X191.985 Y213.098 E-.17051
G1 X192.103 Y213.187 E-.02949
;WIPE_END
EXCLUDE_OBJECT_END NAME=Retraction_tower.stl_id_0_copy_0
;AFTER_LAYER_CHANGE
;0.48
;_SET_FAN_SPEED_CHANGING_LAYER
M104 S215 ; set nozzle temperature
M140 S60 ; set bed temperature
; printing object Retraction_tower.stl id:0 copy 0
EXCLUDE_OBJECT_START NAME=Retraction_tower.stl_id_0_copy_0
G1 X191.56 Y213.166 Z.68 F12000
G1 Z.48
G1 E.2 F3000
;TYPE:Inner wall
;WIDTH:0.649999
G1 F3600
G1 X191.544 Y213.151 E.00097
G1 X191.3 Y212.646 E.02474
G1 X191.239 Y212.216 E.01914
G1 X191.239 Y207.811 E.19415
G1 X191.299 Y207.345 E.0207
G1 X191.56 Y206.831 E.02541
G1 X191.892 Y206.516 E.02016
G1 X192.355 Y206.305 E.02244
G1 X192.818 Y206.239 E.02062
G1 X227.114 Y206.247 E1.51165
G1 X227.501 Y206.28 E.01714
G1 X227.921 Y206.403 E.01927
G1 X228.255 Y206.639 E.01804
G1 X228.529 Y206.958 E.01854
G1 X228.691 Y207.339 E.01823
G1 X228.761 Y207.818 E.02136
G1 X228.75 Y212.297 E.1974
G1 X228.659 Y212.726 E.01933
G1 X228.44 Y213.169 E.0218
G1 X228.171 Y213.432 E.01658
G1 X227.702 Y213.679 E.02334
G1 X227.216 Y213.761 E.02176
G1 X192.895 Y213.761 E1.51276
G1 X192.673 Y213.747 E.00979
G1 X192.207 Y213.653 E.02099
G1 X191.85 Y213.448 E.01814
G1 X191.603 Y213.208 E.01516
G1 X191.186 Y213.644 F12000
G1 F3600
G1 X190.981 Y213.396 E.01421
G1 X190.715 Y212.819 E.02799
G1 X190.632 Y212.23 E.02624
G1 X190.632 Y207.786 E.19586
G1 X190.661 Y207.429 E.01577
G1 X190.764 Y207.042 E.01769
G1 X191.069 Y206.469 E.02861
G1 X191.329 Y206.184 E.01696
G1 X191.727 Y205.917 E.02115
G1 X192.189 Y205.721 E.02212
G1 X192.79 Y205.632 E.02679
G1 X227.172 Y205.64 E1.51544
G1 X227.838 Y205.72 E.02955
M73 P6 R14
G1 X228.192 Y205.857 E.01677
G1 X228.67 Y206.196 E.02583
G1 X229.048 Y206.637 E.02557
G1 X229.275 Y207.175 E.02573
G1 X229.368 Y207.79 E.02744
G1 X229.368 Y212.105 E.19019
G1 X229.33 Y212.624 E.02294
G1 X229.168 Y213.128 E.02332
G1 X229.053 Y213.324 E.01004
G1 X228.791 Y213.685 E.01964
G1 X228.374 Y214.039 E.02408
G1 X227.893 Y214.259 E.02332
G1 X227.23 Y214.368 E.02965
G1 X192.895 Y214.368 E1.51337
G1 X192.361 Y214.328 E.02357
G1 X191.809 Y214.133 E.02584
G1 X191.326 Y213.812 E.02555
G1 X191.225 Y213.69 E.00698
G1 X190.73 Y214.023 F12000
;TYPE:Outer wall
;WIDTH:0.599999
G1 F3600
G1 X190.383 Y213.54 E.02403
G1 X190.154 Y212.985 E.02427
G1 X190.05 Y212.243 E.03032
G1 X190.05 Y207.762 E.18123
G1 X190.115 Y207.196 E.02304
G1 X190.294 Y206.638 E.02369
G1 X190.598 Y206.121 E.02427
G1 X190.799 Y205.902 E.01202
G1 X191.247 Y205.512 E.02403
G1 X191.778 Y205.233 E.02427
G1 X192.254 Y205.097 E.02002
G1 X192.763 Y205.05 E.02069
G1 X227.398 Y205.058 E1.40085
G1 X227.991 Y205.155 E.02434
G1 X228.453 Y205.334 E.02002
G1 X228.876 Y205.596 E.02014
G1 X229.244 Y205.932 E.02014
G1 X229.545 Y206.329 E.02014
G1 X229.767 Y206.775 E.02014
G1 X229.903 Y207.254 E.02014
G1 X229.95 Y207.763 E.02069
G1 X229.95 Y212.237 E.18093
G1 X229.903 Y212.741 E.0205
G1 X229.703 Y213.368 E.0266
G1 X229.402 Y213.879 E.02399
G1 X229.068 Y214.244 E.02002
G1 X228.674 Y214.542 E.01996
G1 X228.076 Y214.815 E.0266
G1 X227.755 Y214.883 E.0133
G1 X227.243 Y214.95 E.02087
G1 X192.895 Y214.95 E1.38927
G1 X192.54 Y214.929 E.01436
G1 X192.016 Y214.835 E.02156
G1 X191.554 Y214.656 E.02003
G1 X191.125 Y214.39 E.02042
G1 X190.773 Y214.063 E.01941
;WIPE_START
G1 X190.383 Y213.54 E-.13061
G1 X190.25 Y213.219 E-.06939
;WIPE_END
G1 X197.881 Y213.06 Z.88 F12000
G1 X228.556 Y212.417 Z.88
G1 Z.48
G1 E.2 F3000
;TYPE:Internal solid infill
;WIDTH:0.660856
G1 F5825.846
G1 X227.93 Y213.044 E.03976
G1 X227.827 Y213.121 E.00578
G1 X227.562 Y213.243 E.01308
G1 X227.196 Y213.306 E.01666
G1 X226.794 Y213.306 E.01803
G1 X228.306 Y211.794 E.09593
G1 X228.306 Y210.92 E.03921
G1 X225.92 Y213.306 E.15137
G1 X225.046 Y213.306 E.03921
G1 X228.306 Y210.046 E.20682
G1 X228.306 Y209.172 E.03921
G1 X224.172 Y213.306 E.26227
G1 X223.298 Y213.306 E.03921
G1 X228.306 Y208.298 E.31772
G1 X228.306 Y207.839 E.02058
G1 X228.279 Y207.558 E.0127
G1 X228.256 Y207.474 E.00389
G1 X222.424 Y213.306 E.37
G1 X221.55 Y213.306 E.03921
G1 X227.913 Y206.943 E.40369
G1 X227.717 Y206.813 E.01056
G1 X227.557 Y206.75 E.00771
G1 X227.277 Y206.705 E.0127
G1 X220.676 Y213.306 E.41882
G1 X219.803 Y213.306 E.03921
G1 X226.406 Y206.702 E.41898
G1 X225.532 Y206.702 E.0392
G1 X218.929 Y213.306 E.41899
G1 X218.055 Y213.306 E.03921
G1 X224.659 Y206.702 E.419
G1 X223.785 Y206.702 E.0392
G1 X217.181 Y213.306 E.41902
G1 X216.307 Y213.306 E.03921
G1 X222.911 Y206.701 E.41903
G1 X222.037 Y206.701 E.0392
G1 X215.433 Y213.306 E.41904
G1 X214.559 Y213.306 E.03921
G1 X221.164 Y206.701 E.41905
G1 X220.29 Y206.701 E.0392
G1 X213.685 Y213.306 E.41907
G1 X212.811 Y213.306 E.03921
G1 X219.416 Y206.701 E.41908
G1 X218.543 Y206.7 E.0392
G1 X211.937 Y213.306 E.41909
G1 X211.064 Y213.306 E.03921
M73 P7 R14
G1 X217.669 Y206.7 E.41911
G1 X216.795 Y206.7 E.0392
G1 X210.19 Y213.306 E.41912
G1 X209.316 Y213.306 E.03921
G1 X215.922 Y206.7 E.41913
G1 X215.048 Y206.7 E.0392
G1 X208.442 Y213.306 E.41914
G1 X207.568 Y213.306 E.03921
G1 X214.174 Y206.699 E.41916
G1 X213.301 Y206.699 E.0392
G1 X206.694 Y213.306 E.41917
G1 X205.82 Y213.306 E.03921
G1 X212.427 Y206.699 E.41918
G1 X211.553 Y206.699 E.0392
G1 X204.946 Y213.306 E.41919
G1 X204.072 Y213.306 E.03921
G1 X210.679 Y206.699 E.41921
G1 X209.806 Y206.698 E.0392
G1 X203.199 Y213.306 E.41922
G1 X202.325 Y213.306 E.03921
G1 X208.932 Y206.698 E.41923
G1 X208.058 Y206.698 E.0392
G1 X201.451 Y213.306 E.41924
G1 X200.577 Y213.306 E.03921
G1 X207.185 Y206.698 E.41926
G1 X206.311 Y206.698 E.0392
G1 X199.703 Y213.306 E.41927
G1 X198.829 Y213.306 E.03921
G1 X205.437 Y206.697 E.41928
G1 X204.564 Y206.697 E.0392
G1 X197.955 Y213.306 E.4193
G1 X197.081 Y213.306 E.03921
G1 X203.69 Y206.697 E.41931
G1 X202.816 Y206.697 E.0392
G1 X196.207 Y213.306 E.41932
G1 X195.334 Y213.306 E.03921
G1 X201.942 Y206.697 E.41933
G1 X201.069 Y206.696 E.0392
G1 X194.46 Y213.306 E.41935
G1 X193.586 Y213.306 E.03921
G1 X200.195 Y206.696 E.41936
G1 X199.321 Y206.696 E.0392
G1 X192.723 Y213.295 E.41869
G1 X192.558 Y213.279 E.00744
G1 X192.372 Y213.227 E.00867
G1 X192.199 Y213.14 E.00867
G1 X192.087 Y213.056 E.00627
G1 X198.448 Y206.696 E.40357
G1 X197.574 Y206.696 E.0392
G1 X191.743 Y212.526 E.36996
G1 X191.7 Y212.306 E.01007
G1 X191.699 Y211.697 E.02734
G1 X196.7 Y206.695 E.31734
G1 X195.827 Y206.695 E.0392
G1 X191.698 Y210.824 E.26196
G1 X191.697 Y209.951 E.03916
G1 X194.953 Y206.695 E.20659
G1 X194.079 Y206.695 E.0392
G1 X191.696 Y209.078 E.15122
G1 X191.695 Y208.205 E.03916
G1 X193.206 Y206.695 E.09585
G1 X192.901 Y206.695 E.01368
G1 X192.556 Y206.721 E.01549
