; HEADER_BLOCK_START
; generated by OrcaSlicer 1.8.0-beta2 on 2023-12-01 at 09:51:17
; total layer number: 127
; HEADER_BLOCK_END

; THUMBNAIL_BLOCK_START
; THUMBNAIL_BLOCK_END

; external perimeters extrusion width = 0.60mm
; perimeters extrusion width = 0.65mm
; infill extrusion width = 0.65mm
; solid infill extrusion width = 0.65mm
; top infill extrusion width = 0.56mm
; first layer extrusion width = 0.62mm

; EXECUTABLE_BLOCK_START
EXCLUDE_OBJECT_DEFINE NAME=retraction_tower.stl_id_0_copy_0 CENTER=210,210 POLYGON=[[190,205.5],[190.102,204.724],[190.402,204],[190.879,203.379],[191.5,202.902],[192.224,202.602],[193,202.5],[227,202.5],[227.776,202.602],[228.5,202.902],[229.121,203.379],[229.598,204],[229.898,204.724],[230,205.5],[230,214.5],[229.898,215.276],[229.598,216],[229.121,216.621],[228.5,217.098],[227.776,217.398],[227,217.5],[193,217.5],[192.224,217.398],[191.5,217.098],[190.879,216.621],[190.402,216],[190.102,215.276],[190,214.5],[190,205.5]]
M73 P0 R17
;TYPE:Custom
; Start G-code with Adaptive Meshing for Elegoo Neptune 3 Max

G90 ; Set absolute positioning
M83 ; Set extruder to relative mode
M104 S120 ; Set temporary nozzle temp to prevent oozing during homing and auto bed leveling
M140 S60 ; Set final bed temp
G4 S10 ; Allow partial nozzle warmup
G28 ; Home all axes

; Run Adaptive Meshing (KAMP)
G29

; Load the mesh
M420 S1

SMART_PARK

; Set final nozzle temp
M104 S220

; Wait for bed temp to stabilize
M190 S60

; Wait for nozzle temp to stabilize
M109 S220

; Move to printing height
G1 Z0.28 F240

; Prime the nozzle
G92 E0
G1 Y140 E10 F1500 ; Forward
G1 X2.3 F5000
G92 E0
G1 Y10 E10 F1200 ; Backward
G92 E0

; Start Line Purge macro (assuming you have it defined)
LINE_PURGE
G90
G21
M83 ; use relative distances for extrusion
; filament start gcode
SET_PRESSURE_ADVANCE ADVANCE=0.06; Override pressure advance value
M106 S0
;LAYER_CHANGE
;Z:0.28
;HEIGHT:0.28
;BEFORE_LAYER_CHANGE
;0.28
G92 E0

G1 E-.3 F3000
;AFTER_LAYER_CHANGE
;0.28
;_SET_FAN_SPEED_CHANGING_LAYER
; Calib_Retraction_tower: Z_HEIGHT: 0.28, length:0.1
; printing object retraction_tower.stl id:0 copy 0
EXCLUDE_OBJECT_START NAME=retraction_tower.stl_id_0_copy_0
M73 P1 R17
G1 X228.061 Y203.662 F12000
G1 Z.4
G1 Z.28
G1 E.3 F3000
;TYPE:Inner wall
;WIDTH:0.62
G1 F1200
G1 X228.501 Y203.999 E.03154
G1 X228.838 Y204.439 E.03154
G1 X229.05 Y204.951 E.03154
G1 X229.13 Y205.557 E.03481
G1 X229.13 Y214.443 E.50573
G1 X229.05 Y215.049 E.03481
G1 X228.838 Y215.561 E.03154
G1 X228.501 Y216.001 E.03154
G1 X228.061 Y216.338 E.03154
G1 X227.549 Y216.55 E.03154
G1 X226.943 Y216.63 E.03481
G1 X193.057 Y216.63 E1.92857
G1 X192.451 Y216.55 E.03481
G1 X191.939 Y216.338 E.03154
G1 X191.499 Y216.001 E.03154
G1 X191.162 Y215.561 E.03154
G1 X190.95 Y215.049 E.03154
G1 X190.87 Y214.443 E.03481
G1 X190.87 Y210 E.25287
G1 X190.87 Y205.557 E.25287
G1 X190.95 Y204.951 E.03481
G1 X191.162 Y204.439 E.03154
G1 X191.499 Y203.999 E.03154
G1 X191.939 Y203.662 E.03154
G1 X192.451 Y203.45 E.03154
G1 X193.057 Y203.37 E.03481
G1 X226.943 Y203.37 E1.92857
G1 X227.549 Y203.45 E.03481
G1 X228.006 Y203.639 E.02812
G1 X228.344 Y203.173 F12000
;TYPE:Outer wall
G1 F1200
G1 X228.9 Y203.6 E.03993
G1 X229.327 Y204.156 E.03993
G1 X229.596 Y204.804 E.03993
G1 X229.69 Y205.52 E.04109
G1 X229.69 Y214.48 E.50991
G1 X229.596 Y215.196 E.04109
G1 X229.327 Y215.844 E.03993
G1 X228.9 Y216.4 E.03993
G1 X228.344 Y216.827 E.03993
G1 X227.696 Y217.096 E.03993
G1 X226.98 Y217.19 E.04109
G1 X193.02 Y217.19 E1.93274
G1 X192.304 Y217.096 E.04109
M73 P2 R17
G1 X191.656 Y216.827 E.03993
G1 X191.1 Y216.4 E.03993
G1 X190.673 Y215.844 E.03993
G1 X190.404 Y215.196 E.03993
G1 X190.31 Y214.48 E.04109
G1 X190.31 Y210 E.25495
G1 X190.31 Y205.52 E.25495
G1 X190.404 Y204.804 E.04109
G1 X190.673 Y204.156 E.03993
G1 X191.1 Y203.6 E.03993
G1 X191.656 Y203.173 E.03993
G1 X192.304 Y202.904 E.03993
G1 X193.02 Y202.81 E.04109
G1 X226.98 Y202.81 E1.93274
G1 X227.696 Y202.904 E.04109
M73 P2 R16
G1 X228.288 Y203.15 E.03651
G1 X226.645 Y203.538 F12000
;TYPE:Bottom surface
;WIDTH:0.623505
G1 F1200
G1 X228.71 Y205.603 E.16728
G1 X228.71 Y206.4 E.04563
G1 X226.1 Y203.79 E.21141
G1 X225.303 Y203.79 E.04563
G1 X228.71 Y207.197 E.27594
G1 X228.71 Y207.994 E.04563
G1 X224.506 Y203.79 E.34047
G1 X223.71 Y203.79 E.04563
G1 X228.71 Y208.79 E.40501
G1 X228.71 Y209.587 E.04563
G1 X222.913 Y203.79 E.46954
G1 X222.116 Y203.79 E.04563
G1 X228.71 Y210.384 E.53407
G1 X228.71 Y211.181 E.04563
G1 X221.319 Y203.79 E.59861
G1 X220.522 Y203.79 E.04563
G1 X228.71 Y211.978 E.66314
G1 X228.71 Y212.774 E.04563
G1 X219.726 Y203.79 E.72767
G1 X218.929 Y203.79 E.04563
G1 X228.71 Y213.571 E.79221
G1 X228.71 Y214.368 E.04563
G1 X218.132 Y203.79 E.85674
G1 X217.335 Y203.79 E.04563
G1 X228.595 Y215.05 E.91198
G1 X228.471 Y215.35 E.01856
G1 X228.309 Y215.561 E.01525
G1 X216.538 Y203.79 E.95334
G1 X215.742 Y203.79 E.04563
M73 P3 R16
G1 X227.891 Y215.939 E.98401
G1 X227.85 Y215.971 E.00301
G1 X227.44 Y216.141 E.0254
G1 X227.313 Y216.158 E.00733
G1 X214.945 Y203.79 E1.0017
G1 X214.148 Y203.79 E.04563
G1 X226.568 Y216.21 E1.00594
G1 X225.772 Y216.21 E.04563
G1 X213.351 Y203.79 E1.00594
G1 X212.554 Y203.79 E.04563
G1 X224.975 Y216.21 E1.00594
G1 X224.178 Y216.21 E.04563
G1 X211.758 Y203.79 E1.00594
G1 X210.961 Y203.79 E.04563
G1 X223.381 Y216.21 E1.00594
G1 X222.584 Y216.21 E.04563
G1 X210.164 Y203.79 E1.00594
G1 X209.367 Y203.79 E.04563
G1 X221.788 Y216.21 E1.00594
G1 X220.991 Y216.21 E.04563
G1 X208.571 Y203.79 E1.00594
G1 X207.774 Y203.79 E.04563
G1 X220.194 Y216.21 E1.00594
G1 X219.397 Y216.21 E.04563
M73 P4 R16
G1 X206.977 Y203.79 E1.00594
G1 X206.18 Y203.79 E.04563
G1 X218.6 Y216.21 E1.00594
G1 X217.804 Y216.21 E.04563
G1 X205.383 Y203.79 E1.00594
G1 X204.587 Y203.79 E.04563
G1 X217.007 Y216.21 E1.00594
G1 X216.21 Y216.21 E.04563
G1 X203.79 Y203.79 E1.00594
G1 X202.993 Y203.79 E.04563
G1 X215.413 Y216.21 E1.00594
G1 X214.617 Y216.21 E.04563
G1 X202.196 Y203.79 E1.00594
G1 X201.399 Y203.79 E.04563
G1 X213.82 Y216.21 E1.00594
G1 X213.023 Y216.21 E.04563
G1 X200.603 Y203.79 E1.00594
G1 X199.806 Y203.79 E.04563
G1 X212.226 Y216.21 E1.00594
G1 X211.429 Y216.21 E.04563
G1 X199.009 Y203.79 E1.00594
G1 X198.212 Y203.79 E.04563
M73 P5 R16
G1 X210.633 Y216.21 E1.00594
G1 X209.836 Y216.21 E.04563
G1 X197.415 Y203.79 E1.00594
G1 X196.619 Y203.79 E.04563
G1 X209.039 Y216.21 E1.00594
G1 X208.242 Y216.21 E.04563
G1 X195.822 Y203.79 E1.00594
G1 X195.025 Y203.79 E.04563
G1 X207.445 Y216.21 E1.00594
G1 X206.649 Y216.21 E.04563
G1 X194.228 Y203.79 E1.00594
G1 X193.432 Y203.79 E.04563
G1 X205.852 Y216.21 E1.00594
G1 X205.055 Y216.21 E.04563
G1 X192.687 Y203.842 E1.0017
G1 X192.56 Y203.859 E.00732
G1 X192.15 Y204.029 E.0254
G1 X192.109 Y204.061 E.00301
G1 X204.258 Y216.21 E.98401
G1 X203.461 Y216.21 E.04563
G1 X191.691 Y204.439 E.95334
G1 X191.529 Y204.65 E.01524
G1 X191.405 Y204.95 E.01857
G1 X202.665 Y216.21 E.91198
G1 X201.868 Y216.21 E.04563
M73 P6 R16
G1 X191.29 Y205.632 E.85673
G1 X191.29 Y206.429 E.04563
G1 X201.071 Y216.21 E.7922
G1 X200.274 Y216.21 E.04563
G1 X191.29 Y207.226 E.72766
G1 X191.29 Y208.023 E.04563
G1 X199.477 Y216.21 E.66313
G1 X198.681 Y216.21 E.04563
G1 X191.29 Y208.819 E.5986
G1 X191.29 Y209.616 E.04563
G1 X197.884 Y216.21 E.53406
G1 X197.087 Y216.21 E.04563
G1 X191.29 Y210.413 E.46953
G1 X191.29 Y211.21 E.04563
G1 X196.29 Y216.21 E.405
G1 X195.494 Y216.21 E.04563
G1 X191.29 Y212.006 E.34046
G1 X191.29 Y212.803 E.04563
G1 X194.697 Y216.21 E.27593
G1 X193.9 Y216.21 E.04563
G1 X191.29 Y213.6 E.2114
G1 X191.29 Y214.397 E.04563
G1 X193.355 Y216.462 E.16727
; stop printing object retraction_tower.stl id:0 copy 0
M106 S255
;LAYER_CHANGE
;Z:0.48
;HEIGHT:0.2
;BEFORE_LAYER_CHANGE
;0.48
G92 E0

;WIPE_START
G1 F1200
G1 X192.648 Y215.755 E-.1
;WIPE_END
EXCLUDE_OBJECT_END NAME=retraction_tower.stl_id_0_copy_0
;AFTER_LAYER_CHANGE
;0.48
;_SET_FAN_SPEED_CHANGING_LAYER
; Calib_Retraction_tower: Z_HEIGHT: 0.48, length:0.1
M104 S215 ; set nozzle temperature
; printing object retraction_tower.stl id:0 copy 0
EXCLUDE_OBJECT_START NAME=retraction_tower.stl_id_0_copy_0
G1 X199.872 Y213.291 Z.68 F12000
G1 X228.06 Y203.676 Z.68
G1 Z.48
G1 E.1 F3000
;TYPE:Inner wall
;WIDTH:0.649999
G1 F3600
G1 X228.492 Y204.008 E.02404
G1 X228.828 Y204.445 E.02428
G1 X229.038 Y204.954 E.02428
G1 X229.118 Y205.558 E.02685
G1 X229.118 Y214.442 E.3916
G1 X229.038 Y215.046 E.02685
G1 X228.828 Y215.555 E.02428
G1 X228.492 Y215.992 E.02428
G1 X228.055 Y216.328 E.02428
G1 X227.546 Y216.538 E.02428
G1 X226.942 Y216.618 E.02685
G1 X193.058 Y216.618 E1.49352
G1 X192.454 Y216.538 E.02685
G1 X191.945 Y216.328 E.02428
G1 X191.508 Y215.992 E.02428
G1 X191.172 Y215.555 E.02428
G1 X190.962 Y215.046 E.02428
G1 X190.882 Y214.442 E.02685
G1 X190.882 Y205.558 E.3916
G1 X190.962 Y204.954 E.02685
G1 X191.172 Y204.445 E.02428
G1 X191.508 Y204.008 E.02428
G1 X191.945 Y203.672 E.02428
G1 X192.454 Y203.462 E.02428
G1 X193.058 Y203.382 E.02685
G1 X226.942 Y203.382 E1.49352
G1 X227.513 Y203.457 E.02537
G1 X228.004 Y203.654 E.02331
G1 X228.35 Y203.165 F12000
;TYPE:Outer wall
;WIDTH:0.599999
G1 F3600
G1 X228.907 Y203.593 E.0284
G1 X229.336 Y204.151 E.02848
G1 X229.606 Y204.802 E.02848
G1 X229.7 Y205.52 E.02928
G1 X229.7 Y214.48 E.36243
G1 X229.606 Y215.198 E.02928
G1 X229.336 Y215.849 E.02848
G1 X228.907 Y216.407 E.02848
G1 X228.349 Y216.836 E.02848
G1 X227.698 Y217.106 E.02848
G1 X226.98 Y217.2 E.02928
G1 X193.02 Y217.2 E1.3736
G1 X192.302 Y217.106 E.02928
G1 X191.651 Y216.836 E.02848
G1 X191.093 Y216.407 E.02848
G1 X190.664 Y215.849 E.02848
G1 X190.394 Y215.198 E.02848
G1 X190.3 Y214.48 E.02928
G1 X190.3 Y205.52 E.36243
G1 X190.394 Y204.802 E.02928
G1 X190.664 Y204.151 E.02848
G1 X191.093 Y203.593 E.02848
G1 X191.651 Y203.164 E.02848
G1 X192.302 Y202.895 E.02848
G1 X193.02 Y202.8 E.02928
G1 X226.98 Y202.8 E1.3736
G1 X227.661 Y202.89 E.02778
M73 P7 R16
G1 X228.294 Y203.143 E.02759
;WIPE_START
G1 X228.907 Y203.593 E-.07602
G1 X229.053 Y203.783 E-.02398
;WIPE_END
G1 X228.966 Y211.415 Z.88 F12000
G1 X228.936 Y214.097 Z.88
G1 Z.48
G1 E.1 F3000
;TYPE:Internal solid infill
;WIDTH:0.656621
G1 F5866.049
G1 X226.87 Y216.163 E.13016
G1 X226.002 Y216.163 E.03867
G1 X228.663 Y213.502 E.16764
G1 X228.663 Y212.634 E.03867
G1 X225.134 Y216.163 E.22233
G1 X224.267 Y216.163 E.03867
G1 X228.663 Y211.767 E.27702
G1 X228.663 Y210.899 E.03867
G1 X223.399 Y216.163 E.33171
G1 X222.531 Y216.163 E.03867
G1 X228.663 Y210.031 E.3864
G1 X228.663 Y209.163 E.03867
G1 X221.663 Y216.163 E.44109
G1 X220.795 Y216.163 E.03867
G1 X228.663 Y208.295 E.49578
G1 X228.663 Y207.427 E.03867
G1 X219.927 Y216.163 E.55047
G1 X219.059 Y216.163 E.03867
G1 X228.663 Y206.559 E.60516
G1 X228.663 Y205.691 E.03867
G1 X218.191 Y216.163 E.65985
G1 X217.323 Y216.163 E.03867
G1 X228.542 Y204.944 E.70692
G1 X228.43 Y204.674 E.01301
G1 X228.219 Y204.399 E.01546
G1 X216.455 Y216.163 E.74126
G1 X215.587 Y216.163 E.03867
G1 X227.72 Y204.03 E.76451
G1 X227.397 Y203.901 E.0155
G1 X227.029 Y203.853 E.01651
G1 X214.72 Y216.163 E.7757
G1 X213.852 Y216.163 E.03867
G1 X226.177 Y203.837 E.77667
G1 X225.309 Y203.837 E.03867
G1 X212.984 Y216.163 E.77667
G1 X212.116 Y216.163 E.03867
G1 X224.441 Y203.837 E.77667
G1 X223.573 Y203.837 E.03867
G1 X211.248 Y216.163 E.77667
G1 X210.38 Y216.163 E.03867
G1 X222.705 Y203.837 E.77667
G1 X221.837 Y203.837 E.03867
G1 X209.512 Y216.163 E.77667
G1 X208.644 Y216.163 E.03867
G1 X220.969 Y203.837 E.77667
G1 X220.102 Y203.837 E.03867
G1 X207.776 Y216.163 E.77667
G1 X206.908 Y216.163 E.03867
G1 X219.234 Y203.837 E.77667
G1 X218.366 Y203.837 E.03867
G1 X206.041 Y216.163 E.77667
G1 X205.173 Y216.163 E.03867
G1 X217.498 Y203.837 E.77667
G1 X216.63 Y203.837 E.03867
G1 X204.305 Y216.163 E.77667
G1 X203.437 Y216.163 E.03867
G1 X215.762 Y203.837 E.77667
G1 X214.894 Y203.837 E.03867
M73 P8 R16
G1 X202.569 Y216.163 E.77667
G1 X201.701 Y216.163 E.03867
M73 P8 R15
G1 X214.026 Y203.837 E.77667
G1 X213.158 Y203.837 E.03867
G1 X200.833 Y216.163 E.77667
G1 X199.965 Y216.163 E.03867
G1 X212.29 Y203.837 E.77667
G1 X211.423 Y203.837 E.03867
G1 X199.097 Y216.163 E.77667
G1 X198.229 Y216.163 E.03867
G1 X210.555 Y203.837 E.77667
G1 X209.687 Y203.837 E.03867
G1 X197.361 Y216.163 E.77667
G1 X196.494 Y216.163 E.03867
G1 X208.819 Y203.837 E.77667
G1 X207.951 Y203.837 E.03867
G1 X195.626 Y216.163 E.77667
G1 X194.758 Y216.163 E.03867
G1 X207.083 Y203.837 E.77667
G1 X206.215 Y203.837 E.03867
G1 X193.89 Y216.163 E.77667
G1 X193.03 Y216.155 E.03833
G1 X205.347 Y203.837 E.77618
G1 X204.479 Y203.837 E.03867
G1 X192.325 Y215.992 E.76592
G1 X192.174 Y215.93 E.00724
G1 X191.81 Y215.638 E.02078
G1 X203.611 Y203.837 E.74364
G1 X202.743 Y203.837 E.03867
G1 X191.478 Y215.103 E.70989
G1 X191.405 Y214.927 E.00847
G1 X191.337 Y214.376 E.02477
G1 X201.876 Y203.837 E.66406
G1 X201.008 Y203.837 E.03867
G1 X191.337 Y213.508 E.60937
G1 X191.337 Y212.64 E.03867
G1 X200.14 Y203.837 E.55468
G1 X199.272 Y203.837 E.03867
G1 X191.337 Y211.772 E.49999
G1 X191.337 Y210.904 E.03867
G1 X198.404 Y203.837 E.44529
G1 X197.536 Y203.837 E.03867
G1 X191.337 Y210.036 E.3906
G1 X191.337 Y209.168 E.03867
G1 X196.668 Y203.837 E.33591
G1 X195.8 Y203.837 E.03867
G1 X191.337 Y208.3 E.28122
G1 X191.337 Y207.432 E.03867
G1 X194.932 Y203.837 E.22653
G1 X194.064 Y203.837 E.03867
G1 X191.337 Y206.564 E.17184
G1 X191.337 Y205.697 E.03867
G1 X193.197 Y203.837 E.11715
G1 X192.573 Y203.905 E.02796
G1 X192.174 Y204.07 E.01921
G1 X191.837 Y204.329 E.01897
G1 X191.135 Y205.031 E.04421
;WIPE_START
G1 X191.837 Y204.329 E-.09921
G1 X191.843 Y204.325 E-.00079
;WIPE_END
G1 X199.153 Y206.52 Z.88 F12000
G1 X228.38 Y215.297 Z.88
G1 Z.48
G1 E.1 F3000
;WIDTH:0.55292
G1 F7058.824
G1 X228.107 Y215.607 E.0153
G1 X227.842 Y215.84 E.01308
; stop printing object retraction_tower.stl id:0 copy 0
;LAYER_CHANGE
;Z:0.68
;HEIGHT:0.2
;BEFORE_LAYER_CHANGE
;0.68
G92 E0

;WIPE_START
G1 F7058.824
G1 X228.107 Y215.607 E-.04609
G1 X228.38 Y215.297 E-.05391
;WIPE_END
EXCLUDE_OBJECT_END NAME=retraction_tower.stl_id_0_copy_0
;AFTER_LAYER_CHANGE
;0.68
;_SET_FAN_SPEED_CHANGING_LAYER
; Calib_Retraction_tower: Z_HEIGHT: 0.68, length:0.1
; printing object retraction_tower.stl id:0 copy 0
EXCLUDE_OBJECT_START NAME=retraction_tower.stl_id_0_copy_0
G1 X220.901 Y213.774 Z.88 F12000
G1 X195.845 Y208.673 Z.88
G1 Z.68
M73 P9 R15
G1 E.1 F3000
;TYPE:Inner wall
;WIDTH:0.649999
G1 F736
G1 X196.066 Y209.006 E.01763
G1 X196.22 Y209.376 E.01763
G1 X196.33 Y209.904 E.0238
G1 X196.324 Y210.075 E.00753
G1 X196.171 Y210.745 E.0303
G1 X195.894 Y211.262 E.02586
G1 X195.603 Y211.58 E.01898
G1 X195.108 Y211.902 E.02604
G1 X194.548 Y212.084 E.02594
G1 X194.118 Y212.111 E.01899
G1 X193.539 Y212.001 E.02596
G1 X193.008 Y211.744 E.02602
G1 X192.679 Y211.466 E.01899
G1 X192.339 Y210.988 E.02588
G1 X192.132 Y210.433 E.0261
G1 X192.087 Y209.998 E.01926
G1 X192.106 Y209.797 E.00889
G1 X192.236 Y209.219 E.02613
G1 X192.419 Y208.863 E.01762
G1 X192.665 Y208.548 E.01762
G1 X192.965 Y208.285 E.01762
G1 X193.311 Y208.083 E.01763
G1 X193.688 Y207.949 E.01763
G1 X194.083 Y207.89 E.01763
G1 X194.482 Y207.905 E.01761
G1 X194.872 Y207.996 E.01764
G1 X195.238 Y208.158 E.01763
G1 X195.566 Y208.387 E.01763
G1 X195.803 Y208.63 E.01498
G1 X196.312 Y208.359 F12000
;TYPE:Outer wall
;WIDTH:0.599999
G1 F736
G1 X196.442 Y208.52 E.00835
G1 X196.681 Y208.97 E.02061
G1 X196.83 Y209.45 E.02035
G1 X196.967 Y209.989 E.02247
G1 X196.825 Y210.563 E.02395
G1 X196.648 Y211.128 E.02391
G1 X196.364 Y211.61 E.02263
G1 X195.991 Y212.018 E.02238
G1 X195.698 Y212.227 E.01457
G1 X195.184 Y212.51 E.0237
G1 X194.646 Y212.661 E.02261
G1 X194.094 Y212.696 E.02238
G1 X193.732 Y212.643 E.0148
G1 X193.17 Y212.493 E.0235
G1 X192.678 Y212.228 E.02259
G1 X192.256 Y211.871 E.02238
G1 X192.029 Y211.576 E.01504
G1 X191.73 Y211.084 E.02329
G1 X191.559 Y210.553 E.02256
G1 X191.503 Y210.001 E.02247
G1 X191.527 Y209.743 E.01047
G1 X191.622 Y209.247 E.02043
G1 X191.81 Y208.775 E.02052
G1 X192.083 Y208.347 E.02054
G1 X192.432 Y207.978 E.02055
G1 X192.844 Y207.681 E.02055
G1 X193.305 Y207.467 E.02055
G1 X193.799 Y207.344 E.02057
