; HEADER_BLOCK_START
; generated by OrcaSlicer 1.8.0-beta2 on 2023-12-01 at 12:00:28
; total layer number: 67
; HEADER_BLOCK_END

; THUMBNAIL_BLOCK_START
; THUMBNAIL_BLOCK_END

; external perimeters extrusion width = 1.05mm
; perimeters extrusion width = 0.65mm
; infill extrusion width = 0.65mm
; solid infill extrusion width = 0.65mm
; top infill extrusion width = 0.56mm
; first layer extrusion width = 0.62mm

; EXECUTABLE_BLOCK_START
EXCLUDE_OBJECT_DEFINE NAME=SpeedTestStructure.step_id_0_copy_0 CENTER=210,210 POLYGON=[[120.001,180],[120.004,179.669],[120.007,179.517],[120.012,179.325],[120.023,179.058],[120.024,179.034],[120.033,178.859],[120.047,178.635],[120.053,178.551],[120.062,178.436],[120.08,178.223],[120.094,178.07],[120.112,177.891],[120.123,177.795],[120.135,177.686],[120.147,177.589],[120.152,177.545],[120.159,177.486],[120.173,177.379],[120.18,177.325],[120.193,177.234],[120.194,177.224],[120.204,177.159],[120.208,177.125],[120.211,177.11],[120.212,177.098],[120.214,177.085],[120.217,177.065],[120.218,177.062],[120.218,177.061],[120.232,176.975],[120.268,176.749],[120.286,176.633],[120.296,176.579],[120.373,176.157],[120.472,175.684],[120.582,175.214],[120.703,174.746],[120.718,174.693],[120.836,174.281],[120.98,173.82],[120.997,173.767],[121.135,173.362],[121.153,173.31],[121.3,172.908],[121.477,172.458],[121.665,172.013],[121.863,171.572],[121.887,171.522],[122.072,171.136],[122.292,170.706],[122.521,170.28],[122.549,170.232],[122.761,169.861],[122.79,169.814],[123.011,169.447],[123.041,169.401],[123.271,169.04],[123.302,168.994],[123.541,168.639],[123.82,168.244],[123.853,168.2],[124.109,167.857],[124.407,167.476],[124.442,167.434],[124.714,167.103],[124.751,167.061],[125.031,166.738],[125.068,166.697],[125.355,166.38],[125.393,166.34],[125.689,166.03],[125.728,165.991],[126.031,165.688],[126.38,165.355],[126.738,165.03],[126.78,164.994],[127.104,164.714],[127.147,164.679],[127.477,164.407],[127.521,164.372],[127.857,164.108],[127.902,164.075],[128.245,163.82],[128.29,163.788],[128.639,163.54],[128.685,163.509],[129.04,163.271],[129.087,163.241],[129.448,163.011],[129.862,162.761],[130.281,162.521],[130.33,162.494],[130.706,162.291],[131.137,162.071],[131.573,161.863],[132.013,161.664],[132.459,161.477],[132.51,161.456],[132.909,161.3],[133.363,161.134],[133.82,160.979],[134.282,160.835],[134.747,160.702],[134.8,160.689],[135.214,160.581],[135.685,160.471],[135.739,160.46],[136.158,160.373],[136.634,160.285],[137.111,160.21],[137.166,160.203],[137.59,160.146],[137.645,160.14],[138.07,160.093],[138.126,160.089],[138.552,160.053],[139.034,160.023],[139.09,160.021],[139.517,160.006],[139.573,160.005],[140.001,160],[290.001,160],[290.346,160.006],[290.691,160.024],[291.035,160.054],[291.074,160.058],[291.377,160.095],[291.416,160.101],[291.718,160.149],[292.057,160.214],[292.096,160.223],[292.394,160.291],[292.728,160.379],[293.058,160.479],[293.385,160.59],[293.708,160.712],[293.744,160.728],[294.026,160.846],[294.34,160.99],[294.648,161.145],[294.951,161.311],[295.248,161.487],[295.538,161.673],[295.571,161.696],[295.823,161.869],[296.1,162.075],[296.131,162.1],[296.37,162.29],[296.632,162.515],[296.886,162.748],[296.915,162.776],[297.133,162.99],[297.16,163.019],[297.37,163.241],[297.599,163.499],[297.624,163.529],[297.819,163.765],[297.843,163.796],[298.03,164.039],[298.053,164.071],[298.231,164.319],[298.252,164.352],[298.422,164.607],[298.603,164.901],[298.622,164.935],[298.774,165.201],[298.792,165.236],[298.934,165.506],[299.084,165.817],[299.1,165.853],[299.223,166.133],[299.238,166.17],[299.351,166.454],[299.468,166.779],[299.573,167.107],[299.667,167.44],[299.75,167.775],[299.758,167.813],[299.821,168.113],[299.828,168.151],[299.88,168.453],[299.886,168.492],[299.928,168.795],[299.964,169.138],[299.987,169.482],[299.989,169.522],[299.999,169.827],[299.999,250.173],[299.998,250.212],[299.987,250.518],[299.964,250.862],[299.928,251.205],[299.922,251.244],[299.88,251.547],[299.874,251.586],[299.821,251.887],[299.813,251.926],[299.75,252.225],[299.741,252.264],[299.667,252.56],[299.573,252.893],[299.468,253.221],[299.351,253.546],[299.223,253.867],[299.084,254.183],[298.934,254.494],[298.774,254.799],[298.754,254.834],[298.603,255.099],[298.422,255.393],[298.252,255.648],[298.231,255.681],[298.053,255.929],[298.03,255.961],[297.843,256.204],[297.819,256.235],[297.794,256.265],[297.599,256.501],[297.37,256.759],[297.343,256.788],[297.133,257.01],[296.886,257.252],[296.661,257.458],[296.632,257.485],[296.37,257.71],[296.131,257.9],[296.1,257.925],[295.854,258.107],[295.823,258.131],[295.571,258.304],[295.538,258.327],[295.248,258.513],[294.951,258.689],[294.648,258.855],[294.375,258.992],[294.34,259.01],[294.026,259.154],[293.744,259.272],[293.708,259.288],[293.385,259.41],[293.095,259.508],[293.058,259.521],[292.728,259.621],[292.394,259.709],[292.057,259.786],[291.718,259.851],[291.377,259.905],[291.035,259.946],[290.691,259.976],[290.346,259.994],[290.001,260],[140.001,260],[139.517,259.994],[139.034,259.977],[138.552,259.947],[138.07,259.907],[138.016,259.901],[137.59,259.854],[137.111,259.79],[137.056,259.781],[136.634,259.715],[136.158,259.627],[136.104,259.616],[135.685,259.529],[135.631,259.516],[135.214,259.419],[135.161,259.405],[134.747,259.298],[134.693,259.282],[134.282,259.165],[133.82,259.021],[133.363,258.866],[132.909,258.7],[132.459,258.523],[132.408,258.502],[132.013,258.336],[131.573,258.137],[131.523,258.114],[131.137,257.929],[130.706,257.709],[130.281,257.479],[130.233,257.452],[129.862,257.239],[129.448,256.989],[129.401,256.96],[129.04,256.729],[128.995,256.699],[128.639,256.46],[128.594,256.428],[128.245,256.18],[127.857,255.892],[127.814,255.857],[127.477,255.593],[127.434,255.558],[127.104,255.286],[127.062,255.25],[126.738,254.97],[126.697,254.933],[126.38,254.645],[126.34,254.607],[126.031,254.312],[125.689,253.97],[125.355,253.62],[125.318,253.579],[125.031,253.262],[124.714,252.897],[124.407,252.524],[124.109,252.143],[123.82,251.756],[123.541,251.361],[123.271,250.96],[123.242,250.914],[123.011,250.553],[122.761,250.139],[122.734,250.091],[122.521,249.72],[122.495,249.671],[122.292,249.294],[122.267,249.245],[122.072,248.864],[122.048,248.814],[121.863,248.428],[121.841,248.378],[121.665,247.987],[121.477,247.542],[121.3,247.092],[121.135,246.638],[120.98,246.18],[120.963,246.128],[120.836,245.719],[120.703,245.254],[120.582,244.786],[120.472,244.316],[120.373,243.843],[120.286,243.367],[120.268,243.251],[120.232,243.025],[120.218,242.939],[120.218,242.939],[120.218,242.938],[120.217,242.933],[120.216,242.93],[120.215,242.922],[120.214,242.911],[120.211,242.89],[120.209,242.88],[120.208,242.874],[120.202,242.831],[120.2,242.815],[120.19,242.745],[120.186,242.715],[120.174,242.627],[120.165,242.559],[120.159,242.514],[120.147,242.411],[120.144,242.387],[120.135,242.311],[120.113,242.119],[120.104,242.033],[120.094,241.93],[120.081,241.79],[120.074,241.709],[120.053,241.449],[120.048,241.381],[120.044,241.315],[120.024,240.966],[120.021,240.892],[120.007,240.483],[120.005,240.413],[120.002,240.204],[120.001,240],[120.001,180]]
M73 P0 R52
;TYPE:Custom
; Start G-code with Adaptive Meshing for Elegoo Neptune 3 Max

G90 ; Set absolute positioning
M83 ; Set extruder to relative mode
M104 S120 ; Set temporary nozzle temp to prevent oozing during homing and auto bed leveling
M140 S60 ; Set final bed temp
G4 S10 ; Allow partial nozzle warmup
G28 ; Home all axes

; Run Adaptive Meshing (KAMP)
G29

; Load the mesh
M420 S1

SMART_PARK

; Set final nozzle temp
M104 S220

; Wait for bed temp to stabilize
M190 S60

; Wait for nozzle temp to stabilize
M109 S220

; Move to printing height
G1 Z0.28 F240

; Start Line Purge macro (assuming you have it defined)
LINE_PURGE
G90
G21
M83 ; use relative distances for extrusion
; filament start gcode
SET_PRESSURE_ADVANCE ADVANCE=0.06; Override pressure advance value
M106 S0
;LAYER_CHANGE
;Z:0.48
;HEIGHT:0.48
;BEFORE_LAYER_CHANGE
;0.48
G92 E0

G1 Z.48 F12000
;AFTER_LAYER_CHANGE
;0.48
;_SET_FAN_SPEED_CHANGING_LAYER
; printing object SpeedTestStructure.step id:0 copy 0
G1 E-.8 F3000
EXCLUDE_OBJECT_START NAME=SpeedTestStructure.step_id_0_copy_0
G1 X125.465 Y161.057 F12000
G1 E.8 F2400
;TYPE:Brim
;WIDTH:0.62
G1 F1200
G1 X125.925 Y160.713 E.05171
G1 X126.959 Y159.999 E.11319
G1 X127.443 Y159.692 E.0517
G1 X128.353 Y159.157 E.09506
G1 X129.463 Y158.574 E.11301
G1 X130.421 Y158.129 E.09512
G1 X130.949 Y157.905 E.0517
G1 X132.123 Y157.46 E.11307
G1 X133.127 Y157.134 E.09511
G1 X133.68 Y156.975 E.05185
G1 X134.334 Y156.805 E.06082
G1 X135.361 Y156.578 E.0948
G1 X136.602 Y156.366 E.11336
G1 X137.17 Y156.291 E.0517
G1 X138.218 Y156.19 E.09483
G1 X139.474 Y156.129 E.11325
G1 X290.548 Y156.134 E13.60986
G1 X291.363 Y156.19 E.0736
G1 X292.455 Y156.342 E.09924
G1 X293.254 Y156.51 E.07361
G1 X293.717 Y156.63 E.04305
G1 X294.309 Y156.809 E.05575
G1 X295.077 Y157.085 E.07356
G1 X296.086 Y157.529 E.09924
G1 X296.81 Y157.909 E.0737
G1 X297.22 Y158.149 E.04277
G1 X298.138 Y158.759 E.09933
G1 X298.785 Y159.258 E.07361
G1 X299.256 Y159.66 E.05576
G1 X299.606 Y159.984 E.04297
G1 X300.179 Y160.568 E.07367
G1 X300.894 Y161.404 E.09916
G1 X301.382 Y162.061 E.07369
G1 X301.648 Y162.456 E.04297
G1 X301.973 Y162.983 E.05575
G1 X302.365 Y163.7 E.07356
G1 X302.826 Y164.7 E.09925
G1 X303.116 Y165.465 E.07369
G1 X303.264 Y165.918 E.04296
G1 X303.433 Y166.514 E.05578
G1 X303.615 Y167.311 E.07362
G1 X303.785 Y168.398 E.09916
G1 X303.855 Y169.212 E.07362
G1 X303.874 Y169.69 E.04303
G1 X303.874 Y170.309 E.05579
G1 X303.832 Y171.125 E.07361
G1 X303.699 Y172.218 E.09915
G1 X303.545 Y173.02 E.07363
G1 X303.433 Y173.485 E.04304
G1 X303.264 Y174.08 E.05576
G1 X303.001 Y174.854 E.07364
G1 X302.575 Y175.87 E.09929
G1 X302.367 Y176.297 E.04277
G1 X301.974 Y177.015 E.0737
G1 X301.38 Y177.942 E.09916
G1 X300.893 Y178.598 E.07363
G1 X300.5 Y179.074 E.05562
G1 X299.946 Y179.678 E.07383
G1 X299.609 Y180.013 E.04284
G1 X298.784 Y180.744 E.0993
G1 X298.135 Y181.243 E.0737
G1 X297.746 Y181.514 E.04276
G1 X296.808 Y182.093 E.0993
G1 X296.083 Y182.473 E.07369
G1 X295.651 Y182.674 E.04296
G1 X295.081 Y182.914 E.05575
G1 X294.311 Y183.19 E.07364
G1 X293.253 Y183.49 E.0991
G1 X292.315 Y183.683 E.08629
G1 X291.504 Y183.795 E.0737
G1 X290.889 Y183.848 E.05561
G1 X289.997 Y183.877 E.08047
G1 X149.776 Y183.883 E12.63204
G1 X149.145 Y183.939 E.05709
M73 P0 R51
G1 X148.523 Y184.059 E.0571
G1 X147.917 Y184.244 E.05708
G1 X147.356 Y184.479 E.05474
G1 X146.8 Y184.782 E.05709
G1 X146.278 Y185.141 E.05704
G1 X145.795 Y185.552 E.05709
G1 X145.358 Y186.011 E.05714
G1 X144.97 Y186.512 E.05704
G1 X144.638 Y187.049 E.05691
G1 X144.36 Y187.621 E.05727
G1 X144.145 Y188.216 E.0571
G1 X143.992 Y188.831 E.05709
G1 X143.903 Y189.459 E.05709
G1 X143.88 Y190.092 E.05709
G1 X143.902 Y190.537 E.04008
G1 X143.955 Y190.96 E.03846
G1 X144.085 Y191.576 E.05669
G1 X144.21 Y191.985 E.03847
G1 X144.444 Y192.569 E.05669
G1 X144.637 Y192.95 E.03847
G1 X144.97 Y193.489 E.0571
G1 X145.358 Y193.99 E.05713
G1 X145.791 Y194.444 E.05648
G1 X146.112 Y194.728 E.03864
G1 X146.622 Y195.105 E.05709
G1 X147.144 Y195.414 E.05468
G1 X147.549 Y195.609 E.04048
G1 X148.115 Y195.824 E.0545
G1 X148.549 Y195.947 E.04066
G1 X149.17 Y196.065 E.05693
G1 X149.798 Y196.118 E.05685
G1 X289.997 Y196.123 E12.63004
G1 X290.889 Y196.152 E.08048
G1 X291.501 Y196.204 E.0553
G1 X292.316 Y196.318 E.07414
G1 X292.922 Y196.434 E.05555
G1 X293.854 Y196.669 E.08665
G1 X294.309 Y196.809 E.04281
G1 X295.079 Y197.086 E.07376
G1 X295.958 Y197.467 E.0863
G1 X296.932 Y197.978 E.09913
G1 X297.626 Y198.406 E.07346
G1 X298.02 Y198.675 E.04294
G1 X298.785 Y199.257 E.08658
G1 X299.505 Y199.889 E.08627
G1 X300.273 Y200.67 E.09872
G1 X300.894 Y201.403 E.08653
G1 X301.462 Y202.177 E.0865
G1 X301.723 Y202.574 E.0428
G1 X302.14 Y203.276 E.07355
G1 X302.576 Y204.132 E.08658
G1 X302.951 Y205.014 E.08627
G1 X303.305 Y206.054 E.09898
G1 X303.546 Y206.983 E.08645
G1 X303.641 Y207.448 E.04282
G1 X303.768 Y208.256 E.07368
G1 X303.862 Y209.352 E.0991
G1 X303.874 Y210.311 E.08633
G1 X303.832 Y211.128 E.07372
G1 X303.785 Y211.601 E.04282
G1 X303.641 Y212.55 E.08649
G1 X303.433 Y213.485 E.08631
G1 X303.161 Y214.403 E.08624
G1 X302.771 Y215.431 E.09904
G1 X302.365 Y216.3 E.08644
G1 X302.142 Y216.72 E.04281
G1 X301.724 Y217.424 E.07375
G1 X301.184 Y218.216 E.08631
G1 X300.499 Y219.075 E.09902
G1 X299.848 Y219.777 E.08624
G1 X299.149 Y220.435 E.08651
G1 X298.786 Y220.742 E.04281
G1 X298.138 Y221.241 E.0737
G1 X297.222 Y221.85 E.09909
G1 X296.387 Y222.32 E.0863
G1 X295.651 Y222.674 E.07356
G1 X294.763 Y223.034 E.08636
G1 X293.853 Y223.331 E.0862
G1 X293.255 Y223.49 E.05574
G1 X292.315 Y223.683 E.08649
G1 X291.504 Y223.795 E.07371
G1 X290.889 Y223.848 E.05562
G1 X290.068 Y223.877 E.07404
G1 X149.776 Y223.883 E12.63845
G1 X149.147 Y223.938 E.0569
M73 P1 R51
G1 X148.523 Y224.059 E.05729
G1 X147.917 Y224.244 E.05708
G1 X147.356 Y224.479 E.05474
G1 X146.8 Y224.782 E.0571
G1 X146.279 Y225.139 E.05685
G1 X145.931 Y225.427 E.04067
G1 X145.48 Y225.872 E.05709
G1 X145.094 Y226.34 E.05468
G1 X144.742 Y226.867 E.05709
G1 X144.446 Y227.428 E.05713
G1 X144.21 Y228.015 E.05705
G1 X144.036 Y228.625 E.05713
G1 X143.925 Y229.249 E.05706
G1 X143.88 Y229.881 E.05708
G1 X143.887 Y230.308 E.03848
G1 X143.951 Y230.934 E.05668
G1 X144.08 Y231.554 E.05709
G1 X144.21 Y231.985 E.04048
G1 X144.435 Y232.548 E.05468
G1 X144.728 Y233.11 E.05709
G1 X145.078 Y233.639 E.05713
G1 X145.48 Y234.128 E.05705
G1 X145.779 Y234.433 E.03847
G1 X146.256 Y234.843 E.05668
G1 X146.776 Y235.203 E.05693
G1 X147.168 Y235.427 E.04065
G1 X147.72 Y235.681 E.05473
G1 X148.319 Y235.886 E.05704
G1 X148.733 Y235.989 E.03849
G1 X149.353 Y236.087 E.05652
G1 X149.781 Y236.118 E.03863
G1 X289.998 Y236.123 E12.63178
G1 X290.549 Y236.134 E.04962
G1 X291.364 Y236.19 E.07364
G1 X291.979 Y236.265 E.05582
G1 X292.785 Y236.405 E.07371
G1 X293.717 Y236.63 E.08629
G1 X294.765 Y236.967 E.09924
G1 X295.208 Y237.137 E.04276
G1 X295.957 Y237.466 E.07368
G1 X296.809 Y237.908 E.08643
G1 X297.627 Y238.407 E.08634
G1 X298.408 Y238.96 E.0862
G1 X299.256 Y239.66 E.09903
G1 X299.947 Y240.323 E.08625
G1 X300.592 Y241.034 E.08651
G1 X300.893 Y241.402 E.04283
G1 X301.379 Y242.057 E.07351
G1 X301.902 Y242.863 E.08652
G1 X302.429 Y243.827 E.09904
G1 X302.825 Y244.7 E.0863
G1 X303.116 Y245.465 E.07375
G1 X303.263 Y245.917 E.04282
G1 X303.514 Y246.843 E.08645
G1 X303.721 Y247.923 E.09902
G1 X303.832 Y248.874 E.08626
G1 X303.877 Y249.833 E.0865
G1 X303.874 Y250.308 E.04283
G1 X303.832 Y251.126 E.07372
G1 X303.721 Y252.078 E.08638
G1 X303.545 Y253.019 E.08624
G1 X303.263 Y254.084 E.09923
G1 X303.116 Y254.535 E.04276
G1 X302.825 Y255.3 E.07375
G1 X302.429 Y256.173 E.08636
G1 X301.974 Y257.015 E.08625
G1 X301.381 Y257.941 E.09904
G1 X300.806 Y258.707 E.08631
G1 X300.274 Y259.329 E.07371
G1 X299.948 Y259.676 E.04283
G1 X299.255 Y260.34 E.08653
G1 X298.52 Y260.954 E.08622
G1 X297.626 Y261.594 E.09904
G1 X296.809 Y262.092 E.08625
G1 X295.958 Y262.533 E.08635
G1 X295.21 Y262.862 E.07356
G1 X294.309 Y263.191 E.08649
G1 X293.719 Y263.37 E.05551
G1 X292.785 Y263.595 E.08649
G1 X291.981 Y263.735 E.07357
G1 X291.028 Y263.839 E.08636
G1 X290.067 Y263.877 E.08662
G1 X140.004 Y263.877 E13.51874
G1 X138.797 Y263.847 E.10874
G1 X137.744 Y263.77 E.09512
G1 X137.172 Y263.709 E.05186
G1 X136.503 Y263.62 E.06081
G1 X135.466 Y263.442 E.0948
G1 X134.237 Y263.171 E.11337
G1 X133.682 Y263.026 E.0517
G1 X132.67 Y262.724 E.09511
G1 X131.487 Y262.308 E.11295
G1 X130.51 Y261.91 E.09506
G1 X129.984 Y261.674 E.05193
G1 X129.375 Y261.383 E.06078
G1 X128.441 Y260.892 E.09503
G1 X127.362 Y260.258 E.11279
G1 X126.876 Y259.946 E.05205
G1 X126.007 Y259.346 E.09513
G1 X125.012 Y258.587 E.11272
G1 X124.567 Y258.219 E.05204
G1 X123.776 Y257.518 E.09515
G1 X122.879 Y256.643 E.11291
G1 X122.161 Y255.87 E.0951
G1 X121.722 Y255.362 E.06047
G1 X121.354 Y254.914 E.05219
G1 X120.713 Y254.075 E.09511
G1 X120 Y253.042 E.11307
G1 X119.692 Y252.558 E.05171
G1 X119.157 Y251.647 E.09511
G1 X118.574 Y250.536 E.11307
