; HEADER_BLOCK_START
; generated by OrcaSlicer 1.8.0-beta2 on 2023-11-30 at 13:43:39
; total layer number: 250
; HEADER_BLOCK_END

; THUMBNAIL_BLOCK_START
; THUMBNAIL_BLOCK_END

; external perimeters extrusion width = 0.60mm
; perimeters extrusion width = 0.65mm
; infill extrusion width = 0.65mm
; solid infill extrusion width = 0.65mm
; top infill extrusion width = 0.56mm
; first layer extrusion width = 0.62mm

; EXECUTABLE_BLOCK_START
EXCLUDE_OBJECT_DEFINE NAME=temperature_tower.stl_id_0_copy_0 CENTER=210,210 POLYGON=[[187.756,205],[227.785,205],[227.995,205.006],[228.145,205.016],[228.154,205.016],[228.208,205.021],[228.251,205.025],[228.285,205.029],[228.336,205.035],[228.473,205.053],[228.503,205.057],[228.535,205.062],[228.627,205.078],[228.792,205.11],[228.857,205.124],[229.04,205.17],[229.133,205.195],[229.309,205.25],[229.361,205.267],[229.444,205.296],[229.511,205.321],[229.55,205.336],[229.663,205.381],[229.684,205.389],[229.752,205.418],[229.762,205.423],[229.785,205.433],[229.943,205.507],[229.987,205.529],[230.246,205.668],[230.375,205.745],[230.517,205.836],[230.746,205.998],[231.063,206.257],[231.334,206.516],[231.508,206.704],[231.566,206.772],[231.708,206.947],[231.76,207.017],[231.877,207.18],[231.916,207.238],[232.009,207.383],[232.036,207.427],[232.11,207.555],[232.125,207.582],[232.185,207.694],[232.19,207.704],[232.23,207.783],[232.244,207.811],[232.242,212.192],[232.237,212.204],[232.22,212.237],[232.197,212.282],[232.166,212.342],[232.124,212.42],[232.074,212.508],[232.021,212.597],[231.943,212.72],[231.895,212.794],[231.777,212.962],[231.744,213.006],[231.575,213.218],[231.565,213.231],[231.353,213.465],[231.334,213.484],[231.055,213.75],[230.877,213.9],[230.738,214.008],[230.382,214.25],[230.369,214.258],[230.135,214.394],[229.939,214.495],[229.891,214.518],[229.785,214.567],[229.762,214.577],[229.752,214.582],[229.684,214.611],[229.663,214.619],[229.55,214.664],[229.519,214.676],[229.458,214.699],[229.444,214.704],[229.361,214.733],[229.32,214.746],[229.273,214.762],[229.112,214.811],[229.04,214.83],[228.857,214.876],[228.792,214.89],[228.627,214.922],[228.535,214.938],[228.503,214.943],[228.473,214.947],[228.336,214.965],[228.285,214.971],[228.251,214.975],[228.208,214.979],[228.154,214.984],[228.145,214.984],[227.995,214.994],[227.785,215],[187.756,215],[187.756,205]]
M73 P0 R56
;TYPE:Custom
G90 ; use absolute coordinates
M83 ; extruder relative mode
M104 S120 ; set temporary nozzle temp to prevent oozing during homing and auto bed leveling
M140 S60 ; set final bed temp
G4 S10 ; allow partial nozzle warmup
G28 ; home all axis
;G29 ; run abl mesh
M420 S1 ; load mesh
G1 Z50 F240
G1 X2 Y10 F3000
M104 S220 ; set final nozzle temp
M190 S60 ; wait for bed temp to stabilize
M109 S220 ; wait for nozzle temp to stabilize
G1 Z0.28 F240
G92 E0
G1 Y140 E10 F1500 ; prime the nozzle
G1 X2.3 F5000
G92 E0
G1 Y10 E10 F1200 ; prime the nozzle
G92 E0
LINE_PURGE
G90
G21
M83 ; use relative distances for extrusion
; filament start gcode
M106 S0
;LAYER_CHANGE
;Z:0.28
;HEIGHT:0.28
;BEFORE_LAYER_CHANGE
;0.28
G92 E0

G1 E-2 F3600
;AFTER_LAYER_CHANGE
;0.28
;_SET_FAN_SPEED_CHANGING_LAYER
M104 S220 ; set nozzle temperature
; printing object temperature_tower.stl id:0 copy 0
EXCLUDE_OBJECT_START NAME=temperature_tower.stl_id_0_copy_0
M73 P1 R56
G1 X194.323 Y202.406 F12000
G1 Z.4
G1 Z.28
G1 E2 F2700
;TYPE:Brim
;WIDTH:0.62
G1 F1200
G1 X194.782 Y201.98 E.04004
G1 X195.3 Y201.626 E.04004
G1 X195.864 Y201.353 E.04004
G1 X196.463 Y201.168 E.04004
G1 X197.088 Y201.073 E.04037
G1 X197.408 Y201.061 E.02047
G1 X227.902 Y201.062 E1.94782
G1 X228.631 Y201.105 E.04664
G1 X229.18 Y201.179 E.03539
G1 X229.917 Y201.367 E.0486
G1 X230.49 Y201.617 E.03993
G1 X231.021 Y201.95 E.04004
G1 X231.496 Y202.359 E.04004
G1 X231.906 Y202.834 E.04004
G1 X232.24 Y203.364 E.04004
G1 X232.491 Y203.938 E.04004
G1 X232.653 Y204.541 E.03987
G1 X232.729 Y205.343 E.05143
G1 X232.729 Y214.66 E.59516
G1 X232.681 Y215.296 E.04071
G1 X232.542 Y215.907 E.04004
G1 X232.313 Y216.491 E.04004
G1 X232 Y217.034 E.04004
G1 X231.609 Y217.524 E.04004
G1 X231.15 Y217.951 E.04004
G1 X230.633 Y218.304 E.04004
G1 X230.072 Y218.575 E.03975
G1 X229.178 Y218.821 E.05921
G1 X228.439 Y218.912 E.04756
G1 X227.778 Y218.939 E.04226
G1 X197.413 Y218.939 E1.93961
G1 X196.777 Y218.892 E.04071
G1 X196.166 Y218.753 E.04004
G1 X195.583 Y218.524 E.04004
G1 X195.04 Y218.211 E.04004
G1 X194.549 Y217.82 E.04004
G1 X194.122 Y217.361 E.04004
G1 X193.769 Y216.843 E.04004
G1 X193.496 Y216.279 E.04004
G1 X193.311 Y215.68 E.04004
G1 X193.215 Y215.055 E.04037
G1 X193.203 Y214.735 E.02047
G1 X193.203 Y205.27 E.60455
G1 X193.251 Y204.635 E.04071
G1 X193.39 Y204.024 E.04004
G1 X193.619 Y203.44 E.04004
G1 X193.932 Y202.897 E.04004
G1 X194.285 Y202.453 E.03621
G1 X194.723 Y202.805 F12000
G1 F1200
G1 X194.744 Y202.779 E.00207
G1 X195.123 Y202.427 E.03308
G1 X195.57 Y202.119 E.03468
G1 X196.058 Y201.881 E.03468
G1 X196.601 Y201.713 E.03628
G1 X197.131 Y201.633 E.03426
G1 X197.422 Y201.62 E.01858
G1 X227.88 Y201.622 E1.94557
G1 X228.57 Y201.662 E.04415
G1 X229.063 Y201.728 E.03176
G1 X229.722 Y201.895 E.04339
G1 X230.216 Y202.108 E.03441
G1 X230.677 Y202.395 E.03468
G1 X231.108 Y202.766 E.03628
G1 X231.461 Y203.178 E.03468
G1 X231.737 Y203.616 E.03308
G1 X231.956 Y204.113 E.03468
G1 X232.102 Y204.655 E.03585
G1 X232.169 Y205.377 E.04632
G1 X232.169 Y214.633 E.59123
G1 X232.123 Y215.224 E.03789
G1 X232.008 Y215.729 E.03308
G1 X231.812 Y216.235 E.03468
G1 X231.528 Y216.727 E.03628
G1 X231.205 Y217.133 E.03308
G1 X230.809 Y217.504 E.03468
G1 X230.362 Y217.811 E.03468
G1 X229.888 Y218.042 E.03364
G1 X229.057 Y218.272 E.05508
G1 X228.4 Y218.353 E.04227
G1 X227.763 Y218.38 E.04071
G1 X197.428 Y218.379 E1.93772
G1 X196.874 Y218.338 E.0355
G1 X196.344 Y218.219 E.03468
G1 X195.838 Y218.022 E.03468
G1 X195.366 Y217.753 E.03468
G1 X194.941 Y217.416 E.03468
G1 X194.57 Y217.02 E.03468
G1 X194.262 Y216.572 E.03468
G1 X194.024 Y216.084 E.03468
G1 X193.856 Y215.542 E.03628
G1 X193.775 Y215.011 E.03426
G1 X193.763 Y214.727 E.01817
G1 X193.763 Y205.298 E.60233
G1 X193.805 Y204.731 E.0363
G1 X193.924 Y204.201 E.03468
G1 X194.12 Y203.695 E.03468
G1 X194.404 Y203.203 E.03628
G1 X194.686 Y202.852 E.02877
G1 X195.123 Y203.205 F12000
G1 F1200
G1 X195.164 Y203.153 E.00421
G1 X195.484 Y202.858 E.02784
G1 X195.843 Y202.611 E.0278
G1 X196.254 Y202.409 E.02924
G1 X196.739 Y202.259 E.03247
G1 X197.176 Y202.192 E.02823
G1 X197.437 Y202.18 E.01668
G1 X227.859 Y202.182 E1.94325
G1 X228.511 Y202.22 E.04168
G1 X228.948 Y202.278 E.02815
G1 X229.528 Y202.424 E.03823
G1 X229.944 Y202.601 E.02891
G1 X230.334 Y202.841 E.02923
G1 X230.701 Y203.154 E.03079
G1 X231.015 Y203.521 E.03091
G1 X231.246 Y203.891 E.02784
G1 X231.421 Y204.288 E.0277
G1 X231.55 Y204.768 E.03178
G1 X231.609 Y205.411 E.04121
G1 X231.609 Y214.605 E.58727
G1 X231.569 Y215.128 E.0335
G1 X231.474 Y215.553 E.02783
G1 X231.31 Y215.981 E.02928
G1 X231.056 Y216.421 E.03247
G1 X230.784 Y216.76 E.02776
G1 X230.447 Y217.073 E.0294
G1 X230.089 Y217.319 E.02772
G1 X229.703 Y217.509 E.02747
G1 X228.935 Y217.723 E.05091
G1 X228.347 Y217.795 E.03784
G1 X227.748 Y217.82 E.0383
G1 X197.442 Y217.819 E1.93581
G1 X196.968 Y217.783 E.03036
G1 X196.52 Y217.684 E.02936
G1 X196.091 Y217.52 E.02932
G1 X195.692 Y217.294 E.02932
G1 X195.331 Y217.011 E.02931
G1 X195.016 Y216.677 E.02932
G1 X194.754 Y216.3 E.02931
G1 X194.552 Y215.889 E.02924
G1 X194.401 Y215.404 E.03247
G1 X194.335 Y214.967 E.02824
G1 X194.323 Y214.712 E.01627
G1 X194.323 Y205.324 E.59964
G1 X194.36 Y204.826 E.03195
G1 X194.458 Y204.377 E.02935
G1 X194.622 Y203.95 E.02923
G1 X194.876 Y203.51 E.03242
G1 X195.085 Y203.251 E.02124
G1 X195.52 Y203.606 F12000
G1 F1200
G1 X195.583 Y203.529 E.00637
G1 X195.845 Y203.29 E.02265
G1 X196.138 Y203.09 E.02266
G1 X196.474 Y202.927 E.02387
G1 X196.877 Y202.804 E.02693
G1 X197.222 Y202.751 E.02227
G1 X197.453 Y202.74 E.01479
G1 X227.838 Y202.742 E1.94086
G1 X228.451 Y202.777 E.03924
M73 P1 R55
G1 X228.833 Y202.827 E.02457
G1 X229.336 Y202.953 E.03316
G1 X229.675 Y203.094 E.02343
G1 X229.992 Y203.288 E.02377
G1 X230.313 Y203.561 E.02689
G1 X230.569 Y203.864 E.02537
G1 X230.744 Y204.144 E.02103
G1 X230.886 Y204.462 E.02231
G1 X230.998 Y204.881 E.02769
G1 X231.049 Y205.444 E.03611
G1 X231.049 Y214.577 E.58336
G1 X231.015 Y215.033 E.0292
G1 X230.939 Y215.379 E.02261
G1 X230.808 Y215.727 E.02379
G1 X230.584 Y216.114 E.02855
G1 X230.364 Y216.386 E.02234
G1 X230.104 Y216.627 E.02261
G1 X229.815 Y216.828 E.02251
G1 X229.517 Y216.977 E.02128
G1 X228.813 Y217.173 E.04667
G1 X228.295 Y217.236 E.03337
G1 X227.733 Y217.26 E.03591
G1 X197.457 Y217.258 E1.93391
G1 X197.062 Y217.229 E.02531
G1 X196.693 Y217.149 E.02409
G1 X196.342 Y217.017 E.02395
G1 X196.015 Y216.833 E.02395
G1 X195.719 Y216.604 E.02395
G1 X195.46 Y216.332 E.02395
G1 X195.245 Y216.025 E.02395
G1 X195.07 Y215.669 E.02538
G1 X194.947 Y215.265 E.02693
G1 X194.894 Y214.92 E.0223
G1 X194.883 Y214.696 E.01438
G1 X194.883 Y205.351 E.59689
G1 X194.914 Y204.919 E.02769
G1 X194.993 Y204.55 E.02406
G1 X195.125 Y204.203 E.0237
G1 X195.347 Y203.817 E.02847
G1 X195.482 Y203.653 E.01358
G1 X195.915 Y204.015 F12000
G1 F1200
G1 X196.011 Y203.9 E.00955
G1 X196.179 Y203.751 E.01437
G1 X196.407 Y203.593 E.01774
G1 X196.728 Y203.438 E.02271
G1 X197.101 Y203.333 E.02475
G1 X197.431 Y203.3 E.02124
G1 X227.771 Y203.3 E1.93797
G1 X228.356 Y203.33 E.0374
G1 X228.761 Y203.383 E.0261
G1 X229.221 Y203.513 E.03054
G1 X229.513 Y203.654 E.0207
G1 X229.754 Y203.815 E.0185
G1 X230.069 Y204.141 E.02895
G1 X230.203 Y204.354 E.01611
G1 X230.319 Y204.593 E.01701
G1 X230.457 Y205.083 E.03249
G1 X230.485 Y205.292 E.01345
G1 X230.489 Y214.63 E.59647
G1 X230.401 Y215.178 E.03551
G1 X230.319 Y215.433 E.01709
G1 X230.132 Y215.778 E.02507
G1 X229.921 Y216.029 E.02093
G1 X229.729 Y216.192 E.0161
G1 X229.378 Y216.409 E.02633
G1 X229.04 Y216.545 E.02333
G1 X228.827 Y216.604 E.0141
G1 X228.342 Y216.671 E.03124
G1 X227.84 Y216.698 E.03214
G1 X197.444 Y216.7 E1.9416
G1 X196.895 Y216.612 E.03551
G1 X196.637 Y216.529 E.01728
G1 X196.397 Y216.409 E.01715
G1 X196.134 Y216.216 E.02085
G1 X195.83 Y215.88 E.02894
G1 X195.686 Y215.645 E.01759
G1 X195.58 Y215.414 E.01622
G1 X195.497 Y215.153 E.0175
G1 X195.456 Y214.897 E.01658
G1 X195.443 Y205.301 E.61294
G1 X195.531 Y204.752 E.03553
G1 X195.613 Y204.497 E.01709
G1 X195.8 Y204.153 E.02506
G1 X195.877 Y204.061 E.00762
G1 X196.314 Y204.404 F12000
G1 F1200
G1 X196.374 Y204.326 E.00625
G1 X196.559 Y204.162 E.01582
G1 X196.72 Y204.057 E.01228
G1 X196.97 Y203.943 E.01753
G1 X197.15 Y203.891 E.01197
G1 X197.423 Y203.86 E.01754
G1 X227.775 Y203.86 E1.93878
G1 X228.332 Y203.89 E.03561
G1 X228.696 Y203.94 E.02349
G1 X228.965 Y204.011 E.01773
G1 X229.281 Y204.163 E.02239
G1 X229.437 Y204.276 E.01232
G1 X229.596 Y204.44 E.01463
G1 X229.695 Y204.589 E.01139
G1 X229.822 Y204.85 E.01856
G1 X229.916 Y205.226 E.02474
G1 X229.929 Y205.356 E.00834
G1 X229.929 Y214.643 E.59322
G1 X229.849 Y215.089 E.02893
G1 X229.79 Y215.251 E.01101
G1 X229.698 Y215.424 E.01252
G1 X229.557 Y215.604 E.01463
G1 X229.424 Y215.723 E.01138
G1 X229.182 Y215.884 E.01855
G1 X228.821 Y216.029 E.02486
G1 X228.69 Y216.061 E.00865
G1 X228.265 Y216.116 E.02739
G1 X227.808 Y216.139 E.02918
G1 X197.43 Y216.14 E1.94043
G1 X196.985 Y216.059 E.02893
G1 X196.823 Y216.001 E.01101
G1 X196.649 Y215.909 E.01253
G1 X196.469 Y215.768 E.01459
G1 X196.304 Y215.583 E.01582
G1 X196.199 Y215.422 E.01228
G1 X196.085 Y215.173 E.01753
G1 X196.033 Y214.991 E.01209
G1 X196.009 Y214.814 E.01138
G1 X196.003 Y205.287 E.60853
G1 X196.083 Y204.842 E.02893
M73 P2 R55
G1 X196.142 Y204.68 E.01101
G1 X196.234 Y204.506 E.01253
G1 X196.277 Y204.451 E.00451
G1 X196.736 Y204.754 F12000
G1 F1200
G1 X196.941 Y204.571 E.01759
G1 X197.214 Y204.447 E.01913
G1 X197.414 Y204.42 E.01288
G1 X227.78 Y204.42 E1.93967
G1 X228.25 Y204.444 E.03005
G1 X228.631 Y204.496 E.0246
G1 X228.817 Y204.551 E.0124
G1 X228.941 Y204.609 E.00876
G1 X229.122 Y204.739 E.01422
G1 X229.236 Y204.909 E.01309
G1 X229.315 Y205.087 E.01241
G1 X229.369 Y205.347 E.01697
G1 X229.369 Y214.658 E.59474
G1 X229.3 Y214.979 E.02099
G1 X229.196 Y215.176 E.01422
G1 X229.043 Y215.312 E.01309
G1 X228.878 Y215.414 E.01241
G1 X228.627 Y215.505 E.01706
G1 X228.186 Y215.562 E.02839
G1 X227.78 Y215.58 E.02592
G1 X197.415 Y215.58 E1.93961
G1 X197.094 Y215.511 E.02099
G1 X196.897 Y215.407 E.01422
G1 X196.714 Y215.201 E.01759
G1 X196.589 Y214.929 E.01913
G1 X196.563 Y214.729 E.01288
G1 X196.563 Y205.273 E.60404
G1 X196.632 Y204.951 E.02099
G1 X196.708 Y204.807 E.01039
G1 X197.172 Y205.102 F12000
G1 F1200
G1 X197.301 Y204.999 E.01057
G1 X197.403 Y204.98 E.0066
G1 X227.784 Y204.98 E1.94065
G1 X228.167 Y204.998 E.02448
G1 X228.568 Y205.052 E.02587
G1 X228.718 Y205.122 E.01057
G1 X228.81 Y205.33 E.01446
G1 X228.809 Y214.671 E.59667
G1 X228.761 Y214.829 E.01057
G1 X228.568 Y214.948 E.01446
G1 X228.167 Y215.002 E.02586
G1 X227.784 Y215.02 E.02448
G1 X197.403 Y215.02 E1.94065
G1 X197.245 Y214.971 E.01057
G1 X197.142 Y214.842 E.01057
G1 X197.123 Y214.74 E.0066
G1 X197.123 Y205.26 E.60556
G1 X197.154 Y205.159 E.00674
;WIPE_START
G1 X197.301 Y204.999 E-.43523
G1 X197.403 Y204.98 E-.20653
G1 X198.082 Y204.98 E-1.35824
;WIPE_END
G1 X205.701 Y205.43 Z.68 F12000
G1 X227.1 Y206.693 Z.68
G1 Z.28
G1 E2 F2700
;TYPE:Inner wall
;WIDTH:0.62
G1 F1200
G1 X227.1 Y213.31 E.42268
G1 X198.832 Y213.31 E1.8056
G1 X198.832 Y206.69 E.42289
G1 X227.04 Y206.693 E1.80177
G1 X227.66 Y206.133 F12000
G1 F1200
G1 X227.66 Y213.87 E.49421
G1 X198.273 Y213.87 E1.87713
G1 X198.273 Y206.13 E.49442
G1 X227.6 Y206.133 E1.8733
G1 X227.873 Y205.573 F12000
;TYPE:Outer wall
G1 F1200
G1 X228.22 Y205.608 E.02228
G1 X228.219 Y214.389 E.5609
G1 X227.771 Y214.43 E.02879
G1 X197.713 Y214.43 E1.91998
G1 X197.713 Y205.57 E.56595
G1 X227.813 Y205.573 E1.92266
;WIPE_START
G1 X228.22 Y205.608 E-.81708
G1 X228.22 Y206.199 E-1.18292
;WIPE_END
G1 X225.79 Y206.861 Z.68 F12000
G1 Z.28
G1 E2 F2700
;TYPE:Bottom surface
;WIDTH:0.624536
G1 F1200
G1 X226.68 Y207.75 E.08101
G1 X226.68 Y208.549 E.0514
G1 X225.244 Y207.113 E.13077
G1 X224.446 Y207.113 E.05141
G1 X226.68 Y209.347 E.20347
G1 X226.68 Y210.145 E.0514
G1 X223.647 Y207.113 E.27617
G1 X222.849 Y207.112 E.05141
G1 X226.68 Y210.943 E.34887
G1 X226.68 Y211.742 E.0514
G1 X222.051 Y207.112 E.42157
G1 X221.252 Y207.112 E.05141
G1 X226.68 Y212.54 E.49427
G1 X226.68 Y212.89 E.02257
G1 X226.232 Y212.89 E.02883
G1 X220.454 Y207.112 E.52619
G1 X219.655 Y207.112 E.05141
G1 X225.434 Y212.89 E.5262
G1 X224.635 Y212.89 E.0514
G1 X218.857 Y207.112 E.52621
G1 X218.059 Y207.112 E.05141
G1 X223.837 Y212.89 E.52622
G1 X223.039 Y212.89 E.0514
G1 X217.26 Y207.112 E.52622
G1 X216.462 Y207.112 E.05141
G1 X222.241 Y212.89 E.52623
G1 X221.442 Y212.89 E.0514
G1 X215.664 Y207.112 E.52624
G1 X214.865 Y207.112 E.05141
G1 X220.644 Y212.89 E.52625
G1 X219.846 Y212.89 E.0514
G1 X214.067 Y207.112 E.52626
G1 X213.269 Y207.111 E.05141
G1 X219.048 Y212.89 E.52627
G1 X218.249 Y212.89 E.0514
G1 X212.47 Y207.111 E.52627
G1 X211.672 Y207.111 E.05141
G1 X217.451 Y212.89 E.52628
G1 X216.653 Y212.89 E.0514
G1 X210.874 Y207.111 E.52629
G1 X210.075 Y207.111 E.05141
G1 X215.855 Y212.89 E.5263
G1 X215.056 Y212.89 E.0514
G1 X209.277 Y207.111 E.52631
G1 X208.479 Y207.111 E.05141
G1 X214.258 Y212.89 E.52631
G1 X213.46 Y212.89 E.0514
G1 X207.68 Y207.111 E.52632
G1 X206.882 Y207.111 E.05141
G1 X212.662 Y212.89 E.52633
G1 X211.863 Y212.89 E.0514
G1 X206.084 Y207.111 E.52634
G1 X205.285 Y207.111 E.05141
G1 X211.065 Y212.89 E.52635
G1 X210.267 Y212.89 E.0514
G1 X204.487 Y207.11 E.52636
G1 X203.689 Y207.11 E.05141
G1 X209.469 Y212.89 E.52636
G1 X208.67 Y212.89 E.0514
G1 X202.89 Y207.11 E.52637
G1 X202.092 Y207.11 E.05141
G1 X207.872 Y212.89 E.52638
G1 X207.074 Y212.89 E.0514
M73 P3 R55
G1 X201.294 Y207.11 E.52639
G1 X200.495 Y207.11 E.05141
G1 X206.276 Y212.89 E.5264
G1 X205.478 Y212.89 E.0514
G1 X199.697 Y207.11 E.5264
G1 X199.252 Y207.11 E.02863
G1 X199.252 Y207.463 E.02277
G1 X204.679 Y212.89 E.49421
G1 X203.881 Y212.89 E.0514
